(Generated by PartKam Version 0.05)

G21 G90 G40

(Drill4mm)
G0 Z15
T1 M6
G17
M3
G0 X325.48299492385786 Y461.35989847715734
G1 Z-1.5 F800
G1 Z0 F800
G1 Z-3 F800
G1 Z0 F800
G1 Z-4.5 F800
G1 Z0 F800
G1 Z-6 F800
G1 Z0 F800
G1 Z-7.5 F800
G1 Z0 F800
G1 Z-9 F800
G1 Z0 F800
G1 Z-10 F800
G1 Z0 F800
G0 Z15
G0 X158.81700507614212 Y461.35989847715734
G1 Z-1.5 F800
G1 Z0 F800
G1 Z-3 F800
G1 Z0 F800
G1 Z-4.5 F800
G1 Z0 F800
G1 Z-6 F800
G1 Z0 F800
G1 Z-7.5 F800
G1 Z0 F800
G1 Z-9 F800
G1 Z0 F800
G1 Z-10 F800
G1 Z0 F800
G0 Z15
G0 X295.8829949238579 Y461.35989847715734
G1 Z-1.5 F800
G1 Z0 F800
G1 Z-3 F800
G1 Z0 F800
G1 Z-4.5 F800
G1 Z0 F800
G1 Z-6 F800
G1 Z0 F800
G1 Z-7.5 F800
G1 Z0 F800
G1 Z-9 F800
G1 Z0 F800
G1 Z-10 F800
G1 Z0 F800
G0 Z15
G0 X129.21700507614213 Y461.35989847715734
G1 Z-1.5 F800
G1 Z0 F800
G1 Z-3 F800
G1 Z0 F800
G1 Z-4.5 F800
G1 Z0 F800
G1 Z-6 F800
G1 Z0 F800
G1 Z-7.5 F800
G1 Z0 F800
G1 Z-9 F800
G1 Z0 F800
G1 Z-10 F800
G1 Z0 F800
G0 Z15
G0 X295.8829949238579 Y445.15
G1 Z-1.5 F800
G1 Z0 F800
G1 Z-3 F800
G1 Z0 F800
G1 Z-4.5 F800
G1 Z0 F800
G1 Z-6 F800
G1 Z0 F800
G1 Z-7.5 F800
G1 Z0 F800
G1 Z-9 F800
G1 Z0 F800
G1 Z-10 F800
G1 Z0 F800
G0 Z15
G0 X158.81700507614212 Y445.15
G1 Z-1.5 F800
G1 Z0 F800
G1 Z-3 F800
G1 Z0 F800
G1 Z-4.5 F800
G1 Z0 F800
G1 Z-6 F800
G1 Z0 F800
G1 Z-7.5 F800
G1 Z0 F800
G1 Z-9 F800
G1 Z0 F800
G1 Z-10 F800
G1 Z0 F800
G0 Z15
G0 X129.21700507614213 Y445.15
G1 Z-1.5 F800
G1 Z0 F800
G1 Z-3 F800
G1 Z0 F800
G1 Z-4.5 F800
G1 Z0 F800
G1 Z-6 F800
G1 Z0 F800
G1 Z-7.5 F800
G1 Z0 F800
G1 Z-9 F800
G1 Z0 F800
G1 Z-10 F800
G1 Z0 F800
G0 Z15
G0 X325.48299492385786 Y445.15
G1 Z-1.5 F800
G1 Z0 F800
G1 Z-3 F800
G1 Z0 F800
G1 Z-4.5 F800
G1 Z0 F800
G1 Z-6 F800
G1 Z0 F800
G1 Z-7.5 F800
G1 Z0 F800
G1 Z-9 F800
G1 Z0 F800
G1 Z-10 F800
G1 Z0 F800
G0 Z15
G0 X214.3 Y371.15
G1 Z-1.5 F800
G1 Z0 F800
G1 Z-3 F800
G1 Z0 F800
G1 Z-4.5 F800
G1 Z0 F800
G1 Z-6 F800
G1 Z0 F800
G1 Z-7.5 F800
G1 Z0 F800
G1 Z-9 F800
G1 Z0 F800
G1 Z-10 F800
G1 Z0 F800
G0 Z15
G0 X240.3 Y371.15
G1 Z-1.5 F800
G1 Z0 F800
G1 Z-3 F800
G1 Z0 F800
G1 Z-4.5 F800
G1 Z0 F800
G1 Z-6 F800
G1 Z0 F800
G1 Z-7.5 F800
G1 Z0 F800
G1 Z-9 F800
G1 Z0 F800
G1 Z-10 F800
G1 Z0 F800
G0 Z15
G0 X214.3 Y342.15
G1 Z-1.5 F800
G1 Z0 F800
G1 Z-3 F800
G1 Z0 F800
G1 Z-4.5 F800
G1 Z0 F800
G1 Z-6 F800
G1 Z0 F800
G1 Z-7.5 F800
G1 Z0 F800
G1 Z-9 F800
G1 Z0 F800
G1 Z-10 F800
G1 Z0 F800
G0 Z15
G0 X240.3 Y342.15
G1 Z-1.5 F800
G1 Z0 F800
G1 Z-3 F800
G1 Z0 F800
G1 Z-4.5 F800
G1 Z0 F800
G1 Z-6 F800
G1 Z0 F800
G1 Z-7.5 F800
G1 Z0 F800
G1 Z-9 F800
G1 Z0 F800
G1 Z-10 F800
G1 Z0 F800
G0 Z15
G0 X158.81700507614212 Y268.05989847715733
G1 Z-1.5 F800
G1 Z0 F800
G1 Z-3 F800
G1 Z0 F800
G1 Z-4.5 F800
G1 Z0 F800
G1 Z-6 F800
G1 Z0 F800
G1 Z-7.5 F800
G1 Z0 F800
G1 Z-9 F800
G1 Z0 F800
G1 Z-10 F800
G1 Z0 F800
G0 Z15
G0 X325.48299492385786 Y268.05989847715733
G1 Z-1.5 F800
G1 Z0 F800
G1 Z-3 F800
G1 Z0 F800
G1 Z-4.5 F800
G1 Z0 F800
G1 Z-6 F800
G1 Z0 F800
G1 Z-7.5 F800
G1 Z0 F800
G1 Z-9 F800
G1 Z0 F800
G1 Z-10 F800
G1 Z0 F800
G0 Z15
G0 X295.8829949238579 Y268.05989847715733
G1 Z-1.5 F800
G1 Z0 F800
G1 Z-3 F800
G1 Z0 F800
G1 Z-4.5 F800
G1 Z0 F800
G1 Z-6 F800
G1 Z0 F800
G1 Z-7.5 F800
G1 Z0 F800
G1 Z-9 F800
G1 Z0 F800
G1 Z-10 F800
G1 Z0 F800
G0 Z15
G0 X129.21700507614213 Y268.05989847715733
G1 Z-1.5 F800
G1 Z0 F800
G1 Z-3 F800
G1 Z0 F800
G1 Z-4.5 F800
G1 Z0 F800
G1 Z-6 F800
G1 Z0 F800
G1 Z-7.5 F800
G1 Z0 F800
G1 Z-9 F800
G1 Z0 F800
G1 Z-10 F800
G1 Z0 F800
G0 Z15
G0 X325.48299492385786 Y251.85
G1 Z-1.5 F800
G1 Z0 F800
G1 Z-3 F800
G1 Z0 F800
G1 Z-4.5 F800
G1 Z0 F800
G1 Z-6 F800
G1 Z0 F800
G1 Z-7.5 F800
G1 Z0 F800
G1 Z-9 F800
G1 Z0 F800
G1 Z-10 F800
G1 Z0 F800
G0 Z15
G0 X295.8829949238579 Y251.85
G1 Z-1.5 F800
G1 Z0 F800
G1 Z-3 F800
G1 Z0 F800
G1 Z-4.5 F800
G1 Z0 F800
G1 Z-6 F800
G1 Z0 F800
G1 Z-7.5 F800
G1 Z0 F800
G1 Z-9 F800
G1 Z0 F800
G1 Z-10 F800
G1 Z0 F800
G0 Z15
G0 X129.21700507614213 Y251.85
G1 Z-1.5 F800
G1 Z0 F800
G1 Z-3 F800
G1 Z0 F800
G1 Z-4.5 F800
G1 Z0 F800
G1 Z-6 F800
G1 Z0 F800
G1 Z-7.5 F800
G1 Z0 F800
G1 Z-9 F800
G1 Z0 F800
G1 Z-10 F800
G1 Z0 F800
G0 Z15
G0 X158.81700507614212 Y251.85
G1 Z-1.5 F800
G1 Z0 F800
G1 Z-3 F800
G1 Z0 F800
G1 Z-4.5 F800
G1 Z0 F800
G1 Z-6 F800
G1 Z0 F800
G1 Z-7.5 F800
G1 Z0 F800
G1 Z-9 F800
G1 Z0 F800
G1 Z-10 F800
G1 Z0 F800

(Drill8mm)
G0 Z15
T0 M6
G0 X15.003553299492387 Y460.3
G1 Z-1.5 F800
G1 Z0 F800
G1 Z-3 F800
G1 Z0 F800
G1 Z-4.5 F800
G1 Z0 F800
G1 Z-6 F800
G1 Z0 F800
G1 Z-7.5 F800
G1 Z0 F800
G1 Z-9 F800
G1 Z0 F800
G1 Z-10 F800
G1 Z0 F800
G0 Z15
G0 X439.6035532994924 Y460.3
G1 Z-1.5 F800
G1 Z0 F800
G1 Z-3 F800
G1 Z0 F800
G1 Z-4.5 F800
G1 Z0 F800
G1 Z-6 F800
G1 Z0 F800
G1 Z-7.5 F800
G1 Z0 F800
G1 Z-9 F800
G1 Z0 F800
G1 Z-10 F800
G1 Z0 F800
G0 Z15
G0 X15.003553299492387 Y253
G1 Z-1.5 F800
G1 Z0 F800
G1 Z-3 F800
G1 Z0 F800
G1 Z-4.5 F800
G1 Z0 F800
G1 Z-6 F800
G1 Z0 F800
G1 Z-7.5 F800
G1 Z0 F800
G1 Z-9 F800
G1 Z0 F800
G1 Z-10 F800
G1 Z0 F800
G0 Z15
G0 X439.6035532994924 Y253
G1 Z-1.5 F800
G1 Z0 F800
G1 Z-3 F800
G1 Z0 F800
G1 Z-4.5 F800
G1 Z0 F800
G1 Z-6 F800
G1 Z0 F800
G1 Z-7.5 F800
G1 Z0 F800
G1 Z-9 F800
G1 Z0 F800
G1 Z-10 F800
G1 Z0 F800
G0 Z15
M5
M30
