(Generated by PartKam Version 0.05)

G21 G90 G40

(DrillM8)
G0 Z10
T0 M6
G17
M3
G0 X24.988832487309644 Y232.51421319796955
G1 Z-12.7 F800
G1 Z0 F800
G0 Z10
G0 X449.5888324873096 Y232.51421319796955
G1 Z-12.7 F800
G1 Z0 F800
G0 Z10
G0 X24.988832487309644 Y25.214213197969542
G1 Z-12.7 F800
G1 Z0 F800
G0 Z10
G0 X449.5888324873096 Y25.214213197969542
G1 Z-12.7 F800
G1 Z0 F800

(DrillM4)
G0 Z10
T2 M6
G0 X335.4682741116751 Y233.5743654822335
G1 Z-12.7 F800
G1 Z0 F800
G0 Z10
G0 X168.8022842639594 Y233.5743654822335
G1 Z-12.7 F800
G1 Z0 F800
G0 Z10
G0 X305.86827411167513 Y233.5743654822335
G1 Z-12.7 F800
G1 Z0 F800
G0 Z10
G0 X139.2022842639594 Y233.5743654822335
G1 Z-12.7 F800
G1 Z0 F800
G0 Z10
G0 X305.86827411167513 Y217.36421319796955
G1 Z-12.7 F800
G1 Z0 F800
G0 Z10
G0 X168.8022842639594 Y217.36421319796955
G1 Z-12.7 F800
G1 Z0 F800
G0 Z10
G0 X139.2022842639594 Y217.36421319796955
G1 Z-12.7 F800
G1 Z0 F800
G0 Z10
G0 X335.4682741116751 Y217.36421319796955
G1 Z-12.7 F800
G1 Z0 F800
G0 Z10
G0 X224.28527918781725 Y143.36421319796955
G1 Z-12.7 F800
G1 Z0 F800
G0 Z10
G0 X250.28527918781725 Y143.36421319796955
G1 Z-12.7 F800
G1 Z0 F800
G0 Z10
G0 X224.28527918781725 Y114.36421319796955
G1 Z-12.7 F800
G1 Z0 F800
G0 Z10
G0 X250.28527918781725 Y114.36421319796955
G1 Z-12.7 F800
G1 Z0 F800
G0 Z10
G0 X335.4682741116751 Y40.274365482233506
G1 Z-12.7 F800
G1 Z0 F800
G0 Z10
G0 X305.86827411167513 Y40.274365482233506
G1 Z-12.7 F800
G1 Z0 F800
G0 Z10
G0 X139.2022842639594 Y40.274365482233506
G1 Z-12.7 F800
G1 Z0 F800
G0 Z10
G0 X168.8022842639594 Y40.274365482233506
G1 Z-12.7 F800
G1 Z0 F800
G0 Z10
G0 X335.4682741116751 Y24.064213197969544
G1 Z-12.7 F800
G1 Z0 F800
G0 Z10
G0 X305.86827411167513 Y24.064213197969544
G1 Z-12.7 F800
G1 Z0 F800
G0 Z10
G0 X139.2022842639594 Y24.064213197969544
G1 Z-12.7 F800
G1 Z0 F800
G0 Z10
G0 X168.8022842639594 Y24.064213197969544
G1 Z-12.7 F800
G1 Z0 F800

(ProfileCut)
G0 Z15
T1 M6
G0 X9.985279187817259 Y7.714213197969543
G1 Z-1.5 F800
G1 X464.5862944162437 Y7.713197969543147 F1500
G3 X467.0862944162437 Y10.213197969543145 I0 J2.5
G1 X467.0862944162437 Y247.51522842639594
G3 X464.5862944162437 Y250.01522842639594 I-2.5 J0
G1 X9.98477157360406 Y250.01522842639594
G3 X7.4847715736040605 Y247.51522842639594 I0 J-2.5
G1 X7.4847715736040605 Y10.213197969543145
G3 X9.98477157360406 Y7.713197969543147 I2.5 J0
G1 Z-3 F800
G1 X464.5862944162437 Y7.713197969543147 F1500
G3 X467.0862944162437 Y10.213197969543145 I0 J2.5
G1 X467.0862944162437 Y247.51522842639594
G3 X464.5862944162437 Y250.01522842639594 I-2.5 J0
G1 X9.98477157360406 Y250.01522842639594
G3 X7.4847715736040605 Y247.51522842639594 I0 J-2.5
G1 X7.4847715736040605 Y10.213197969543145
G3 X9.98477157360406 Y7.713197969543147 I2.5 J0
G1 Z-4.5 F800
G1 X464.5862944162437 Y7.713197969543147 F1500
G3 X467.0862944162437 Y10.213197969543145 I0 J2.5
G1 X467.0862944162437 Y247.51522842639594
G3 X464.5862944162437 Y250.01522842639594 I-2.5 J0
G1 X9.98477157360406 Y250.01522842639594
G3 X7.4847715736040605 Y247.51522842639594 I0 J-2.5
G1 X7.4847715736040605 Y10.213197969543145
G3 X9.98477157360406 Y7.713197969543147 I2.5 J0
G1 Z-6 F800
G1 X464.5862944162437 Y7.713197969543147 F1500
G3 X467.0862944162437 Y10.213197969543145 I0 J2.5
G1 X467.0862944162437 Y247.51522842639594
G3 X464.5862944162437 Y250.01522842639594 I-2.5 J0
G1 X9.98477157360406 Y250.01522842639594
G3 X7.4847715736040605 Y247.51522842639594 I0 J-2.5
G1 X7.4847715736040605 Y10.213197969543145
G3 X9.98477157360406 Y7.713197969543147 I2.5 J0
G1 Z-7.5 F800
G1 X464.5862944162437 Y7.713197969543147 F1500
G3 X467.0862944162437 Y10.213197969543145 I0 J2.5
G1 X467.0862944162437 Y247.51522842639594
G3 X464.5862944162437 Y250.01522842639594 I-2.5 J0
G1 X9.98477157360406 Y250.01522842639594
G3 X7.4847715736040605 Y247.51522842639594 I0 J-2.5
G1 X7.4847715736040605 Y10.213197969543145
G3 X9.98477157360406 Y7.713197969543147 I2.5 J0
G1 Z-9 F800
G1 X464.5862944162437 Y7.713197969543147 F1500
G3 X467.0862944162437 Y10.213197969543145 I0 J2.5
G1 X467.0862944162437 Y247.51522842639594
G3 X464.5862944162437 Y250.01522842639594 I-2.5 J0
G1 X9.98477157360406 Y250.01522842639594
G3 X7.4847715736040605 Y247.51522842639594 I0 J-2.5
G1 X7.4847715736040605 Y10.213197969543145
G3 X9.98477157360406 Y7.713197969543147 I2.5 J0
G1 Z-10 F800
G1 X464.5862944162437 Y7.713197969543147 F1500
G3 X467.0862944162437 Y10.213197969543145 I0 J2.5
G1 X467.0862944162437 Y247.51522842639594
G3 X464.5862944162437 Y250.01522842639594 I-2.5 J0
G1 X9.98477157360406 Y250.01522842639594
G3 X7.4847715736040605 Y247.51522842639594 I0 J-2.5
G1 X7.4847715736040605 Y10.213197969543145
G3 X9.98477157360406 Y7.713197969543147 I2.5 J0
G0 Z15
M5
M30
