(File built with GCodeTools)
(Generated on 17/05/2016 23:02:48)

(Start Block_0)
G0 X25.5168 Y232.732
G1 Z-1.5 F800
G1 X25.4975 Y232.7437 F1500
G1 X25.4822 Y232.7487
G1 X25.467 Y232.7513
G1 X25.4442 Y232.7563
G1 X25.4264 Y232.7563
G1 X25.4036 Y232.7538
G1 X25.3883 Y232.7513
G1 X25.3706 Y232.7462
G1 X25.3528 Y232.736
G1 X25.335 Y232.7259
G1 X25.3223 Y232.7157
G1 X25.3096 Y232.7056
G1 X25.297 Y232.6904
G1 X25.2868 Y232.67
G1 X25.2767 Y232.6548
G1 X25.2716 Y232.6371
G1 X25.2665 Y232.6193
G1 X25.264 Y232.599
G1 X25.264 Y232.5812
G1 X25.2665 Y232.5634
G1 X25.2716 Y232.5432
G1 X25.2767 Y232.5254
G1 X25.2868 Y232.5101
G1 X25.297 Y232.4924
G1 X25.3096 Y232.4772
G1 X25.3223 Y232.4645
G1 X25.335 Y232.4543
G1 X25.3528 Y232.4442
G1 X25.3706 Y232.4366
G1 X25.3883 Y232.4315
G1 X25.4036 Y232.4264
G1 X25.4264 Y232.4264
G1 X25.4442 Y232.4264
G1 X25.467 Y232.4289
G1 X25.4822 Y232.434
G1 X25.4975 Y232.4391
G1 X25.5178 Y232.4492
G1 X25.533 Y232.4619
G1 X25.5457 Y232.4721
G1 X25.5584 Y232.4848
G1 X25.5685 Y232.5
G1 X25.5787 Y232.5178
G1 X25.5863 Y232.5355
G1 X25.5914 Y232.5533
G1 X25.5965 Y232.5711
G1 X25.5965 Y232.5914
G1 X25.5965 Y232.6091
G1 X25.5914 Y232.6269
G1 X25.5863 Y232.6472
G1 X25.5787 Y232.665
G1 X25.5685 Y232.6802
G1 X25.5584 Y232.6954
G1 X25.5457 Y232.7081
G1 X25.533 Y232.7208
G1 X25.5178 Y232.731
G1 X26.1736 Y233.8213 F1500
G1 X26.0254 Y233.8985 F1500
G1 X25.8756 Y233.9594
G1 X25.7183 Y234
G1 X25.5533 Y234.0228
G1 X25.3883 Y234.0279
G1 X25.2234 Y234.0127
G1 X25.0635 Y233.9822
G1 X24.9086 Y233.9315
G1 X24.7589 Y233.8629
G1 X24.6193 Y233.7767
G1 X24.4899 Y233.6777
G1 X24.3731 Y233.5634
G1 X24.269 Y233.4366
G1 X24.1777 Y233.297
G1 X24.1066 Y233.1497
G1 X24.0508 Y232.9949
G1 X24.0127 Y232.835
G1 X23.9949 Y232.6726
G1 X23.9949 Y232.5101
G1 X24.0127 Y232.3452
G1 X24.0508 Y232.1853
G1 X24.1066 Y232.0305
G1 X24.1777 Y231.8858
G1 X24.269 Y231.7437
G1 X24.3731 Y231.6167
G1 X24.4899 Y231.5025
G1 X24.6193 Y231.4035
G1 X24.7589 Y231.3198
G1 X24.9086 Y231.2513
G1 X25.0635 Y231.2005
G1 X25.2234 Y231.1675
G1 X25.3883 Y231.1548
G1 X25.5533 Y231.1574
G1 X25.7183 Y231.1827
G1 X25.8756 Y231.2233
G1 X26.0254 Y231.2817
G1 X26.1726 Y231.3604
G1 X26.3096 Y231.4518
G1 X26.434 Y231.5584
G1 X26.5432 Y231.6802
G1 X26.6396 Y231.8122
G1 X26.7208 Y231.9568
G1 X26.7843 Y232.1066
G1 X26.83 Y232.264
G1 X26.8579 Y232.4264
G1 X26.868 Y232.5914
G1 X26.8579 Y232.7538
G1 X26.83 Y232.9162
G1 X26.7843 Y233.0736
G1 X26.7208 Y233.2259
G1 X26.6396 Y233.368
G1 X26.5432 Y233.5
G1 X26.434 Y233.6218
G1 X26.3096 Y233.7284
G1 X26.1726 Y233.8223
G1 X26.8302 Y234.9109 F1500
G1 X26.5558 Y235.0558 F1500
G1 X26.269 Y235.1675
G1 X25.9695 Y235.2462
G1 X25.6624 Y235.2893
G1 X25.3528 Y235.2995
G1 X25.0432 Y235.2716
G1 X24.7411 Y235.2107
G1 X24.4467 Y235.1167
G1 X24.165 Y234.9873
G1 X23.901 Y234.8274
G1 X23.6548 Y234.6396
G1 X23.434 Y234.4239
G1 X23.2386 Y234.1827
G1 X23.0711 Y233.9213
G1 X22.934 Y233.6447
G1 X22.83 Y233.3528
G1 X22.7614 Y233.0533
G1 X22.7259 Y232.7437
G1 X22.7259 Y232.4366
G1 X22.7614 Y232.1294
G1 X22.83 Y231.8274
G1 X22.934 Y231.5355
G1 X23.0711 Y231.2589
G1 X23.2386 Y230.9975
G1 X23.434 Y230.7563
G1 X23.6548 Y230.5432
G1 X23.901 Y230.3528
G1 X24.165 Y230.1954
G1 X24.4467 Y230.066
G1 X24.7411 Y229.9695
G1 X25.0432 Y229.9086
G1 X25.3528 Y229.8833
G1 X25.6624 Y229.8909
G1 X25.9695 Y229.934
G1 X26.269 Y230.0127
G1 X26.5558 Y230.1244
G1 X26.83 Y230.2716
G1 X27.0863 Y230.4442
G1 X27.3198 Y230.6472
G1 X27.5279 Y230.8756
G1 X27.7107 Y231.1244
G1 X27.8629 Y231.3959
G1 X27.9822 Y231.6802
G1 X28.0711 Y231.9772
G1 X28.1218 Y232.2817
G1 X28.1396 Y232.5914
G1 X28.1218 Y232.8985
G1 X28.0711 Y233.2056
G1 X27.9822 Y233.5
G1 X27.8629 Y233.7868
G1 X27.7107 Y234.0558
G1 X27.5279 Y234.3071
G1 X27.3198 Y234.533
G1 X27.0863 Y234.736
G1 X26.83 Y234.9112
G0 Z10
(End Block_0)

(Start Block_1)
G0 X25.5168 Y232.732
G1 Z-3 F800
G1 X25.4975 Y232.7437 F1500
G1 X25.4822 Y232.7487
G1 X25.467 Y232.7513
G1 X25.4442 Y232.7563
G1 X25.4264 Y232.7563
G1 X25.4036 Y232.7538
G1 X25.3883 Y232.7513
G1 X25.3706 Y232.7462
G1 X25.3528 Y232.736
G1 X25.335 Y232.7259
G1 X25.3223 Y232.7157
G1 X25.3096 Y232.7056
G1 X25.297 Y232.6904
G1 X25.2868 Y232.67
G1 X25.2767 Y232.6548
G1 X25.2716 Y232.6371
G1 X25.2665 Y232.6193
G1 X25.264 Y232.599
G1 X25.264 Y232.5812
G1 X25.2665 Y232.5634
G1 X25.2716 Y232.5432
G1 X25.2767 Y232.5254
G1 X25.2868 Y232.5101
G1 X25.297 Y232.4924
G1 X25.3096 Y232.4772
G1 X25.3223 Y232.4645
G1 X25.335 Y232.4543
G1 X25.3528 Y232.4442
G1 X25.3706 Y232.4366
G1 X25.3883 Y232.4315
G1 X25.4036 Y232.4264
G1 X25.4264 Y232.4264
G1 X25.4442 Y232.4264
G1 X25.467 Y232.4289
G1 X25.4822 Y232.434
G1 X25.4975 Y232.4391
G1 X25.5178 Y232.4492
G1 X25.533 Y232.4619
G1 X25.5457 Y232.4721
G1 X25.5584 Y232.4848
G1 X25.5685 Y232.5
G1 X25.5787 Y232.5178
G1 X25.5863 Y232.5355
G1 X25.5914 Y232.5533
G1 X25.5965 Y232.5711
G1 X25.5965 Y232.5914
G1 X25.5965 Y232.6091
G1 X25.5914 Y232.6269
G1 X25.5863 Y232.6472
G1 X25.5787 Y232.665
G1 X25.5685 Y232.6802
G1 X25.5584 Y232.6954
G1 X25.5457 Y232.7081
G1 X25.533 Y232.7208
G1 X25.5178 Y232.731
G1 X26.1736 Y233.8213 F1500
G1 X26.0254 Y233.8985 F1500
G1 X25.8756 Y233.9594
G1 X25.7183 Y234
G1 X25.5533 Y234.0228
G1 X25.3883 Y234.0279
G1 X25.2234 Y234.0127
G1 X25.0635 Y233.9822
G1 X24.9086 Y233.9315
G1 X24.7589 Y233.8629
G1 X24.6193 Y233.7767
G1 X24.4899 Y233.6777
G1 X24.3731 Y233.5634
G1 X24.269 Y233.4366
G1 X24.1777 Y233.297
G1 X24.1066 Y233.1497
G1 X24.0508 Y232.9949
G1 X24.0127 Y232.835
G1 X23.9949 Y232.6726
G1 X23.9949 Y232.5101
G1 X24.0127 Y232.3452
G1 X24.0508 Y232.1853
G1 X24.1066 Y232.0305
G1 X24.1777 Y231.8858
G1 X24.269 Y231.7437
G1 X24.3731 Y231.6167
G1 X24.4899 Y231.5025
G1 X24.6193 Y231.4035
G1 X24.7589 Y231.3198
G1 X24.9086 Y231.2513
G1 X25.0635 Y231.2005
G1 X25.2234 Y231.1675
G1 X25.3883 Y231.1548
G1 X25.5533 Y231.1574
G1 X25.7183 Y231.1827
G1 X25.8756 Y231.2233
G1 X26.0254 Y231.2817
G1 X26.1726 Y231.3604
G1 X26.3096 Y231.4518
G1 X26.434 Y231.5584
G1 X26.5432 Y231.6802
G1 X26.6396 Y231.8122
G1 X26.7208 Y231.9568
G1 X26.7843 Y232.1066
G1 X26.83 Y232.264
G1 X26.8579 Y232.4264
G1 X26.868 Y232.5914
G1 X26.8579 Y232.7538
G1 X26.83 Y232.9162
G1 X26.7843 Y233.0736
G1 X26.7208 Y233.2259
G1 X26.6396 Y233.368
G1 X26.5432 Y233.5
G1 X26.434 Y233.6218
G1 X26.3096 Y233.7284
G1 X26.1726 Y233.8223
G1 X26.8302 Y234.9109 F1500
G1 X26.5558 Y235.0558 F1500
G1 X26.269 Y235.1675
G1 X25.9695 Y235.2462
G1 X25.6624 Y235.2893
G1 X25.3528 Y235.2995
G1 X25.0432 Y235.2716
G1 X24.7411 Y235.2107
G1 X24.4467 Y235.1167
G1 X24.165 Y234.9873
G1 X23.901 Y234.8274
G1 X23.6548 Y234.6396
G1 X23.434 Y234.4239
G1 X23.2386 Y234.1827
G1 X23.0711 Y233.9213
G1 X22.934 Y233.6447
G1 X22.83 Y233.3528
G1 X22.7614 Y233.0533
G1 X22.7259 Y232.7437
G1 X22.7259 Y232.4366
G1 X22.7614 Y232.1294
G1 X22.83 Y231.8274
G1 X22.934 Y231.5355
G1 X23.0711 Y231.2589
G1 X23.2386 Y230.9975
G1 X23.434 Y230.7563
G1 X23.6548 Y230.5432
G1 X23.901 Y230.3528
G1 X24.165 Y230.1954
G1 X24.4467 Y230.066
G1 X24.7411 Y229.9695
G1 X25.0432 Y229.9086
G1 X25.3528 Y229.8833
G1 X25.6624 Y229.8909
G1 X25.9695 Y229.934
G1 X26.269 Y230.0127
G1 X26.5558 Y230.1244
G1 X26.83 Y230.2716
G1 X27.0863 Y230.4442
G1 X27.3198 Y230.6472
G1 X27.5279 Y230.8756
G1 X27.7107 Y231.1244
G1 X27.8629 Y231.3959
G1 X27.9822 Y231.6802
G1 X28.0711 Y231.9772
G1 X28.1218 Y232.2817
G1 X28.1396 Y232.5914
G1 X28.1218 Y232.8985
G1 X28.0711 Y233.2056
G1 X27.9822 Y233.5
G1 X27.8629 Y233.7868
G1 X27.7107 Y234.0558
G1 X27.5279 Y234.3071
G1 X27.3198 Y234.533
G1 X27.0863 Y234.736
G1 X26.83 Y234.9112
G0 Z10
(End Block_1)

(Start Block_2)
G0 X25.5168 Y232.732
G1 Z-4.5 F800
G1 X25.4975 Y232.7437 F1500
G1 X25.4822 Y232.7487
G1 X25.467 Y232.7513
G1 X25.4442 Y232.7563
G1 X25.4264 Y232.7563
G1 X25.4036 Y232.7538
G1 X25.3883 Y232.7513
G1 X25.3706 Y232.7462
G1 X25.3528 Y232.736
G1 X25.335 Y232.7259
G1 X25.3223 Y232.7157
G1 X25.3096 Y232.7056
G1 X25.297 Y232.6904
G1 X25.2868 Y232.67
G1 X25.2767 Y232.6548
G1 X25.2716 Y232.6371
G1 X25.2665 Y232.6193
G1 X25.264 Y232.599
G1 X25.264 Y232.5812
G1 X25.2665 Y232.5634
G1 X25.2716 Y232.5432
G1 X25.2767 Y232.5254
G1 X25.2868 Y232.5101
G1 X25.297 Y232.4924
G1 X25.3096 Y232.4772
G1 X25.3223 Y232.4645
G1 X25.335 Y232.4543
G1 X25.3528 Y232.4442
G1 X25.3706 Y232.4366
G1 X25.3883 Y232.4315
G1 X25.4036 Y232.4264
G1 X25.4264 Y232.4264
G1 X25.4442 Y232.4264
G1 X25.467 Y232.4289
G1 X25.4822 Y232.434
G1 X25.4975 Y232.4391
G1 X25.5178 Y232.4492
G1 X25.533 Y232.4619
G1 X25.5457 Y232.4721
G1 X25.5584 Y232.4848
G1 X25.5685 Y232.5
G1 X25.5787 Y232.5178
G1 X25.5863 Y232.5355
G1 X25.5914 Y232.5533
G1 X25.5965 Y232.5711
G1 X25.5965 Y232.5914
G1 X25.5965 Y232.6091
G1 X25.5914 Y232.6269
G1 X25.5863 Y232.6472
G1 X25.5787 Y232.665
G1 X25.5685 Y232.6802
G1 X25.5584 Y232.6954
G1 X25.5457 Y232.7081
G1 X25.533 Y232.7208
G1 X25.5178 Y232.731
G1 X26.1736 Y233.8213 F1500
G1 X26.0254 Y233.8985 F1500
G1 X25.8756 Y233.9594
G1 X25.7183 Y234
G1 X25.5533 Y234.0228
G1 X25.3883 Y234.0279
G1 X25.2234 Y234.0127
G1 X25.0635 Y233.9822
G1 X24.9086 Y233.9315
G1 X24.7589 Y233.8629
G1 X24.6193 Y233.7767
G1 X24.4899 Y233.6777
G1 X24.3731 Y233.5634
G1 X24.269 Y233.4366
G1 X24.1777 Y233.297
G1 X24.1066 Y233.1497
G1 X24.0508 Y232.9949
G1 X24.0127 Y232.835
G1 X23.9949 Y232.6726
G1 X23.9949 Y232.5101
G1 X24.0127 Y232.3452
G1 X24.0508 Y232.1853
G1 X24.1066 Y232.0305
G1 X24.1777 Y231.8858
G1 X24.269 Y231.7437
G1 X24.3731 Y231.6167
G1 X24.4899 Y231.5025
G1 X24.6193 Y231.4035
G1 X24.7589 Y231.3198
G1 X24.9086 Y231.2513
G1 X25.0635 Y231.2005
G1 X25.2234 Y231.1675
G1 X25.3883 Y231.1548
G1 X25.5533 Y231.1574
G1 X25.7183 Y231.1827
G1 X25.8756 Y231.2233
G1 X26.0254 Y231.2817
G1 X26.1726 Y231.3604
G1 X26.3096 Y231.4518
G1 X26.434 Y231.5584
G1 X26.5432 Y231.6802
G1 X26.6396 Y231.8122
G1 X26.7208 Y231.9568
G1 X26.7843 Y232.1066
G1 X26.83 Y232.264
G1 X26.8579 Y232.4264
G1 X26.868 Y232.5914
G1 X26.8579 Y232.7538
G1 X26.83 Y232.9162
G1 X26.7843 Y233.0736
G1 X26.7208 Y233.2259
G1 X26.6396 Y233.368
G1 X26.5432 Y233.5
G1 X26.434 Y233.6218
G1 X26.3096 Y233.7284
G1 X26.1726 Y233.8223
G1 X26.8302 Y234.9109 F1500
G1 X26.5558 Y235.0558 F1500
G1 X26.269 Y235.1675
G1 X25.9695 Y235.2462
G1 X25.6624 Y235.2893
G1 X25.3528 Y235.2995
G1 X25.0432 Y235.2716
G1 X24.7411 Y235.2107
G1 X24.4467 Y235.1167
G1 X24.165 Y234.9873
G1 X23.901 Y234.8274
G1 X23.6548 Y234.6396
G1 X23.434 Y234.4239
G1 X23.2386 Y234.1827
G1 X23.0711 Y233.9213
G1 X22.934 Y233.6447
G1 X22.83 Y233.3528
G1 X22.7614 Y233.0533
G1 X22.7259 Y232.7437
G1 X22.7259 Y232.4366
G1 X22.7614 Y232.1294
G1 X22.83 Y231.8274
G1 X22.934 Y231.5355
G1 X23.0711 Y231.2589
G1 X23.2386 Y230.9975
G1 X23.434 Y230.7563
G1 X23.6548 Y230.5432
G1 X23.901 Y230.3528
G1 X24.165 Y230.1954
G1 X24.4467 Y230.066
G1 X24.7411 Y229.9695
G1 X25.0432 Y229.9086
G1 X25.3528 Y229.8833
G1 X25.6624 Y229.8909
G1 X25.9695 Y229.934
G1 X26.269 Y230.0127
G1 X26.5558 Y230.1244
G1 X26.83 Y230.2716
G1 X27.0863 Y230.4442
G1 X27.3198 Y230.6472
G1 X27.5279 Y230.8756
G1 X27.7107 Y231.1244
G1 X27.8629 Y231.3959
G1 X27.9822 Y231.6802
G1 X28.0711 Y231.9772
G1 X28.1218 Y232.2817
G1 X28.1396 Y232.5914
G1 X28.1218 Y232.8985
G1 X28.0711 Y233.2056
G1 X27.9822 Y233.5
G1 X27.8629 Y233.7868
G1 X27.7107 Y234.0558
G1 X27.5279 Y234.3071
G1 X27.3198 Y234.533
G1 X27.0863 Y234.736
G1 X26.83 Y234.9112
G0 Z10
(End Block_2)

(Start Block_3)
G0 X25.5168 Y232.732
G1 Z-6 F800
G1 X25.4975 Y232.7437 F1500
G1 X25.4822 Y232.7487
G1 X25.467 Y232.7513
G1 X25.4442 Y232.7563
G1 X25.4264 Y232.7563
G1 X25.4036 Y232.7538
G1 X25.3883 Y232.7513
G1 X25.3706 Y232.7462
G1 X25.3528 Y232.736
G1 X25.335 Y232.7259
G1 X25.3223 Y232.7157
G1 X25.3096 Y232.7056
G1 X25.297 Y232.6904
G1 X25.2868 Y232.67
G1 X25.2767 Y232.6548
G1 X25.2716 Y232.6371
G1 X25.2665 Y232.6193
G1 X25.264 Y232.599
G1 X25.264 Y232.5812
G1 X25.2665 Y232.5634
G1 X25.2716 Y232.5432
G1 X25.2767 Y232.5254
G1 X25.2868 Y232.5101
G1 X25.297 Y232.4924
G1 X25.3096 Y232.4772
G1 X25.3223 Y232.4645
G1 X25.335 Y232.4543
G1 X25.3528 Y232.4442
G1 X25.3706 Y232.4366
G1 X25.3883 Y232.4315
G1 X25.4036 Y232.4264
G1 X25.4264 Y232.4264
G1 X25.4442 Y232.4264
G1 X25.467 Y232.4289
G1 X25.4822 Y232.434
G1 X25.4975 Y232.4391
G1 X25.5178 Y232.4492
G1 X25.533 Y232.4619
G1 X25.5457 Y232.4721
G1 X25.5584 Y232.4848
G1 X25.5685 Y232.5
G1 X25.5787 Y232.5178
G1 X25.5863 Y232.5355
G1 X25.5914 Y232.5533
G1 X25.5965 Y232.5711
G1 X25.5965 Y232.5914
G1 X25.5965 Y232.6091
G1 X25.5914 Y232.6269
G1 X25.5863 Y232.6472
G1 X25.5787 Y232.665
G1 X25.5685 Y232.6802
G1 X25.5584 Y232.6954
G1 X25.5457 Y232.7081
G1 X25.533 Y232.7208
G1 X25.5178 Y232.731
G1 X26.1736 Y233.8213 F1500
G1 X26.0254 Y233.8985 F1500
G1 X25.8756 Y233.9594
G1 X25.7183 Y234
G1 X25.5533 Y234.0228
G1 X25.3883 Y234.0279
G1 X25.2234 Y234.0127
G1 X25.0635 Y233.9822
G1 X24.9086 Y233.9315
G1 X24.7589 Y233.8629
G1 X24.6193 Y233.7767
G1 X24.4899 Y233.6777
G1 X24.3731 Y233.5634
G1 X24.269 Y233.4366
G1 X24.1777 Y233.297
G1 X24.1066 Y233.1497
G1 X24.0508 Y232.9949
G1 X24.0127 Y232.835
G1 X23.9949 Y232.6726
G1 X23.9949 Y232.5101
G1 X24.0127 Y232.3452
G1 X24.0508 Y232.1853
G1 X24.1066 Y232.0305
G1 X24.1777 Y231.8858
G1 X24.269 Y231.7437
G1 X24.3731 Y231.6167
G1 X24.4899 Y231.5025
G1 X24.6193 Y231.4035
G1 X24.7589 Y231.3198
G1 X24.9086 Y231.2513
G1 X25.0635 Y231.2005
G1 X25.2234 Y231.1675
G1 X25.3883 Y231.1548
G1 X25.5533 Y231.1574
G1 X25.7183 Y231.1827
G1 X25.8756 Y231.2233
G1 X26.0254 Y231.2817
G1 X26.1726 Y231.3604
G1 X26.3096 Y231.4518
G1 X26.434 Y231.5584
G1 X26.5432 Y231.6802
G1 X26.6396 Y231.8122
G1 X26.7208 Y231.9568
G1 X26.7843 Y232.1066
G1 X26.83 Y232.264
G1 X26.8579 Y232.4264
G1 X26.868 Y232.5914
G1 X26.8579 Y232.7538
G1 X26.83 Y232.9162
G1 X26.7843 Y233.0736
G1 X26.7208 Y233.2259
G1 X26.6396 Y233.368
G1 X26.5432 Y233.5
G1 X26.434 Y233.6218
G1 X26.3096 Y233.7284
G1 X26.1726 Y233.8223
G1 X26.8302 Y234.9109 F1500
G1 X26.5558 Y235.0558 F1500
G1 X26.269 Y235.1675
G1 X25.9695 Y235.2462
G1 X25.6624 Y235.2893
G1 X25.3528 Y235.2995
G1 X25.0432 Y235.2716
G1 X24.7411 Y235.2107
G1 X24.4467 Y235.1167
G1 X24.165 Y234.9873
G1 X23.901 Y234.8274
G1 X23.6548 Y234.6396
G1 X23.434 Y234.4239
G1 X23.2386 Y234.1827
G1 X23.0711 Y233.9213
G1 X22.934 Y233.6447
G1 X22.83 Y233.3528
G1 X22.7614 Y233.0533
G1 X22.7259 Y232.7437
G1 X22.7259 Y232.4366
G1 X22.7614 Y232.1294
G1 X22.83 Y231.8274
G1 X22.934 Y231.5355
G1 X23.0711 Y231.2589
G1 X23.2386 Y230.9975
G1 X23.434 Y230.7563
G1 X23.6548 Y230.5432
G1 X23.901 Y230.3528
G1 X24.165 Y230.1954
G1 X24.4467 Y230.066
G1 X24.7411 Y229.9695
G1 X25.0432 Y229.9086
G1 X25.3528 Y229.8833
G1 X25.6624 Y229.8909
G1 X25.9695 Y229.934
G1 X26.269 Y230.0127
G1 X26.5558 Y230.1244
G1 X26.83 Y230.2716
G1 X27.0863 Y230.4442
G1 X27.3198 Y230.6472
G1 X27.5279 Y230.8756
G1 X27.7107 Y231.1244
G1 X27.8629 Y231.3959
G1 X27.9822 Y231.6802
G1 X28.0711 Y231.9772
G1 X28.1218 Y232.2817
G1 X28.1396 Y232.5914
G1 X28.1218 Y232.8985
G1 X28.0711 Y233.2056
G1 X27.9822 Y233.5
G1 X27.8629 Y233.7868
G1 X27.7107 Y234.0558
G1 X27.5279 Y234.3071
G1 X27.3198 Y234.533
G1 X27.0863 Y234.736
G1 X26.83 Y234.9112
G0 Z10
(End Block_3)

(Start Block_4)
G0 X25.5168 Y232.732
G1 Z-7.5 F800
G1 X25.4975 Y232.7437 F1500
G1 X25.4822 Y232.7487
G1 X25.467 Y232.7513
G1 X25.4442 Y232.7563
G1 X25.4264 Y232.7563
G1 X25.4036 Y232.7538
G1 X25.3883 Y232.7513
G1 X25.3706 Y232.7462
G1 X25.3528 Y232.736
G1 X25.335 Y232.7259
G1 X25.3223 Y232.7157
G1 X25.3096 Y232.7056
G1 X25.297 Y232.6904
G1 X25.2868 Y232.67
G1 X25.2767 Y232.6548
G1 X25.2716 Y232.6371
G1 X25.2665 Y232.6193
G1 X25.264 Y232.599
G1 X25.264 Y232.5812
G1 X25.2665 Y232.5634
G1 X25.2716 Y232.5432
G1 X25.2767 Y232.5254
G1 X25.2868 Y232.5101
G1 X25.297 Y232.4924
G1 X25.3096 Y232.4772
G1 X25.3223 Y232.4645
G1 X25.335 Y232.4543
G1 X25.3528 Y232.4442
G1 X25.3706 Y232.4366
G1 X25.3883 Y232.4315
G1 X25.4036 Y232.4264
G1 X25.4264 Y232.4264
G1 X25.4442 Y232.4264
G1 X25.467 Y232.4289
G1 X25.4822 Y232.434
G1 X25.4975 Y232.4391
G1 X25.5178 Y232.4492
G1 X25.533 Y232.4619
G1 X25.5457 Y232.4721
G1 X25.5584 Y232.4848
G1 X25.5685 Y232.5
G1 X25.5787 Y232.5178
G1 X25.5863 Y232.5355
G1 X25.5914 Y232.5533
G1 X25.5965 Y232.5711
G1 X25.5965 Y232.5914
G1 X25.5965 Y232.6091
G1 X25.5914 Y232.6269
G1 X25.5863 Y232.6472
G1 X25.5787 Y232.665
G1 X25.5685 Y232.6802
G1 X25.5584 Y232.6954
G1 X25.5457 Y232.7081
G1 X25.533 Y232.7208
G1 X25.5178 Y232.731
G1 X26.1736 Y233.8213 F1500
G1 X26.0254 Y233.8985 F1500
G1 X25.8756 Y233.9594
G1 X25.7183 Y234
G1 X25.5533 Y234.0228
G1 X25.3883 Y234.0279
G1 X25.2234 Y234.0127
G1 X25.0635 Y233.9822
G1 X24.9086 Y233.9315
G1 X24.7589 Y233.8629
G1 X24.6193 Y233.7767
G1 X24.4899 Y233.6777
G1 X24.3731 Y233.5634
G1 X24.269 Y233.4366
G1 X24.1777 Y233.297
G1 X24.1066 Y233.1497
G1 X24.0508 Y232.9949
G1 X24.0127 Y232.835
G1 X23.9949 Y232.6726
G1 X23.9949 Y232.5101
G1 X24.0127 Y232.3452
G1 X24.0508 Y232.1853
G1 X24.1066 Y232.0305
G1 X24.1777 Y231.8858
G1 X24.269 Y231.7437
G1 X24.3731 Y231.6167
G1 X24.4899 Y231.5025
G1 X24.6193 Y231.4035
G1 X24.7589 Y231.3198
G1 X24.9086 Y231.2513
G1 X25.0635 Y231.2005
G1 X25.2234 Y231.1675
G1 X25.3883 Y231.1548
G1 X25.5533 Y231.1574
G1 X25.7183 Y231.1827
G1 X25.8756 Y231.2233
G1 X26.0254 Y231.2817
G1 X26.1726 Y231.3604
G1 X26.3096 Y231.4518
G1 X26.434 Y231.5584
G1 X26.5432 Y231.6802
G1 X26.6396 Y231.8122
G1 X26.7208 Y231.9568
G1 X26.7843 Y232.1066
G1 X26.83 Y232.264
G1 X26.8579 Y232.4264
G1 X26.868 Y232.5914
G1 X26.8579 Y232.7538
G1 X26.83 Y232.9162
G1 X26.7843 Y233.0736
G1 X26.7208 Y233.2259
G1 X26.6396 Y233.368
G1 X26.5432 Y233.5
G1 X26.434 Y233.6218
G1 X26.3096 Y233.7284
G1 X26.1726 Y233.8223
G1 X26.8302 Y234.9109 F1500
G1 X26.5558 Y235.0558 F1500
G1 X26.269 Y235.1675
G1 X25.9695 Y235.2462
G1 X25.6624 Y235.2893
G1 X25.3528 Y235.2995
G1 X25.0432 Y235.2716
G1 X24.7411 Y235.2107
G1 X24.4467 Y235.1167
G1 X24.165 Y234.9873
G1 X23.901 Y234.8274
G1 X23.6548 Y234.6396
G1 X23.434 Y234.4239
G1 X23.2386 Y234.1827
G1 X23.0711 Y233.9213
G1 X22.934 Y233.6447
G1 X22.83 Y233.3528
G1 X22.7614 Y233.0533
G1 X22.7259 Y232.7437
G1 X22.7259 Y232.4366
G1 X22.7614 Y232.1294
G1 X22.83 Y231.8274
G1 X22.934 Y231.5355
G1 X23.0711 Y231.2589
G1 X23.2386 Y230.9975
G1 X23.434 Y230.7563
G1 X23.6548 Y230.5432
G1 X23.901 Y230.3528
G1 X24.165 Y230.1954
G1 X24.4467 Y230.066
G1 X24.7411 Y229.9695
G1 X25.0432 Y229.9086
G1 X25.3528 Y229.8833
G1 X25.6624 Y229.8909
G1 X25.9695 Y229.934
G1 X26.269 Y230.0127
G1 X26.5558 Y230.1244
G1 X26.83 Y230.2716
G1 X27.0863 Y230.4442
G1 X27.3198 Y230.6472
G1 X27.5279 Y230.8756
G1 X27.7107 Y231.1244
G1 X27.8629 Y231.3959
G1 X27.9822 Y231.6802
G1 X28.0711 Y231.9772
G1 X28.1218 Y232.2817
G1 X28.1396 Y232.5914
G1 X28.1218 Y232.8985
G1 X28.0711 Y233.2056
G1 X27.9822 Y233.5
G1 X27.8629 Y233.7868
G1 X27.7107 Y234.0558
G1 X27.5279 Y234.3071
G1 X27.3198 Y234.533
G1 X27.0863 Y234.736
G1 X26.83 Y234.9112
G0 Z10
(End Block_4)

(Start Block_5)
G0 X25.5168 Y232.732
G1 Z-9 F800
G1 X25.4975 Y232.7437 F1500
G1 X25.4822 Y232.7487
G1 X25.467 Y232.7513
G1 X25.4442 Y232.7563
G1 X25.4264 Y232.7563
G1 X25.4036 Y232.7538
G1 X25.3883 Y232.7513
G1 X25.3706 Y232.7462
G1 X25.3528 Y232.736
G1 X25.335 Y232.7259
G1 X25.3223 Y232.7157
G1 X25.3096 Y232.7056
G1 X25.297 Y232.6904
G1 X25.2868 Y232.67
G1 X25.2767 Y232.6548
G1 X25.2716 Y232.6371
G1 X25.2665 Y232.6193
G1 X25.264 Y232.599
G1 X25.264 Y232.5812
G1 X25.2665 Y232.5634
G1 X25.2716 Y232.5432
G1 X25.2767 Y232.5254
G1 X25.2868 Y232.5101
G1 X25.297 Y232.4924
G1 X25.3096 Y232.4772
G1 X25.3223 Y232.4645
G1 X25.335 Y232.4543
G1 X25.3528 Y232.4442
G1 X25.3706 Y232.4366
G1 X25.3883 Y232.4315
G1 X25.4036 Y232.4264
G1 X25.4264 Y232.4264
G1 X25.4442 Y232.4264
G1 X25.467 Y232.4289
G1 X25.4822 Y232.434
G1 X25.4975 Y232.4391
G1 X25.5178 Y232.4492
G1 X25.533 Y232.4619
G1 X25.5457 Y232.4721
G1 X25.5584 Y232.4848
G1 X25.5685 Y232.5
G1 X25.5787 Y232.5178
G1 X25.5863 Y232.5355
G1 X25.5914 Y232.5533
G1 X25.5965 Y232.5711
G1 X25.5965 Y232.5914
G1 X25.5965 Y232.6091
G1 X25.5914 Y232.6269
G1 X25.5863 Y232.6472
G1 X25.5787 Y232.665
G1 X25.5685 Y232.6802
G1 X25.5584 Y232.6954
G1 X25.5457 Y232.7081
G1 X25.533 Y232.7208
G1 X25.5178 Y232.731
G1 X26.1736 Y233.8213 F1500
G1 X26.0254 Y233.8985 F1500
G1 X25.8756 Y233.9594
G1 X25.7183 Y234
G1 X25.5533 Y234.0228
G1 X25.3883 Y234.0279
G1 X25.2234 Y234.0127
G1 X25.0635 Y233.9822
G1 X24.9086 Y233.9315
G1 X24.7589 Y233.8629
G1 X24.6193 Y233.7767
G1 X24.4899 Y233.6777
G1 X24.3731 Y233.5634
G1 X24.269 Y233.4366
G1 X24.1777 Y233.297
G1 X24.1066 Y233.1497
G1 X24.0508 Y232.9949
G1 X24.0127 Y232.835
G1 X23.9949 Y232.6726
G1 X23.9949 Y232.5101
G1 X24.0127 Y232.3452
G1 X24.0508 Y232.1853
G1 X24.1066 Y232.0305
G1 X24.1777 Y231.8858
G1 X24.269 Y231.7437
G1 X24.3731 Y231.6167
G1 X24.4899 Y231.5025
G1 X24.6193 Y231.4035
G1 X24.7589 Y231.3198
G1 X24.9086 Y231.2513
G1 X25.0635 Y231.2005
G1 X25.2234 Y231.1675
G1 X25.3883 Y231.1548
G1 X25.5533 Y231.1574
G1 X25.7183 Y231.1827
G1 X25.8756 Y231.2233
G1 X26.0254 Y231.2817
G1 X26.1726 Y231.3604
G1 X26.3096 Y231.4518
G1 X26.434 Y231.5584
G1 X26.5432 Y231.6802
G1 X26.6396 Y231.8122
G1 X26.7208 Y231.9568
G1 X26.7843 Y232.1066
G1 X26.83 Y232.264
G1 X26.8579 Y232.4264
G1 X26.868 Y232.5914
G1 X26.8579 Y232.7538
G1 X26.83 Y232.9162
G1 X26.7843 Y233.0736
G1 X26.7208 Y233.2259
G1 X26.6396 Y233.368
G1 X26.5432 Y233.5
G1 X26.434 Y233.6218
G1 X26.3096 Y233.7284
G1 X26.1726 Y233.8223
G1 X26.8302 Y234.9109 F1500
G1 X26.5558 Y235.0558 F1500
G1 X26.269 Y235.1675
G1 X25.9695 Y235.2462
G1 X25.6624 Y235.2893
G1 X25.3528 Y235.2995
G1 X25.0432 Y235.2716
G1 X24.7411 Y235.2107
G1 X24.4467 Y235.1167
G1 X24.165 Y234.9873
G1 X23.901 Y234.8274
G1 X23.6548 Y234.6396
G1 X23.434 Y234.4239
G1 X23.2386 Y234.1827
G1 X23.0711 Y233.9213
G1 X22.934 Y233.6447
G1 X22.83 Y233.3528
G1 X22.7614 Y233.0533
G1 X22.7259 Y232.7437
G1 X22.7259 Y232.4366
G1 X22.7614 Y232.1294
G1 X22.83 Y231.8274
G1 X22.934 Y231.5355
G1 X23.0711 Y231.2589
G1 X23.2386 Y230.9975
G1 X23.434 Y230.7563
G1 X23.6548 Y230.5432
G1 X23.901 Y230.3528
G1 X24.165 Y230.1954
G1 X24.4467 Y230.066
G1 X24.7411 Y229.9695
G1 X25.0432 Y229.9086
G1 X25.3528 Y229.8833
G1 X25.6624 Y229.8909
G1 X25.9695 Y229.934
G1 X26.269 Y230.0127
G1 X26.5558 Y230.1244
G1 X26.83 Y230.2716
G1 X27.0863 Y230.4442
G1 X27.3198 Y230.6472
G1 X27.5279 Y230.8756
G1 X27.7107 Y231.1244
G1 X27.8629 Y231.3959
G1 X27.9822 Y231.6802
G1 X28.0711 Y231.9772
G1 X28.1218 Y232.2817
G1 X28.1396 Y232.5914
G1 X28.1218 Y232.8985
G1 X28.0711 Y233.2056
G1 X27.9822 Y233.5
G1 X27.8629 Y233.7868
G1 X27.7107 Y234.0558
G1 X27.5279 Y234.3071
G1 X27.3198 Y234.533
G1 X27.0863 Y234.736
G1 X26.83 Y234.9112
G0 Z10
(End Block_5)

(Start Block_6)
G0 X25.5168 Y232.732
G1 Z-10 F800
G1 X25.4975 Y232.7437 F1500
G1 X25.4822 Y232.7487
G1 X25.467 Y232.7513
G1 X25.4442 Y232.7563
G1 X25.4264 Y232.7563
G1 X25.4036 Y232.7538
G1 X25.3883 Y232.7513
G1 X25.3706 Y232.7462
G1 X25.3528 Y232.736
G1 X25.335 Y232.7259
G1 X25.3223 Y232.7157
G1 X25.3096 Y232.7056
G1 X25.297 Y232.6904
G1 X25.2868 Y232.67
G1 X25.2767 Y232.6548
G1 X25.2716 Y232.6371
G1 X25.2665 Y232.6193
G1 X25.264 Y232.599
G1 X25.264 Y232.5812
G1 X25.2665 Y232.5634
G1 X25.2716 Y232.5432
G1 X25.2767 Y232.5254
G1 X25.2868 Y232.5101
G1 X25.297 Y232.4924
G1 X25.3096 Y232.4772
G1 X25.3223 Y232.4645
G1 X25.335 Y232.4543
G1 X25.3528 Y232.4442
G1 X25.3706 Y232.4366
G1 X25.3883 Y232.4315
G1 X25.4036 Y232.4264
G1 X25.4264 Y232.4264
G1 X25.4442 Y232.4264
G1 X25.467 Y232.4289
G1 X25.4822 Y232.434
G1 X25.4975 Y232.4391
G1 X25.5178 Y232.4492
G1 X25.533 Y232.4619
G1 X25.5457 Y232.4721
G1 X25.5584 Y232.4848
G1 X25.5685 Y232.5
G1 X25.5787 Y232.5178
G1 X25.5863 Y232.5355
G1 X25.5914 Y232.5533
G1 X25.5965 Y232.5711
G1 X25.5965 Y232.5914
G1 X25.5965 Y232.6091
G1 X25.5914 Y232.6269
G1 X25.5863 Y232.6472
G1 X25.5787 Y232.665
G1 X25.5685 Y232.6802
G1 X25.5584 Y232.6954
G1 X25.5457 Y232.7081
G1 X25.533 Y232.7208
G1 X25.5178 Y232.731
G1 X26.1736 Y233.8213 F1500
G1 X26.0254 Y233.8985 F1500
G1 X25.8756 Y233.9594
G1 X25.7183 Y234
G1 X25.5533 Y234.0228
G1 X25.3883 Y234.0279
G1 X25.2234 Y234.0127
G1 X25.0635 Y233.9822
G1 X24.9086 Y233.9315
G1 X24.7589 Y233.8629
G1 X24.6193 Y233.7767
G1 X24.4899 Y233.6777
G1 X24.3731 Y233.5634
G1 X24.269 Y233.4366
G1 X24.1777 Y233.297
G1 X24.1066 Y233.1497
G1 X24.0508 Y232.9949
G1 X24.0127 Y232.835
G1 X23.9949 Y232.6726
G1 X23.9949 Y232.5101
G1 X24.0127 Y232.3452
G1 X24.0508 Y232.1853
G1 X24.1066 Y232.0305
G1 X24.1777 Y231.8858
G1 X24.269 Y231.7437
G1 X24.3731 Y231.6167
G1 X24.4899 Y231.5025
G1 X24.6193 Y231.4035
G1 X24.7589 Y231.3198
G1 X24.9086 Y231.2513
G1 X25.0635 Y231.2005
G1 X25.2234 Y231.1675
G1 X25.3883 Y231.1548
G1 X25.5533 Y231.1574
G1 X25.7183 Y231.1827
G1 X25.8756 Y231.2233
G1 X26.0254 Y231.2817
G1 X26.1726 Y231.3604
G1 X26.3096 Y231.4518
G1 X26.434 Y231.5584
G1 X26.5432 Y231.6802
G1 X26.6396 Y231.8122
G1 X26.7208 Y231.9568
G1 X26.7843 Y232.1066
G1 X26.83 Y232.264
G1 X26.8579 Y232.4264
G1 X26.868 Y232.5914
G1 X26.8579 Y232.7538
G1 X26.83 Y232.9162
G1 X26.7843 Y233.0736
G1 X26.7208 Y233.2259
G1 X26.6396 Y233.368
G1 X26.5432 Y233.5
G1 X26.434 Y233.6218
G1 X26.3096 Y233.7284
G1 X26.1726 Y233.8223
G1 X26.8302 Y234.9109 F1500
G1 X26.5558 Y235.0558 F1500
G1 X26.269 Y235.1675
G1 X25.9695 Y235.2462
G1 X25.6624 Y235.2893
G1 X25.3528 Y235.2995
G1 X25.0432 Y235.2716
G1 X24.7411 Y235.2107
G1 X24.4467 Y235.1167
G1 X24.165 Y234.9873
G1 X23.901 Y234.8274
G1 X23.6548 Y234.6396
G1 X23.434 Y234.4239
G1 X23.2386 Y234.1827
G1 X23.0711 Y233.9213
G1 X22.934 Y233.6447
G1 X22.83 Y233.3528
G1 X22.7614 Y233.0533
G1 X22.7259 Y232.7437
G1 X22.7259 Y232.4366
G1 X22.7614 Y232.1294
G1 X22.83 Y231.8274
G1 X22.934 Y231.5355
G1 X23.0711 Y231.2589
G1 X23.2386 Y230.9975
G1 X23.434 Y230.7563
G1 X23.6548 Y230.5432
G1 X23.901 Y230.3528
G1 X24.165 Y230.1954
G1 X24.4467 Y230.066
G1 X24.7411 Y229.9695
G1 X25.0432 Y229.9086
G1 X25.3528 Y229.8833
G1 X25.6624 Y229.8909
G1 X25.9695 Y229.934
G1 X26.269 Y230.0127
G1 X26.5558 Y230.1244
G1 X26.83 Y230.2716
G1 X27.0863 Y230.4442
G1 X27.3198 Y230.6472
G1 X27.5279 Y230.8756
G1 X27.7107 Y231.1244
G1 X27.8629 Y231.3959
G1 X27.9822 Y231.6802
G1 X28.0711 Y231.9772
G1 X28.1218 Y232.2817
G1 X28.1396 Y232.5914
G1 X28.1218 Y232.8985
G1 X28.0711 Y233.2056
G1 X27.9822 Y233.5
G1 X27.8629 Y233.7868
G1 X27.7107 Y234.0558
G1 X27.5279 Y234.3071
G1 X27.3198 Y234.533
G1 X27.0863 Y234.736
G1 X26.83 Y234.9112
G0 Z10
(End Block_6)

(Start Block_7)
G0 X139.5982 Y233.2531
G1 Z-1.5 F800
G1 X139.6954 Y233.2538 F1500
G1 X139.7893 Y233.2767
G1 X139.8756 Y233.3198
G1 X139.9467 Y233.3858
G1 X140.0025 Y233.4645
G1 X140.0355 Y233.5558
G1 X140.0482 Y233.6497
G1 X140.0355 Y233.7462
G1 X140.0025 Y233.835
G1 X139.9467 Y233.9162
G1 X139.8756 Y233.9797
G1 X139.7893 Y234.0254
G1 X139.6954 Y234.0482
G1 X139.599 Y234.0482
G1 X139.5051 Y234.0254
G1 X139.4213 Y233.9822
G1 X139.3477 Y233.9162
G1 X139.2919 Y233.835
G1 X139.2589 Y233.7462
G1 X139.2462 Y233.6497
G1 X139.2589 Y233.5558
G1 X139.2919 Y233.4645
G1 X139.3477 Y233.3858
G1 X139.4213 Y233.3198
G1 X139.5051 Y233.2767
G1 X139.599 Y233.2538
G0 Z10
(End Block_7)

(Start Block_8)
G0 X139.5982 Y233.2531
G1 Z-3 F800
G1 X139.6954 Y233.2538 F1500
G1 X139.7893 Y233.2767
G1 X139.8756 Y233.3198
G1 X139.9467 Y233.3858
G1 X140.0025 Y233.4645
G1 X140.0355 Y233.5558
G1 X140.0482 Y233.6497
G1 X140.0355 Y233.7462
G1 X140.0025 Y233.835
G1 X139.9467 Y233.9162
G1 X139.8756 Y233.9797
G1 X139.7893 Y234.0254
G1 X139.6954 Y234.0482
G1 X139.599 Y234.0482
G1 X139.5051 Y234.0254
G1 X139.4213 Y233.9822
G1 X139.3477 Y233.9162
G1 X139.2919 Y233.835
G1 X139.2589 Y233.7462
G1 X139.2462 Y233.6497
G1 X139.2589 Y233.5558
G1 X139.2919 Y233.4645
G1 X139.3477 Y233.3858
G1 X139.4213 Y233.3198
G1 X139.5051 Y233.2767
G1 X139.599 Y233.2538
G0 Z10
(End Block_8)

(Start Block_9)
G0 X139.5982 Y233.2531
G1 Z-4.5 F800
G1 X139.6954 Y233.2538 F1500
G1 X139.7893 Y233.2767
G1 X139.8756 Y233.3198
G1 X139.9467 Y233.3858
G1 X140.0025 Y233.4645
G1 X140.0355 Y233.5558
G1 X140.0482 Y233.6497
G1 X140.0355 Y233.7462
G1 X140.0025 Y233.835
G1 X139.9467 Y233.9162
G1 X139.8756 Y233.9797
G1 X139.7893 Y234.0254
G1 X139.6954 Y234.0482
G1 X139.599 Y234.0482
G1 X139.5051 Y234.0254
G1 X139.4213 Y233.9822
G1 X139.3477 Y233.9162
G1 X139.2919 Y233.835
G1 X139.2589 Y233.7462
G1 X139.2462 Y233.6497
G1 X139.2589 Y233.5558
G1 X139.2919 Y233.4645
G1 X139.3477 Y233.3858
G1 X139.4213 Y233.3198
G1 X139.5051 Y233.2767
G1 X139.599 Y233.2538
G0 Z10
(End Block_9)

(Start Block_10)
G0 X139.5982 Y233.2531
G1 Z-6 F800
G1 X139.6954 Y233.2538 F1500
G1 X139.7893 Y233.2767
G1 X139.8756 Y233.3198
G1 X139.9467 Y233.3858
G1 X140.0025 Y233.4645
G1 X140.0355 Y233.5558
G1 X140.0482 Y233.6497
G1 X140.0355 Y233.7462
G1 X140.0025 Y233.835
G1 X139.9467 Y233.9162
G1 X139.8756 Y233.9797
G1 X139.7893 Y234.0254
G1 X139.6954 Y234.0482
G1 X139.599 Y234.0482
G1 X139.5051 Y234.0254
G1 X139.4213 Y233.9822
G1 X139.3477 Y233.9162
G1 X139.2919 Y233.835
G1 X139.2589 Y233.7462
G1 X139.2462 Y233.6497
G1 X139.2589 Y233.5558
G1 X139.2919 Y233.4645
G1 X139.3477 Y233.3858
G1 X139.4213 Y233.3198
G1 X139.5051 Y233.2767
G1 X139.599 Y233.2538
G0 Z10
(End Block_10)

(Start Block_11)
G0 X139.5982 Y233.2531
G1 Z-7.5 F800
G1 X139.6954 Y233.2538 F1500
G1 X139.7893 Y233.2767
G1 X139.8756 Y233.3198
G1 X139.9467 Y233.3858
G1 X140.0025 Y233.4645
G1 X140.0355 Y233.5558
G1 X140.0482 Y233.6497
G1 X140.0355 Y233.7462
G1 X140.0025 Y233.835
G1 X139.9467 Y233.9162
G1 X139.8756 Y233.9797
G1 X139.7893 Y234.0254
G1 X139.6954 Y234.0482
G1 X139.599 Y234.0482
G1 X139.5051 Y234.0254
G1 X139.4213 Y233.9822
G1 X139.3477 Y233.9162
G1 X139.2919 Y233.835
G1 X139.2589 Y233.7462
G1 X139.2462 Y233.6497
G1 X139.2589 Y233.5558
G1 X139.2919 Y233.4645
G1 X139.3477 Y233.3858
G1 X139.4213 Y233.3198
G1 X139.5051 Y233.2767
G1 X139.599 Y233.2538
G0 Z10
(End Block_11)

(Start Block_12)
G0 X139.5982 Y233.2531
G1 Z-9 F800
G1 X139.6954 Y233.2538 F1500
G1 X139.7893 Y233.2767
G1 X139.8756 Y233.3198
G1 X139.9467 Y233.3858
G1 X140.0025 Y233.4645
G1 X140.0355 Y233.5558
G1 X140.0482 Y233.6497
G1 X140.0355 Y233.7462
G1 X140.0025 Y233.835
G1 X139.9467 Y233.9162
G1 X139.8756 Y233.9797
G1 X139.7893 Y234.0254
G1 X139.6954 Y234.0482
G1 X139.599 Y234.0482
G1 X139.5051 Y234.0254
G1 X139.4213 Y233.9822
G1 X139.3477 Y233.9162
G1 X139.2919 Y233.835
G1 X139.2589 Y233.7462
G1 X139.2462 Y233.6497
G1 X139.2589 Y233.5558
G1 X139.2919 Y233.4645
G1 X139.3477 Y233.3858
G1 X139.4213 Y233.3198
G1 X139.5051 Y233.2767
G1 X139.599 Y233.2538
G0 Z10
(End Block_12)

(Start Block_13)
G0 X139.5982 Y233.2531
G1 Z-10 F800
G1 X139.6954 Y233.2538 F1500
G1 X139.7893 Y233.2767
G1 X139.8756 Y233.3198
G1 X139.9467 Y233.3858
G1 X140.0025 Y233.4645
G1 X140.0355 Y233.5558
G1 X140.0482 Y233.6497
G1 X140.0355 Y233.7462
G1 X140.0025 Y233.835
G1 X139.9467 Y233.9162
G1 X139.8756 Y233.9797
G1 X139.7893 Y234.0254
G1 X139.6954 Y234.0482
G1 X139.599 Y234.0482
G1 X139.5051 Y234.0254
G1 X139.4213 Y233.9822
G1 X139.3477 Y233.9162
G1 X139.2919 Y233.835
G1 X139.2589 Y233.7462
G1 X139.2462 Y233.6497
G1 X139.2589 Y233.5558
G1 X139.2919 Y233.4645
G1 X139.3477 Y233.3858
G1 X139.4213 Y233.3198
G1 X139.5051 Y233.2767
G1 X139.599 Y233.2538
G0 Z10
(End Block_13)

(Start Block_14)
G0 X139.5982 Y217.0432
G1 Z-1.5 F800
G1 X139.6954 Y217.0432 F1500
G1 X139.7893 Y217.066
G1 X139.8756 Y217.1117
G1 X139.9467 Y217.1751
G1 X140.0025 Y217.2563
G1 X140.0355 Y217.3452
G1 X140.0482 Y217.4416
G1 X140.0355 Y217.5355
G1 X140.0025 Y217.6269
G1 X139.9467 Y217.7056
G1 X139.8756 Y217.7716
G1 X139.7893 Y217.8147
G1 X139.6954 Y217.8376
G1 X139.599 Y217.8376
G1 X139.5051 Y217.8147
G1 X139.4213 Y217.7716
G1 X139.3477 Y217.7056
G1 X139.2919 Y217.6269
G1 X139.2589 Y217.5355
G1 X139.2462 Y217.4416
G1 X139.2589 Y217.3452
G1 X139.2919 Y217.2563
G1 X139.3477 Y217.1751
G1 X139.4213 Y217.1091
G1 X139.5051 Y217.066
G1 X139.599 Y217.0432
G0 Z10
(End Block_14)

(Start Block_15)
G0 X139.5982 Y217.0432
G1 Z-3 F800
G1 X139.6954 Y217.0432 F1500
G1 X139.7893 Y217.066
G1 X139.8756 Y217.1117
G1 X139.9467 Y217.1751
G1 X140.0025 Y217.2563
G1 X140.0355 Y217.3452
G1 X140.0482 Y217.4416
G1 X140.0355 Y217.5355
G1 X140.0025 Y217.6269
G1 X139.9467 Y217.7056
G1 X139.8756 Y217.7716
G1 X139.7893 Y217.8147
G1 X139.6954 Y217.8376
G1 X139.599 Y217.8376
G1 X139.5051 Y217.8147
G1 X139.4213 Y217.7716
G1 X139.3477 Y217.7056
G1 X139.2919 Y217.6269
G1 X139.2589 Y217.5355
G1 X139.2462 Y217.4416
G1 X139.2589 Y217.3452
G1 X139.2919 Y217.2563
G1 X139.3477 Y217.1751
G1 X139.4213 Y217.1091
G1 X139.5051 Y217.066
G1 X139.599 Y217.0432
G0 Z10
(End Block_15)

(Start Block_16)
G0 X139.5982 Y217.0432
G1 Z-4.5 F800
G1 X139.6954 Y217.0432 F1500
G1 X139.7893 Y217.066
G1 X139.8756 Y217.1117
G1 X139.9467 Y217.1751
G1 X140.0025 Y217.2563
G1 X140.0355 Y217.3452
G1 X140.0482 Y217.4416
G1 X140.0355 Y217.5355
G1 X140.0025 Y217.6269
G1 X139.9467 Y217.7056
G1 X139.8756 Y217.7716
G1 X139.7893 Y217.8147
G1 X139.6954 Y217.8376
G1 X139.599 Y217.8376
G1 X139.5051 Y217.8147
G1 X139.4213 Y217.7716
G1 X139.3477 Y217.7056
G1 X139.2919 Y217.6269
G1 X139.2589 Y217.5355
G1 X139.2462 Y217.4416
G1 X139.2589 Y217.3452
G1 X139.2919 Y217.2563
G1 X139.3477 Y217.1751
G1 X139.4213 Y217.1091
G1 X139.5051 Y217.066
G1 X139.599 Y217.0432
G0 Z10
(End Block_16)

(Start Block_17)
G0 X139.5982 Y217.0432
G1 Z-6 F800
G1 X139.6954 Y217.0432 F1500
G1 X139.7893 Y217.066
G1 X139.8756 Y217.1117
G1 X139.9467 Y217.1751
G1 X140.0025 Y217.2563
G1 X140.0355 Y217.3452
G1 X140.0482 Y217.4416
G1 X140.0355 Y217.5355
G1 X140.0025 Y217.6269
G1 X139.9467 Y217.7056
G1 X139.8756 Y217.7716
G1 X139.7893 Y217.8147
G1 X139.6954 Y217.8376
G1 X139.599 Y217.8376
G1 X139.5051 Y217.8147
G1 X139.4213 Y217.7716
G1 X139.3477 Y217.7056
G1 X139.2919 Y217.6269
G1 X139.2589 Y217.5355
G1 X139.2462 Y217.4416
G1 X139.2589 Y217.3452
G1 X139.2919 Y217.2563
G1 X139.3477 Y217.1751
G1 X139.4213 Y217.1091
G1 X139.5051 Y217.066
G1 X139.599 Y217.0432
G0 Z10
(End Block_17)

(Start Block_18)
G0 X139.5982 Y217.0432
G1 Z-7.5 F800
G1 X139.6954 Y217.0432 F1500
G1 X139.7893 Y217.066
G1 X139.8756 Y217.1117
G1 X139.9467 Y217.1751
G1 X140.0025 Y217.2563
G1 X140.0355 Y217.3452
G1 X140.0482 Y217.4416
G1 X140.0355 Y217.5355
G1 X140.0025 Y217.6269
G1 X139.9467 Y217.7056
G1 X139.8756 Y217.7716
G1 X139.7893 Y217.8147
G1 X139.6954 Y217.8376
G1 X139.599 Y217.8376
G1 X139.5051 Y217.8147
G1 X139.4213 Y217.7716
G1 X139.3477 Y217.7056
G1 X139.2919 Y217.6269
G1 X139.2589 Y217.5355
G1 X139.2462 Y217.4416
G1 X139.2589 Y217.3452
G1 X139.2919 Y217.2563
G1 X139.3477 Y217.1751
G1 X139.4213 Y217.1091
G1 X139.5051 Y217.066
G1 X139.599 Y217.0432
G0 Z10
(End Block_18)

(Start Block_19)
G0 X139.5982 Y217.0432
G1 Z-9 F800
G1 X139.6954 Y217.0432 F1500
G1 X139.7893 Y217.066
G1 X139.8756 Y217.1117
G1 X139.9467 Y217.1751
G1 X140.0025 Y217.2563
G1 X140.0355 Y217.3452
G1 X140.0482 Y217.4416
G1 X140.0355 Y217.5355
G1 X140.0025 Y217.6269
G1 X139.9467 Y217.7056
G1 X139.8756 Y217.7716
G1 X139.7893 Y217.8147
G1 X139.6954 Y217.8376
G1 X139.599 Y217.8376
G1 X139.5051 Y217.8147
G1 X139.4213 Y217.7716
G1 X139.3477 Y217.7056
G1 X139.2919 Y217.6269
G1 X139.2589 Y217.5355
G1 X139.2462 Y217.4416
G1 X139.2589 Y217.3452
G1 X139.2919 Y217.2563
G1 X139.3477 Y217.1751
G1 X139.4213 Y217.1091
G1 X139.5051 Y217.066
G1 X139.599 Y217.0432
G0 Z10
(End Block_19)

(Start Block_20)
G0 X139.5982 Y217.0432
G1 Z-10 F800
G1 X139.6954 Y217.0432 F1500
G1 X139.7893 Y217.066
G1 X139.8756 Y217.1117
G1 X139.9467 Y217.1751
G1 X140.0025 Y217.2563
G1 X140.0355 Y217.3452
G1 X140.0482 Y217.4416
G1 X140.0355 Y217.5355
G1 X140.0025 Y217.6269
G1 X139.9467 Y217.7056
G1 X139.8756 Y217.7716
G1 X139.7893 Y217.8147
G1 X139.6954 Y217.8376
G1 X139.599 Y217.8376
G1 X139.5051 Y217.8147
G1 X139.4213 Y217.7716
G1 X139.3477 Y217.7056
G1 X139.2919 Y217.6269
G1 X139.2589 Y217.5355
G1 X139.2462 Y217.4416
G1 X139.2589 Y217.3452
G1 X139.2919 Y217.2563
G1 X139.3477 Y217.1751
G1 X139.4213 Y217.1091
G1 X139.5051 Y217.066
G1 X139.599 Y217.0432
G0 Z10
(End Block_20)

(Start Block_21)
G0 X169.2962 Y217.8381
G1 Z-1.5 F800
G1 X169.198 Y217.8376 F1500
G1 X169.1041 Y217.8147
G1 X169.0203 Y217.7716
G1 X168.9467 Y217.7056
G1 X168.8934 Y217.6269
G1 X168.8579 Y217.5355
G1 X168.8477 Y217.4416
G1 X168.8579 Y217.3452
G1 X168.8934 Y217.2563
G1 X168.9467 Y217.1751
G1 X169.0203 Y217.1091
G1 X169.1041 Y217.066
G1 X169.198 Y217.0432
G1 X169.297 Y217.0432
G1 X169.3909 Y217.066
G1 X169.4746 Y217.1117
G1 X169.5482 Y217.1751
G1 X169.6041 Y217.2563
G1 X169.6371 Y217.3452
G1 X169.6472 Y217.4416
G1 X169.6371 Y217.5355
G1 X169.6041 Y217.6269
G1 X169.5482 Y217.7056
G1 X169.4746 Y217.7716
G1 X169.3909 Y217.8147
G1 X169.297 Y217.8376
G0 Z10
(End Block_21)

(Start Block_22)
G0 X169.2962 Y217.8381
G1 Z-3 F800
G1 X169.198 Y217.8376 F1500
G1 X169.1041 Y217.8147
G1 X169.0203 Y217.7716
G1 X168.9467 Y217.7056
G1 X168.8934 Y217.6269
G1 X168.8579 Y217.5355
G1 X168.8477 Y217.4416
G1 X168.8579 Y217.3452
G1 X168.8934 Y217.2563
G1 X168.9467 Y217.1751
G1 X169.0203 Y217.1091
G1 X169.1041 Y217.066
G1 X169.198 Y217.0432
G1 X169.297 Y217.0432
G1 X169.3909 Y217.066
G1 X169.4746 Y217.1117
G1 X169.5482 Y217.1751
G1 X169.6041 Y217.2563
G1 X169.6371 Y217.3452
G1 X169.6472 Y217.4416
G1 X169.6371 Y217.5355
G1 X169.6041 Y217.6269
G1 X169.5482 Y217.7056
G1 X169.4746 Y217.7716
G1 X169.3909 Y217.8147
G1 X169.297 Y217.8376
G0 Z10
(End Block_22)

(Start Block_23)
G0 X169.2962 Y217.8381
G1 Z-4.5 F800
G1 X169.198 Y217.8376 F1500
G1 X169.1041 Y217.8147
G1 X169.0203 Y217.7716
G1 X168.9467 Y217.7056
G1 X168.8934 Y217.6269
G1 X168.8579 Y217.5355
G1 X168.8477 Y217.4416
G1 X168.8579 Y217.3452
G1 X168.8934 Y217.2563
G1 X168.9467 Y217.1751
G1 X169.0203 Y217.1091
G1 X169.1041 Y217.066
G1 X169.198 Y217.0432
G1 X169.297 Y217.0432
G1 X169.3909 Y217.066
G1 X169.4746 Y217.1117
G1 X169.5482 Y217.1751
G1 X169.6041 Y217.2563
G1 X169.6371 Y217.3452
G1 X169.6472 Y217.4416
G1 X169.6371 Y217.5355
G1 X169.6041 Y217.6269
G1 X169.5482 Y217.7056
G1 X169.4746 Y217.7716
G1 X169.3909 Y217.8147
G1 X169.297 Y217.8376
G0 Z10
(End Block_23)

(Start Block_24)
G0 X169.2962 Y217.8381
G1 Z-6 F800
G1 X169.198 Y217.8376 F1500
G1 X169.1041 Y217.8147
G1 X169.0203 Y217.7716
G1 X168.9467 Y217.7056
G1 X168.8934 Y217.6269
G1 X168.8579 Y217.5355
G1 X168.8477 Y217.4416
G1 X168.8579 Y217.3452
G1 X168.8934 Y217.2563
G1 X168.9467 Y217.1751
G1 X169.0203 Y217.1091
G1 X169.1041 Y217.066
G1 X169.198 Y217.0432
G1 X169.297 Y217.0432
G1 X169.3909 Y217.066
G1 X169.4746 Y217.1117
G1 X169.5482 Y217.1751
G1 X169.6041 Y217.2563
G1 X169.6371 Y217.3452
G1 X169.6472 Y217.4416
G1 X169.6371 Y217.5355
G1 X169.6041 Y217.6269
G1 X169.5482 Y217.7056
G1 X169.4746 Y217.7716
G1 X169.3909 Y217.8147
G1 X169.297 Y217.8376
G0 Z10
(End Block_24)

(Start Block_25)
G0 X169.2962 Y217.8381
G1 Z-7.5 F800
G1 X169.198 Y217.8376 F1500
G1 X169.1041 Y217.8147
G1 X169.0203 Y217.7716
G1 X168.9467 Y217.7056
G1 X168.8934 Y217.6269
G1 X168.8579 Y217.5355
G1 X168.8477 Y217.4416
G1 X168.8579 Y217.3452
G1 X168.8934 Y217.2563
G1 X168.9467 Y217.1751
G1 X169.0203 Y217.1091
G1 X169.1041 Y217.066
G1 X169.198 Y217.0432
G1 X169.297 Y217.0432
G1 X169.3909 Y217.066
G1 X169.4746 Y217.1117
G1 X169.5482 Y217.1751
G1 X169.6041 Y217.2563
G1 X169.6371 Y217.3452
G1 X169.6472 Y217.4416
G1 X169.6371 Y217.5355
G1 X169.6041 Y217.6269
G1 X169.5482 Y217.7056
G1 X169.4746 Y217.7716
G1 X169.3909 Y217.8147
G1 X169.297 Y217.8376
G0 Z10
(End Block_25)

(Start Block_26)
G0 X169.2962 Y217.8381
G1 Z-9 F800
G1 X169.198 Y217.8376 F1500
G1 X169.1041 Y217.8147
G1 X169.0203 Y217.7716
G1 X168.9467 Y217.7056
G1 X168.8934 Y217.6269
G1 X168.8579 Y217.5355
G1 X168.8477 Y217.4416
G1 X168.8579 Y217.3452
G1 X168.8934 Y217.2563
G1 X168.9467 Y217.1751
G1 X169.0203 Y217.1091
G1 X169.1041 Y217.066
G1 X169.198 Y217.0432
G1 X169.297 Y217.0432
G1 X169.3909 Y217.066
G1 X169.4746 Y217.1117
G1 X169.5482 Y217.1751
G1 X169.6041 Y217.2563
G1 X169.6371 Y217.3452
G1 X169.6472 Y217.4416
G1 X169.6371 Y217.5355
G1 X169.6041 Y217.6269
G1 X169.5482 Y217.7056
G1 X169.4746 Y217.7716
G1 X169.3909 Y217.8147
G1 X169.297 Y217.8376
G0 Z10
(End Block_26)

(Start Block_27)
G0 X169.2962 Y217.8381
G1 Z-10 F800
G1 X169.198 Y217.8376 F1500
G1 X169.1041 Y217.8147
G1 X169.0203 Y217.7716
G1 X168.9467 Y217.7056
G1 X168.8934 Y217.6269
G1 X168.8579 Y217.5355
G1 X168.8477 Y217.4416
G1 X168.8579 Y217.3452
G1 X168.8934 Y217.2563
G1 X168.9467 Y217.1751
G1 X169.0203 Y217.1091
G1 X169.1041 Y217.066
G1 X169.198 Y217.0432
G1 X169.297 Y217.0432
G1 X169.3909 Y217.066
G1 X169.4746 Y217.1117
G1 X169.5482 Y217.1751
G1 X169.6041 Y217.2563
G1 X169.6371 Y217.3452
G1 X169.6472 Y217.4416
G1 X169.6371 Y217.5355
G1 X169.6041 Y217.6269
G1 X169.5482 Y217.7056
G1 X169.4746 Y217.7716
G1 X169.3909 Y217.8147
G1 X169.297 Y217.8376
G0 Z10
(End Block_27)

(Start Block_28)
G0 X169.1982 Y233.2531
G1 Z-1.5 F800
G1 X169.297 Y233.2538 F1500
G1 X169.3909 Y233.2767
G1 X169.4746 Y233.3198
G1 X169.5482 Y233.3858
G1 X169.6041 Y233.4645
G1 X169.6371 Y233.5558
G1 X169.6472 Y233.6497
G1 X169.6371 Y233.7462
G1 X169.6041 Y233.835
G1 X169.5482 Y233.9162
G1 X169.4746 Y233.9797
G1 X169.3909 Y234.0254
G1 X169.297 Y234.0482
G1 X169.198 Y234.0482
G1 X169.1041 Y234.0254
G1 X169.0203 Y233.9822
G1 X168.9467 Y233.9162
G1 X168.8934 Y233.835
G1 X168.8579 Y233.7462
G1 X168.8477 Y233.6497
G1 X168.8579 Y233.5558
G1 X168.8934 Y233.4645
G1 X168.9467 Y233.3858
G1 X169.0203 Y233.3198
G1 X169.1041 Y233.2767
G1 X169.198 Y233.2538
G0 Z10
(End Block_28)

(Start Block_29)
G0 X169.1982 Y233.2531
G1 Z-3 F800
G1 X169.297 Y233.2538 F1500
G1 X169.3909 Y233.2767
G1 X169.4746 Y233.3198
G1 X169.5482 Y233.3858
G1 X169.6041 Y233.4645
G1 X169.6371 Y233.5558
G1 X169.6472 Y233.6497
G1 X169.6371 Y233.7462
G1 X169.6041 Y233.835
G1 X169.5482 Y233.9162
G1 X169.4746 Y233.9797
G1 X169.3909 Y234.0254
G1 X169.297 Y234.0482
G1 X169.198 Y234.0482
G1 X169.1041 Y234.0254
G1 X169.0203 Y233.9822
G1 X168.9467 Y233.9162
G1 X168.8934 Y233.835
G1 X168.8579 Y233.7462
G1 X168.8477 Y233.6497
G1 X168.8579 Y233.5558
G1 X168.8934 Y233.4645
G1 X168.9467 Y233.3858
G1 X169.0203 Y233.3198
G1 X169.1041 Y233.2767
G1 X169.198 Y233.2538
G0 Z10
(End Block_29)

(Start Block_30)
G0 X169.1982 Y233.2531
G1 Z-4.5 F800
G1 X169.297 Y233.2538 F1500
G1 X169.3909 Y233.2767
G1 X169.4746 Y233.3198
G1 X169.5482 Y233.3858
G1 X169.6041 Y233.4645
G1 X169.6371 Y233.5558
G1 X169.6472 Y233.6497
G1 X169.6371 Y233.7462
G1 X169.6041 Y233.835
G1 X169.5482 Y233.9162
G1 X169.4746 Y233.9797
G1 X169.3909 Y234.0254
G1 X169.297 Y234.0482
G1 X169.198 Y234.0482
G1 X169.1041 Y234.0254
G1 X169.0203 Y233.9822
G1 X168.9467 Y233.9162
G1 X168.8934 Y233.835
G1 X168.8579 Y233.7462
G1 X168.8477 Y233.6497
G1 X168.8579 Y233.5558
G1 X168.8934 Y233.4645
G1 X168.9467 Y233.3858
G1 X169.0203 Y233.3198
G1 X169.1041 Y233.2767
G1 X169.198 Y233.2538
G0 Z10
(End Block_30)

(Start Block_31)
G0 X169.1982 Y233.2531
G1 Z-6 F800
G1 X169.297 Y233.2538 F1500
G1 X169.3909 Y233.2767
G1 X169.4746 Y233.3198
G1 X169.5482 Y233.3858
G1 X169.6041 Y233.4645
G1 X169.6371 Y233.5558
G1 X169.6472 Y233.6497
G1 X169.6371 Y233.7462
G1 X169.6041 Y233.835
G1 X169.5482 Y233.9162
G1 X169.4746 Y233.9797
G1 X169.3909 Y234.0254
G1 X169.297 Y234.0482
G1 X169.198 Y234.0482
G1 X169.1041 Y234.0254
G1 X169.0203 Y233.9822
G1 X168.9467 Y233.9162
G1 X168.8934 Y233.835
G1 X168.8579 Y233.7462
G1 X168.8477 Y233.6497
G1 X168.8579 Y233.5558
G1 X168.8934 Y233.4645
G1 X168.9467 Y233.3858
G1 X169.0203 Y233.3198
G1 X169.1041 Y233.2767
G1 X169.198 Y233.2538
G0 Z10
(End Block_31)

(Start Block_32)
G0 X169.1982 Y233.2531
G1 Z-7.5 F800
G1 X169.297 Y233.2538 F1500
G1 X169.3909 Y233.2767
G1 X169.4746 Y233.3198
G1 X169.5482 Y233.3858
G1 X169.6041 Y233.4645
G1 X169.6371 Y233.5558
G1 X169.6472 Y233.6497
G1 X169.6371 Y233.7462
G1 X169.6041 Y233.835
G1 X169.5482 Y233.9162
G1 X169.4746 Y233.9797
G1 X169.3909 Y234.0254
G1 X169.297 Y234.0482
G1 X169.198 Y234.0482
G1 X169.1041 Y234.0254
G1 X169.0203 Y233.9822
G1 X168.9467 Y233.9162
G1 X168.8934 Y233.835
G1 X168.8579 Y233.7462
G1 X168.8477 Y233.6497
G1 X168.8579 Y233.5558
G1 X168.8934 Y233.4645
G1 X168.9467 Y233.3858
G1 X169.0203 Y233.3198
G1 X169.1041 Y233.2767
G1 X169.198 Y233.2538
G0 Z10
(End Block_32)

(Start Block_33)
G0 X169.1982 Y233.2531
G1 Z-9 F800
G1 X169.297 Y233.2538 F1500
G1 X169.3909 Y233.2767
G1 X169.4746 Y233.3198
G1 X169.5482 Y233.3858
G1 X169.6041 Y233.4645
G1 X169.6371 Y233.5558
G1 X169.6472 Y233.6497
G1 X169.6371 Y233.7462
G1 X169.6041 Y233.835
G1 X169.5482 Y233.9162
G1 X169.4746 Y233.9797
G1 X169.3909 Y234.0254
G1 X169.297 Y234.0482
G1 X169.198 Y234.0482
G1 X169.1041 Y234.0254
G1 X169.0203 Y233.9822
G1 X168.9467 Y233.9162
G1 X168.8934 Y233.835
G1 X168.8579 Y233.7462
G1 X168.8477 Y233.6497
G1 X168.8579 Y233.5558
G1 X168.8934 Y233.4645
G1 X168.9467 Y233.3858
G1 X169.0203 Y233.3198
G1 X169.1041 Y233.2767
G1 X169.198 Y233.2538
G0 Z10
(End Block_33)

(Start Block_34)
G0 X169.1982 Y233.2531
G1 Z-10 F800
G1 X169.297 Y233.2538 F1500
G1 X169.3909 Y233.2767
G1 X169.4746 Y233.3198
G1 X169.5482 Y233.3858
G1 X169.6041 Y233.4645
G1 X169.6371 Y233.5558
G1 X169.6472 Y233.6497
G1 X169.6371 Y233.7462
G1 X169.6041 Y233.835
G1 X169.5482 Y233.9162
G1 X169.4746 Y233.9797
G1 X169.3909 Y234.0254
G1 X169.297 Y234.0482
G1 X169.198 Y234.0482
G1 X169.1041 Y234.0254
G1 X169.0203 Y233.9822
G1 X168.9467 Y233.9162
G1 X168.8934 Y233.835
G1 X168.8579 Y233.7462
G1 X168.8477 Y233.6497
G1 X168.8579 Y233.5558
G1 X168.8934 Y233.4645
G1 X168.9467 Y233.3858
G1 X169.0203 Y233.3198
G1 X169.1041 Y233.2767
G1 X169.198 Y233.2538

(Outside)
G0 Z10
(End Block_34)

(Start Block_35)
G0 X306.2647 Y233.2531
G1 Z-1.5 F800
G1 X306.3629 Y233.2538 F1500
G1 X306.4568 Y233.2767
G1 X306.5406 Y233.3198
G1 X306.6142 Y233.3858
G1 X306.67 Y233.4645
G1 X306.703 Y233.5558
G1 X306.7132 Y233.6497
G1 X306.703 Y233.7462
G1 X306.67 Y233.835
G1 X306.6142 Y233.9162
G1 X306.5406 Y233.9822
G1 X306.4568 Y234.0254
G1 X306.3629 Y234.0482
G1 X306.2639 Y234.0482
G1 X306.17 Y234.0254
G1 X306.0863 Y233.9797
G1 X306.0127 Y233.9162
G1 X305.9594 Y233.835
G1 X305.9239 Y233.7462
G1 X305.9137 Y233.6497
G1 X305.9239 Y233.5558
G1 X305.9594 Y233.4645
G1 X306.0127 Y233.3858
G1 X306.0863 Y233.3198
G1 X306.17 Y233.2767
G1 X306.2639 Y233.2538
G0 Z10
(End Block_35)

(Start Block_36)
G0 X306.2647 Y233.2531
G1 Z-3 F800
G1 X306.3629 Y233.2538 F1500
G1 X306.4568 Y233.2767
G1 X306.5406 Y233.3198
G1 X306.6142 Y233.3858
G1 X306.67 Y233.4645
G1 X306.703 Y233.5558
G1 X306.7132 Y233.6497
G1 X306.703 Y233.7462
G1 X306.67 Y233.835
G1 X306.6142 Y233.9162
G1 X306.5406 Y233.9822
G1 X306.4568 Y234.0254
G1 X306.3629 Y234.0482
G1 X306.2639 Y234.0482
G1 X306.17 Y234.0254
G1 X306.0863 Y233.9797
G1 X306.0127 Y233.9162
G1 X305.9594 Y233.835
G1 X305.9239 Y233.7462
G1 X305.9137 Y233.6497
G1 X305.9239 Y233.5558
G1 X305.9594 Y233.4645
G1 X306.0127 Y233.3858
G1 X306.0863 Y233.3198
G1 X306.17 Y233.2767
G1 X306.2639 Y233.2538
G0 Z10
(End Block_36)

(Start Block_37)
G0 X306.2647 Y233.2531
G1 Z-4.5 F800
G1 X306.3629 Y233.2538 F1500
G1 X306.4568 Y233.2767
G1 X306.5406 Y233.3198
G1 X306.6142 Y233.3858
G1 X306.67 Y233.4645
G1 X306.703 Y233.5558
G1 X306.7132 Y233.6497
G1 X306.703 Y233.7462
G1 X306.67 Y233.835
G1 X306.6142 Y233.9162
G1 X306.5406 Y233.9822
G1 X306.4568 Y234.0254
G1 X306.3629 Y234.0482
G1 X306.2639 Y234.0482
G1 X306.17 Y234.0254
G1 X306.0863 Y233.9797
G1 X306.0127 Y233.9162
G1 X305.9594 Y233.835
G1 X305.9239 Y233.7462
G1 X305.9137 Y233.6497
G1 X305.9239 Y233.5558
G1 X305.9594 Y233.4645
G1 X306.0127 Y233.3858
G1 X306.0863 Y233.3198
G1 X306.17 Y233.2767
G1 X306.2639 Y233.2538
G0 Z10
(End Block_37)

(Start Block_38)
G0 X306.2647 Y233.2531
G1 Z-6 F800
G1 X306.3629 Y233.2538 F1500
G1 X306.4568 Y233.2767
G1 X306.5406 Y233.3198
G1 X306.6142 Y233.3858
G1 X306.67 Y233.4645
G1 X306.703 Y233.5558
G1 X306.7132 Y233.6497
G1 X306.703 Y233.7462
G1 X306.67 Y233.835
G1 X306.6142 Y233.9162
G1 X306.5406 Y233.9822
G1 X306.4568 Y234.0254
G1 X306.3629 Y234.0482
G1 X306.2639 Y234.0482
G1 X306.17 Y234.0254
G1 X306.0863 Y233.9797
G1 X306.0127 Y233.9162
G1 X305.9594 Y233.835
G1 X305.9239 Y233.7462
G1 X305.9137 Y233.6497
G1 X305.9239 Y233.5558
G1 X305.9594 Y233.4645
G1 X306.0127 Y233.3858
G1 X306.0863 Y233.3198
G1 X306.17 Y233.2767
G1 X306.2639 Y233.2538
G0 Z10
(End Block_38)

(Start Block_39)
G0 X306.2647 Y233.2531
G1 Z-7.5 F800
G1 X306.3629 Y233.2538 F1500
G1 X306.4568 Y233.2767
G1 X306.5406 Y233.3198
G1 X306.6142 Y233.3858
G1 X306.67 Y233.4645
G1 X306.703 Y233.5558
G1 X306.7132 Y233.6497
G1 X306.703 Y233.7462
G1 X306.67 Y233.835
G1 X306.6142 Y233.9162
G1 X306.5406 Y233.9822
G1 X306.4568 Y234.0254
G1 X306.3629 Y234.0482
G1 X306.2639 Y234.0482
G1 X306.17 Y234.0254
G1 X306.0863 Y233.9797
G1 X306.0127 Y233.9162
G1 X305.9594 Y233.835
G1 X305.9239 Y233.7462
G1 X305.9137 Y233.6497
G1 X305.9239 Y233.5558
G1 X305.9594 Y233.4645
G1 X306.0127 Y233.3858
G1 X306.0863 Y233.3198
G1 X306.17 Y233.2767
G1 X306.2639 Y233.2538
G0 Z10
(End Block_39)

(Start Block_40)
G0 X306.2647 Y233.2531
G1 Z-9 F800
G1 X306.3629 Y233.2538 F1500
G1 X306.4568 Y233.2767
G1 X306.5406 Y233.3198
G1 X306.6142 Y233.3858
G1 X306.67 Y233.4645
G1 X306.703 Y233.5558
G1 X306.7132 Y233.6497
G1 X306.703 Y233.7462
G1 X306.67 Y233.835
G1 X306.6142 Y233.9162
G1 X306.5406 Y233.9822
G1 X306.4568 Y234.0254
G1 X306.3629 Y234.0482
G1 X306.2639 Y234.0482
G1 X306.17 Y234.0254
G1 X306.0863 Y233.9797
G1 X306.0127 Y233.9162
G1 X305.9594 Y233.835
G1 X305.9239 Y233.7462
G1 X305.9137 Y233.6497
G1 X305.9239 Y233.5558
G1 X305.9594 Y233.4645
G1 X306.0127 Y233.3858
G1 X306.0863 Y233.3198
G1 X306.17 Y233.2767
G1 X306.2639 Y233.2538
G0 Z10
(End Block_40)

(Start Block_41)
G0 X306.2647 Y233.2531
G1 Z-10 F800
G1 X306.3629 Y233.2538 F1500
G1 X306.4568 Y233.2767
G1 X306.5406 Y233.3198
G1 X306.6142 Y233.3858
G1 X306.67 Y233.4645
G1 X306.703 Y233.5558
G1 X306.7132 Y233.6497
G1 X306.703 Y233.7462
G1 X306.67 Y233.835
G1 X306.6142 Y233.9162
G1 X306.5406 Y233.9822
G1 X306.4568 Y234.0254
G1 X306.3629 Y234.0482
G1 X306.2639 Y234.0482
G1 X306.17 Y234.0254
G1 X306.0863 Y233.9797
G1 X306.0127 Y233.9162
G1 X305.9594 Y233.835
G1 X305.9239 Y233.7462
G1 X305.9137 Y233.6497
G1 X305.9239 Y233.5558
G1 X305.9594 Y233.4645
G1 X306.0127 Y233.3858
G1 X306.0863 Y233.3198
G1 X306.17 Y233.2767
G1 X306.2639 Y233.2538
G0 Z10
(End Block_41)

(Start Block_42)
G0 X306.2647 Y217.0432
G1 Z-1.5 F800
G1 X306.3629 Y217.0432 F1500
G1 X306.4568 Y217.066
G1 X306.5406 Y217.1091
G1 X306.6142 Y217.1751
G1 X306.67 Y217.2563
G1 X306.703 Y217.3452
G1 X306.7132 Y217.4416
G1 X306.703 Y217.5355
G1 X306.67 Y217.6269
G1 X306.6142 Y217.7056
G1 X306.5406 Y217.7716
G1 X306.4568 Y217.8147
G1 X306.3629 Y217.8376
G1 X306.2639 Y217.8376
G1 X306.17 Y217.8147
G1 X306.0863 Y217.7716
G1 X306.0127 Y217.7056
G1 X305.9594 Y217.6269
G1 X305.9239 Y217.5355
G1 X305.9137 Y217.4416
G1 X305.9239 Y217.3452
G1 X305.9594 Y217.2563
G1 X306.0127 Y217.1751
G1 X306.0863 Y217.1117
G1 X306.17 Y217.066
G1 X306.2639 Y217.0432
G0 Z10
(End Block_42)

(Start Block_43)
G0 X306.2647 Y217.0432
G1 Z-3 F800
G1 X306.3629 Y217.0432 F1500
G1 X306.4568 Y217.066
G1 X306.5406 Y217.1091
G1 X306.6142 Y217.1751
G1 X306.67 Y217.2563
G1 X306.703 Y217.3452
G1 X306.7132 Y217.4416
G1 X306.703 Y217.5355
G1 X306.67 Y217.6269
G1 X306.6142 Y217.7056
G1 X306.5406 Y217.7716
G1 X306.4568 Y217.8147
G1 X306.3629 Y217.8376
G1 X306.2639 Y217.8376
G1 X306.17 Y217.8147
G1 X306.0863 Y217.7716
G1 X306.0127 Y217.7056
G1 X305.9594 Y217.6269
G1 X305.9239 Y217.5355
G1 X305.9137 Y217.4416
G1 X305.9239 Y217.3452
G1 X305.9594 Y217.2563
G1 X306.0127 Y217.1751
G1 X306.0863 Y217.1117
G1 X306.17 Y217.066
G1 X306.2639 Y217.0432
G0 Z10
(End Block_43)

(Start Block_44)
G0 X306.2647 Y217.0432
G1 Z-4.5 F800
G1 X306.3629 Y217.0432 F1500
G1 X306.4568 Y217.066
G1 X306.5406 Y217.1091
G1 X306.6142 Y217.1751
G1 X306.67 Y217.2563
G1 X306.703 Y217.3452
G1 X306.7132 Y217.4416
G1 X306.703 Y217.5355
G1 X306.67 Y217.6269
G1 X306.6142 Y217.7056
G1 X306.5406 Y217.7716
G1 X306.4568 Y217.8147
G1 X306.3629 Y217.8376
G1 X306.2639 Y217.8376
G1 X306.17 Y217.8147
G1 X306.0863 Y217.7716
G1 X306.0127 Y217.7056
G1 X305.9594 Y217.6269
G1 X305.9239 Y217.5355
G1 X305.9137 Y217.4416
G1 X305.9239 Y217.3452
G1 X305.9594 Y217.2563
G1 X306.0127 Y217.1751
G1 X306.0863 Y217.1117
G1 X306.17 Y217.066
G1 X306.2639 Y217.0432
G0 Z10
(End Block_44)

(Start Block_45)
G0 X306.2647 Y217.0432
G1 Z-6 F800
G1 X306.3629 Y217.0432 F1500
G1 X306.4568 Y217.066
G1 X306.5406 Y217.1091
G1 X306.6142 Y217.1751
G1 X306.67 Y217.2563
G1 X306.703 Y217.3452
G1 X306.7132 Y217.4416
G1 X306.703 Y217.5355
G1 X306.67 Y217.6269
G1 X306.6142 Y217.7056
G1 X306.5406 Y217.7716
G1 X306.4568 Y217.8147
G1 X306.3629 Y217.8376
G1 X306.2639 Y217.8376
G1 X306.17 Y217.8147
G1 X306.0863 Y217.7716
G1 X306.0127 Y217.7056
G1 X305.9594 Y217.6269
G1 X305.9239 Y217.5355
G1 X305.9137 Y217.4416
G1 X305.9239 Y217.3452
G1 X305.9594 Y217.2563
G1 X306.0127 Y217.1751
G1 X306.0863 Y217.1117
G1 X306.17 Y217.066
G1 X306.2639 Y217.0432
G0 Z10
(End Block_45)

(Start Block_46)
G0 X306.2647 Y217.0432
G1 Z-7.5 F800
G1 X306.3629 Y217.0432 F1500
G1 X306.4568 Y217.066
G1 X306.5406 Y217.1091
G1 X306.6142 Y217.1751
G1 X306.67 Y217.2563
G1 X306.703 Y217.3452
G1 X306.7132 Y217.4416
G1 X306.703 Y217.5355
G1 X306.67 Y217.6269
G1 X306.6142 Y217.7056
G1 X306.5406 Y217.7716
G1 X306.4568 Y217.8147
G1 X306.3629 Y217.8376
G1 X306.2639 Y217.8376
G1 X306.17 Y217.8147
G1 X306.0863 Y217.7716
G1 X306.0127 Y217.7056
G1 X305.9594 Y217.6269
G1 X305.9239 Y217.5355
G1 X305.9137 Y217.4416
G1 X305.9239 Y217.3452
G1 X305.9594 Y217.2563
G1 X306.0127 Y217.1751
G1 X306.0863 Y217.1117
G1 X306.17 Y217.066
G1 X306.2639 Y217.0432
G0 Z10
(End Block_46)

(Start Block_47)
G0 X306.2647 Y217.0432
G1 Z-9 F800
G1 X306.3629 Y217.0432 F1500
G1 X306.4568 Y217.066
G1 X306.5406 Y217.1091
G1 X306.6142 Y217.1751
G1 X306.67 Y217.2563
G1 X306.703 Y217.3452
G1 X306.7132 Y217.4416
G1 X306.703 Y217.5355
G1 X306.67 Y217.6269
G1 X306.6142 Y217.7056
G1 X306.5406 Y217.7716
G1 X306.4568 Y217.8147
G1 X306.3629 Y217.8376
G1 X306.2639 Y217.8376
G1 X306.17 Y217.8147
G1 X306.0863 Y217.7716
G1 X306.0127 Y217.7056
G1 X305.9594 Y217.6269
G1 X305.9239 Y217.5355
G1 X305.9137 Y217.4416
G1 X305.9239 Y217.3452
G1 X305.9594 Y217.2563
G1 X306.0127 Y217.1751
G1 X306.0863 Y217.1117
G1 X306.17 Y217.066
G1 X306.2639 Y217.0432
G0 Z10
(End Block_47)

(Start Block_48)
G0 X306.2647 Y217.0432
G1 Z-10 F800
G1 X306.3629 Y217.0432 F1500
G1 X306.4568 Y217.066
G1 X306.5406 Y217.1091
G1 X306.6142 Y217.1751
G1 X306.67 Y217.2563
G1 X306.703 Y217.3452
G1 X306.7132 Y217.4416
G1 X306.703 Y217.5355
G1 X306.67 Y217.6269
G1 X306.6142 Y217.7056
G1 X306.5406 Y217.7716
G1 X306.4568 Y217.8147
G1 X306.3629 Y217.8376
G1 X306.2639 Y217.8376
G1 X306.17 Y217.8147
G1 X306.0863 Y217.7716
G1 X306.0127 Y217.7056
G1 X305.9594 Y217.6269
G1 X305.9239 Y217.5355
G1 X305.9137 Y217.4416
G1 X305.9239 Y217.3452
G1 X305.9594 Y217.2563
G1 X306.0127 Y217.1751
G1 X306.0863 Y217.1117
G1 X306.17 Y217.066
G1 X306.2639 Y217.0432
G0 Z10
(End Block_48)

(Start Block_49)
G0 X335.9627 Y217.8381
G1 Z-1.5 F800
G1 X335.8655 Y217.8376 F1500
G1 X335.7716 Y217.8147
G1 X335.6853 Y217.7716
G1 X335.6142 Y217.7056
G1 X335.5584 Y217.6269
G1 X335.5254 Y217.5355
G1 X335.5127 Y217.4416
G1 X335.5254 Y217.3452
G1 X335.5584 Y217.2563
G1 X335.6142 Y217.1751
G1 X335.6853 Y217.1117
G1 X335.7716 Y217.066
G1 X335.8655 Y217.0432
G1 X335.9619 Y217.0432
G1 X336.0558 Y217.066
G1 X336.1396 Y217.1091
G1 X336.2132 Y217.1751
G1 X336.269 Y217.2563
G1 X336.302 Y217.3452
G1 X336.3147 Y217.4416
G1 X336.302 Y217.5355
G1 X336.269 Y217.6269
G1 X336.2132 Y217.7056
G1 X336.1396 Y217.7716
G1 X336.0558 Y217.8147
G1 X335.9619 Y217.8376
G0 Z10
(End Block_49)

(Start Block_50)
G0 X335.9627 Y217.8381
G1 Z-3 F800
G1 X335.8655 Y217.8376 F1500
G1 X335.7716 Y217.8147
G1 X335.6853 Y217.7716
G1 X335.6142 Y217.7056
G1 X335.5584 Y217.6269
G1 X335.5254 Y217.5355
G1 X335.5127 Y217.4416
G1 X335.5254 Y217.3452
G1 X335.5584 Y217.2563
G1 X335.6142 Y217.1751
G1 X335.6853 Y217.1117
G1 X335.7716 Y217.066
G1 X335.8655 Y217.0432
G1 X335.9619 Y217.0432
G1 X336.0558 Y217.066
G1 X336.1396 Y217.1091
G1 X336.2132 Y217.1751
G1 X336.269 Y217.2563
G1 X336.302 Y217.3452
G1 X336.3147 Y217.4416
G1 X336.302 Y217.5355
G1 X336.269 Y217.6269
G1 X336.2132 Y217.7056
G1 X336.1396 Y217.7716
G1 X336.0558 Y217.8147
G1 X335.9619 Y217.8376
G0 Z10
(End Block_50)

(Start Block_51)
G0 X335.9627 Y217.8381
G1 Z-4.5 F800
G1 X335.8655 Y217.8376 F1500
G1 X335.7716 Y217.8147
G1 X335.6853 Y217.7716
G1 X335.6142 Y217.7056
G1 X335.5584 Y217.6269
G1 X335.5254 Y217.5355
G1 X335.5127 Y217.4416
G1 X335.5254 Y217.3452
G1 X335.5584 Y217.2563
G1 X335.6142 Y217.1751
G1 X335.6853 Y217.1117
G1 X335.7716 Y217.066
G1 X335.8655 Y217.0432
G1 X335.9619 Y217.0432
G1 X336.0558 Y217.066
G1 X336.1396 Y217.1091
G1 X336.2132 Y217.1751
G1 X336.269 Y217.2563
G1 X336.302 Y217.3452
G1 X336.3147 Y217.4416
G1 X336.302 Y217.5355
G1 X336.269 Y217.6269
G1 X336.2132 Y217.7056
G1 X336.1396 Y217.7716
G1 X336.0558 Y217.8147
G1 X335.9619 Y217.8376
G0 Z10
(End Block_51)

(Start Block_52)
G0 X335.9627 Y217.8381
G1 Z-6 F800
G1 X335.8655 Y217.8376 F1500
G1 X335.7716 Y217.8147
G1 X335.6853 Y217.7716
G1 X335.6142 Y217.7056
G1 X335.5584 Y217.6269
G1 X335.5254 Y217.5355
G1 X335.5127 Y217.4416
G1 X335.5254 Y217.3452
G1 X335.5584 Y217.2563
G1 X335.6142 Y217.1751
G1 X335.6853 Y217.1117
G1 X335.7716 Y217.066
G1 X335.8655 Y217.0432
G1 X335.9619 Y217.0432
G1 X336.0558 Y217.066
G1 X336.1396 Y217.1091
G1 X336.2132 Y217.1751
G1 X336.269 Y217.2563
G1 X336.302 Y217.3452
G1 X336.3147 Y217.4416
G1 X336.302 Y217.5355
G1 X336.269 Y217.6269
G1 X336.2132 Y217.7056
G1 X336.1396 Y217.7716
G1 X336.0558 Y217.8147
G1 X335.9619 Y217.8376
G0 Z10
(End Block_52)

(Start Block_53)
G0 X335.9627 Y217.8381
G1 Z-7.5 F800
G1 X335.8655 Y217.8376 F1500
G1 X335.7716 Y217.8147
G1 X335.6853 Y217.7716
G1 X335.6142 Y217.7056
G1 X335.5584 Y217.6269
G1 X335.5254 Y217.5355
G1 X335.5127 Y217.4416
G1 X335.5254 Y217.3452
G1 X335.5584 Y217.2563
G1 X335.6142 Y217.1751
G1 X335.6853 Y217.1117
G1 X335.7716 Y217.066
G1 X335.8655 Y217.0432
G1 X335.9619 Y217.0432
G1 X336.0558 Y217.066
G1 X336.1396 Y217.1091
G1 X336.2132 Y217.1751
G1 X336.269 Y217.2563
G1 X336.302 Y217.3452
G1 X336.3147 Y217.4416
G1 X336.302 Y217.5355
G1 X336.269 Y217.6269
G1 X336.2132 Y217.7056
G1 X336.1396 Y217.7716
G1 X336.0558 Y217.8147
G1 X335.9619 Y217.8376
G0 Z10
(End Block_53)

(Start Block_54)
G0 X335.9627 Y217.8381
G1 Z-9 F800
G1 X335.8655 Y217.8376 F1500
G1 X335.7716 Y217.8147
G1 X335.6853 Y217.7716
G1 X335.6142 Y217.7056
G1 X335.5584 Y217.6269
G1 X335.5254 Y217.5355
G1 X335.5127 Y217.4416
G1 X335.5254 Y217.3452
G1 X335.5584 Y217.2563
G1 X335.6142 Y217.1751
G1 X335.6853 Y217.1117
G1 X335.7716 Y217.066
G1 X335.8655 Y217.0432
G1 X335.9619 Y217.0432
G1 X336.0558 Y217.066
G1 X336.1396 Y217.1091
G1 X336.2132 Y217.1751
G1 X336.269 Y217.2563
G1 X336.302 Y217.3452
G1 X336.3147 Y217.4416
G1 X336.302 Y217.5355
G1 X336.269 Y217.6269
G1 X336.2132 Y217.7056
G1 X336.1396 Y217.7716
G1 X336.0558 Y217.8147
G1 X335.9619 Y217.8376
G0 Z10
(End Block_54)

(Start Block_55)
G0 X335.9627 Y217.8381
G1 Z-10 F800
G1 X335.8655 Y217.8376 F1500
G1 X335.7716 Y217.8147
G1 X335.6853 Y217.7716
G1 X335.6142 Y217.7056
G1 X335.5584 Y217.6269
G1 X335.5254 Y217.5355
G1 X335.5127 Y217.4416
G1 X335.5254 Y217.3452
G1 X335.5584 Y217.2563
G1 X335.6142 Y217.1751
G1 X335.6853 Y217.1117
G1 X335.7716 Y217.066
G1 X335.8655 Y217.0432
G1 X335.9619 Y217.0432
G1 X336.0558 Y217.066
G1 X336.1396 Y217.1091
G1 X336.2132 Y217.1751
G1 X336.269 Y217.2563
G1 X336.302 Y217.3452
G1 X336.3147 Y217.4416
G1 X336.302 Y217.5355
G1 X336.269 Y217.6269
G1 X336.2132 Y217.7056
G1 X336.1396 Y217.7716
G1 X336.0558 Y217.8147
G1 X335.9619 Y217.8376
G0 Z10
(End Block_55)

(Start Block_56)
G0 X335.8647 Y233.2531
G1 Z-1.5 F800
G1 X335.9619 Y233.2538 F1500
G1 X336.0558 Y233.2767
G1 X336.1396 Y233.3198
G1 X336.2132 Y233.3858
G1 X336.269 Y233.4645
G1 X336.302 Y233.5558
G1 X336.3147 Y233.6497
G1 X336.302 Y233.7462
G1 X336.269 Y233.835
G1 X336.2132 Y233.9162
G1 X336.1396 Y233.9822
G1 X336.0558 Y234.0254
G1 X335.9619 Y234.0482
G1 X335.8655 Y234.0482
G1 X335.7716 Y234.0254
G1 X335.6853 Y233.9797
G1 X335.6142 Y233.9162
G1 X335.5584 Y233.835
G1 X335.5254 Y233.7462
G1 X335.5127 Y233.6497
G1 X335.5254 Y233.5558
G1 X335.5584 Y233.4645
G1 X335.6142 Y233.3858
G1 X335.6853 Y233.3198
G1 X335.7716 Y233.2767
G1 X335.8655 Y233.2538
G0 Z10
(End Block_56)

(Start Block_57)
G0 X335.8647 Y233.2531
G1 Z-3 F800
G1 X335.9619 Y233.2538 F1500
G1 X336.0558 Y233.2767
G1 X336.1396 Y233.3198
G1 X336.2132 Y233.3858
G1 X336.269 Y233.4645
G1 X336.302 Y233.5558
G1 X336.3147 Y233.6497
G1 X336.302 Y233.7462
G1 X336.269 Y233.835
G1 X336.2132 Y233.9162
G1 X336.1396 Y233.9822
G1 X336.0558 Y234.0254
G1 X335.9619 Y234.0482
G1 X335.8655 Y234.0482
G1 X335.7716 Y234.0254
G1 X335.6853 Y233.9797
G1 X335.6142 Y233.9162
G1 X335.5584 Y233.835
G1 X335.5254 Y233.7462
G1 X335.5127 Y233.6497
G1 X335.5254 Y233.5558
G1 X335.5584 Y233.4645
G1 X335.6142 Y233.3858
G1 X335.6853 Y233.3198
G1 X335.7716 Y233.2767
G1 X335.8655 Y233.2538
G0 Z10
(End Block_57)

(Start Block_58)
G0 X335.8647 Y233.2531
G1 Z-4.5 F800
G1 X335.9619 Y233.2538 F1500
G1 X336.0558 Y233.2767
G1 X336.1396 Y233.3198
G1 X336.2132 Y233.3858
G1 X336.269 Y233.4645
G1 X336.302 Y233.5558
G1 X336.3147 Y233.6497
G1 X336.302 Y233.7462
G1 X336.269 Y233.835
G1 X336.2132 Y233.9162
G1 X336.1396 Y233.9822
G1 X336.0558 Y234.0254
G1 X335.9619 Y234.0482
G1 X335.8655 Y234.0482
G1 X335.7716 Y234.0254
G1 X335.6853 Y233.9797
G1 X335.6142 Y233.9162
G1 X335.5584 Y233.835
G1 X335.5254 Y233.7462
G1 X335.5127 Y233.6497
G1 X335.5254 Y233.5558
G1 X335.5584 Y233.4645
G1 X335.6142 Y233.3858
G1 X335.6853 Y233.3198
G1 X335.7716 Y233.2767
G1 X335.8655 Y233.2538
G0 Z10
(End Block_58)

(Start Block_59)
G0 X335.8647 Y233.2531
G1 Z-6 F800
G1 X335.9619 Y233.2538 F1500
G1 X336.0558 Y233.2767
G1 X336.1396 Y233.3198
G1 X336.2132 Y233.3858
G1 X336.269 Y233.4645
G1 X336.302 Y233.5558
G1 X336.3147 Y233.6497
G1 X336.302 Y233.7462
G1 X336.269 Y233.835
G1 X336.2132 Y233.9162
G1 X336.1396 Y233.9822
G1 X336.0558 Y234.0254
G1 X335.9619 Y234.0482
G1 X335.8655 Y234.0482
G1 X335.7716 Y234.0254
G1 X335.6853 Y233.9797
G1 X335.6142 Y233.9162
G1 X335.5584 Y233.835
G1 X335.5254 Y233.7462
G1 X335.5127 Y233.6497
G1 X335.5254 Y233.5558
G1 X335.5584 Y233.4645
G1 X335.6142 Y233.3858
G1 X335.6853 Y233.3198
G1 X335.7716 Y233.2767
G1 X335.8655 Y233.2538
G0 Z10
(End Block_59)

(Start Block_60)
G0 X335.8647 Y233.2531
G1 Z-7.5 F800
G1 X335.9619 Y233.2538 F1500
G1 X336.0558 Y233.2767
G1 X336.1396 Y233.3198
G1 X336.2132 Y233.3858
G1 X336.269 Y233.4645
G1 X336.302 Y233.5558
G1 X336.3147 Y233.6497
G1 X336.302 Y233.7462
G1 X336.269 Y233.835
G1 X336.2132 Y233.9162
G1 X336.1396 Y233.9822
G1 X336.0558 Y234.0254
G1 X335.9619 Y234.0482
G1 X335.8655 Y234.0482
G1 X335.7716 Y234.0254
G1 X335.6853 Y233.9797
G1 X335.6142 Y233.9162
G1 X335.5584 Y233.835
G1 X335.5254 Y233.7462
G1 X335.5127 Y233.6497
G1 X335.5254 Y233.5558
G1 X335.5584 Y233.4645
G1 X335.6142 Y233.3858
G1 X335.6853 Y233.3198
G1 X335.7716 Y233.2767
G1 X335.8655 Y233.2538
G0 Z10
(End Block_60)

(Start Block_61)
G0 X335.8647 Y233.2531
G1 Z-9 F800
G1 X335.9619 Y233.2538 F1500
G1 X336.0558 Y233.2767
G1 X336.1396 Y233.3198
G1 X336.2132 Y233.3858
G1 X336.269 Y233.4645
G1 X336.302 Y233.5558
G1 X336.3147 Y233.6497
G1 X336.302 Y233.7462
G1 X336.269 Y233.835
G1 X336.2132 Y233.9162
G1 X336.1396 Y233.9822
G1 X336.0558 Y234.0254
G1 X335.9619 Y234.0482
G1 X335.8655 Y234.0482
G1 X335.7716 Y234.0254
G1 X335.6853 Y233.9797
G1 X335.6142 Y233.9162
G1 X335.5584 Y233.835
G1 X335.5254 Y233.7462
G1 X335.5127 Y233.6497
G1 X335.5254 Y233.5558
G1 X335.5584 Y233.4645
G1 X335.6142 Y233.3858
G1 X335.6853 Y233.3198
G1 X335.7716 Y233.2767
G1 X335.8655 Y233.2538
G0 Z10
(End Block_61)

(Start Block_62)
G0 X335.8647 Y233.2531
G1 Z-10 F800
G1 X335.9619 Y233.2538 F1500
G1 X336.0558 Y233.2767
G1 X336.1396 Y233.3198
G1 X336.2132 Y233.3858
G1 X336.269 Y233.4645
G1 X336.302 Y233.5558
G1 X336.3147 Y233.6497
G1 X336.302 Y233.7462
G1 X336.269 Y233.835
G1 X336.2132 Y233.9162
G1 X336.1396 Y233.9822
G1 X336.0558 Y234.0254
G1 X335.9619 Y234.0482
G1 X335.8655 Y234.0482
G1 X335.7716 Y234.0254
G1 X335.6853 Y233.9797
G1 X335.6142 Y233.9162
G1 X335.5584 Y233.835
G1 X335.5254 Y233.7462
G1 X335.5127 Y233.6497
G1 X335.5254 Y233.5558
G1 X335.5584 Y233.4645
G1 X335.6142 Y233.3858
G1 X335.6853 Y233.3198
G1 X335.7716 Y233.2767
G1 X335.8655 Y233.2538
G0 Z10
(End Block_62)

(Start Block_63)
G0 X450.0972 Y232.4391
G1 Z-1.5 F800
G1 X450.1168 Y232.4492 F1500
G1 X450.132 Y232.4594
G1 X450.1472 Y232.4721
G1 X450.1573 Y232.4848
G1 X450.17 Y232.5
G1 X450.1802 Y232.5178
G1 X450.1853 Y232.533
G1 X450.1929 Y232.5533
G1 X450.1954 Y232.5736
G1 X450.1954 Y232.5914
G1 X450.1954 Y232.6091
G1 X450.1929 Y232.6294
G1 X450.1853 Y232.6472
G1 X450.1802 Y232.6624
G1 X450.17 Y232.6802
G1 X450.1573 Y232.698
G1 X450.1472 Y232.7081
G1 X450.132 Y232.7208
G1 X450.1168 Y232.731
G1 X450.0964 Y232.7411
G1 X450.0812 Y232.7487
G1 X450.066 Y232.7513
G1 X450.0432 Y232.7563
G1 X450.0254 Y232.7563
G1 X450.0051 Y232.7538
G1 X449.9873 Y232.7513
G1 X449.9721 Y232.7462
G1 X449.9518 Y232.736
G1 X449.9366 Y232.7284
G1 X449.9213 Y232.7157
G1 X449.9086 Y232.703
G1 X449.8985 Y232.6904
G1 X449.8858 Y232.67
G1 X449.8782 Y232.6548
G1 X449.8705 Y232.6371
G1 X449.868 Y232.6193
G1 X449.8655 Y232.599
G1 X449.8655 Y232.5812
G1 X449.868 Y232.5609
G1 X449.8705 Y232.5432
G1 X449.8782 Y232.5279
G1 X449.8858 Y232.5101
G1 X449.8985 Y232.4899
G1 X449.9086 Y232.4772
G1 X449.9213 Y232.4645
G1 X449.9366 Y232.4543
G1 X449.9518 Y232.4442
G1 X449.9721 Y232.4366
G1 X449.9873 Y232.4315
G1 X450.0051 Y232.4264
G1 X450.0254 Y232.4264
G1 X450.0432 Y232.4264
G1 X450.066 Y232.4289
G1 X450.0812 Y232.434
G1 X450.0964 Y232.4391
G1 X450.6261 Y231.2822 F1500
G1 X450.7741 Y231.3604 F1500
G1 X450.9086 Y231.4518
G1 X451.033 Y231.5584
G1 X451.1421 Y231.6802
G1 X451.2386 Y231.8122
G1 X451.3223 Y231.9568
G1 X451.3832 Y232.1066
G1 X451.4315 Y232.264
G1 X451.4594 Y232.4264
G1 X451.4695 Y232.5914
G1 X451.4594 Y232.7538
G1 X451.4315 Y232.9162
G1 X451.3832 Y233.0736
G1 X451.3223 Y233.2233
G1 X451.2386 Y233.368
G1 X451.1421 Y233.5025
G1 X451.033 Y233.6218
G1 X450.9086 Y233.7284
G1 X450.7741 Y233.8198
G1 X450.6269 Y233.8985
G1 X450.4746 Y233.9594
G1 X450.3173 Y234
G1 X450.1523 Y234.0228
G1 X449.9898 Y234.0279
G1 X449.8249 Y234.0127
G1 X449.665 Y233.9822
G1 X449.5102 Y233.9315
G1 X449.3579 Y233.8629
G1 X449.2183 Y233.7767
G1 X449.0888 Y233.6777
G1 X448.9721 Y233.5634
G1 X448.868 Y233.4366
G1 X448.7792 Y233.297
G1 X448.7056 Y233.1497
G1 X448.6497 Y232.9975
G1 X448.6142 Y232.835
G1 X448.5939 Y232.6726
G1 X448.5939 Y232.5101
G1 X448.6142 Y232.3452
G1 X448.6497 Y232.1853
G1 X448.7056 Y232.033
G1 X448.7792 Y231.8858
G1 X448.868 Y231.7437
G1 X448.9721 Y231.6167
G1 X449.0888 Y231.5025
G1 X449.2183 Y231.4035
G1 X449.3579 Y231.3198
G1 X449.5102 Y231.2513
G1 X449.665 Y231.2005
G1 X449.8249 Y231.1675
G1 X449.9898 Y231.1548
G1 X450.1523 Y231.1574
G1 X450.3173 Y231.1827
G1 X450.4746 Y231.2233
G1 X450.6269 Y231.2817
G1 X451.1553 Y230.1256 F1500
G1 X451.4315 Y230.2716 F1500
G1 X451.6853 Y230.4442
G1 X451.9188 Y230.6472
G1 X452.1269 Y230.8756
G1 X452.3096 Y231.1244
G1 X452.4619 Y231.3959
G1 X452.5838 Y231.6802
G1 X452.67 Y231.9772
G1 X452.7234 Y232.2817
G1 X452.7411 Y232.5914
G1 X452.7234 Y232.8985
G1 X452.67 Y233.2056
G1 X452.5838 Y233.5025
G1 X452.4619 Y233.7868
G1 X452.3096 Y234.0558
G1 X452.1269 Y234.3071
G1 X451.9188 Y234.533
G1 X451.6853 Y234.736
G1 X451.4315 Y234.9112
G1 X451.1548 Y235.0558
G1 X450.868 Y235.1675
G1 X450.5711 Y235.2462
G1 X450.2614 Y235.2893
G1 X449.9518 Y235.2995
G1 X449.6447 Y235.2716
G1 X449.3427 Y235.2107
G1 X449.0482 Y235.1167
G1 X448.7639 Y234.9873
G1 X448.5 Y234.8274
G1 X448.2563 Y234.6396
G1 X448.0355 Y234.4239
G1 X447.8376 Y234.1853
G1 X447.67 Y233.9213
G1 X447.533 Y233.6447
G1 X447.4315 Y233.3553
G1 X447.3604 Y233.0533
G1 X447.3249 Y232.7437
G1 X447.3249 Y232.4366
G1 X447.3604 Y232.1294
G1 X447.4315 Y231.8274
G1 X447.533 Y231.5355
G1 X447.67 Y231.2589
G1 X447.8376 Y230.9975
G1 X448.0355 Y230.7563
G1 X448.2563 Y230.5432
G1 X448.5 Y230.3528
G1 X448.7639 Y230.1954
G1 X449.0482 Y230.066
G1 X449.3427 Y229.9695
G1 X449.6447 Y229.9086
G1 X449.9518 Y229.8833
G1 X450.2614 Y229.8909
G1 X450.5711 Y229.934
G1 X450.868 Y230.0127
G1 X451.1548 Y230.1244
G0 Z10
(End Block_63)

(Start Block_64)
G0 X450.0972 Y232.4391
G1 Z-3 F800
G1 X450.1168 Y232.4492 F1500
G1 X450.132 Y232.4594
G1 X450.1472 Y232.4721
G1 X450.1573 Y232.4848
G1 X450.17 Y232.5
G1 X450.1802 Y232.5178
G1 X450.1853 Y232.533
G1 X450.1929 Y232.5533
G1 X450.1954 Y232.5736
G1 X450.1954 Y232.5914
G1 X450.1954 Y232.6091
G1 X450.1929 Y232.6294
G1 X450.1853 Y232.6472
G1 X450.1802 Y232.6624
G1 X450.17 Y232.6802
G1 X450.1573 Y232.698
G1 X450.1472 Y232.7081
G1 X450.132 Y232.7208
G1 X450.1168 Y232.731
G1 X450.0964 Y232.7411
G1 X450.0812 Y232.7487
G1 X450.066 Y232.7513
G1 X450.0432 Y232.7563
G1 X450.0254 Y232.7563
G1 X450.0051 Y232.7538
G1 X449.9873 Y232.7513
G1 X449.9721 Y232.7462
G1 X449.9518 Y232.736
G1 X449.9366 Y232.7284
G1 X449.9213 Y232.7157
G1 X449.9086 Y232.703
G1 X449.8985 Y232.6904
G1 X449.8858 Y232.67
G1 X449.8782 Y232.6548
G1 X449.8705 Y232.6371
G1 X449.868 Y232.6193
G1 X449.8655 Y232.599
G1 X449.8655 Y232.5812
G1 X449.868 Y232.5609
G1 X449.8705 Y232.5432
G1 X449.8782 Y232.5279
G1 X449.8858 Y232.5101
G1 X449.8985 Y232.4899
G1 X449.9086 Y232.4772
G1 X449.9213 Y232.4645
G1 X449.9366 Y232.4543
G1 X449.9518 Y232.4442
G1 X449.9721 Y232.4366
G1 X449.9873 Y232.4315
G1 X450.0051 Y232.4264
G1 X450.0254 Y232.4264
G1 X450.0432 Y232.4264
G1 X450.066 Y232.4289
G1 X450.0812 Y232.434
G1 X450.0964 Y232.4391
G1 X450.6261 Y231.2822 F1500
G1 X450.7741 Y231.3604 F1500
G1 X450.9086 Y231.4518
G1 X451.033 Y231.5584
G1 X451.1421 Y231.6802
G1 X451.2386 Y231.8122
G1 X451.3223 Y231.9568
G1 X451.3832 Y232.1066
G1 X451.4315 Y232.264
G1 X451.4594 Y232.4264
G1 X451.4695 Y232.5914
G1 X451.4594 Y232.7538
G1 X451.4315 Y232.9162
G1 X451.3832 Y233.0736
G1 X451.3223 Y233.2233
G1 X451.2386 Y233.368
G1 X451.1421 Y233.5025
G1 X451.033 Y233.6218
G1 X450.9086 Y233.7284
G1 X450.7741 Y233.8198
G1 X450.6269 Y233.8985
G1 X450.4746 Y233.9594
G1 X450.3173 Y234
G1 X450.1523 Y234.0228
G1 X449.9898 Y234.0279
G1 X449.8249 Y234.0127
G1 X449.665 Y233.9822
G1 X449.5102 Y233.9315
G1 X449.3579 Y233.8629
G1 X449.2183 Y233.7767
G1 X449.0888 Y233.6777
G1 X448.9721 Y233.5634
G1 X448.868 Y233.4366
G1 X448.7792 Y233.297
G1 X448.7056 Y233.1497
G1 X448.6497 Y232.9975
G1 X448.6142 Y232.835
G1 X448.5939 Y232.6726
G1 X448.5939 Y232.5101
G1 X448.6142 Y232.3452
G1 X448.6497 Y232.1853
G1 X448.7056 Y232.033
G1 X448.7792 Y231.8858
G1 X448.868 Y231.7437
G1 X448.9721 Y231.6167
G1 X449.0888 Y231.5025
G1 X449.2183 Y231.4035
G1 X449.3579 Y231.3198
G1 X449.5102 Y231.2513
G1 X449.665 Y231.2005
G1 X449.8249 Y231.1675
G1 X449.9898 Y231.1548
G1 X450.1523 Y231.1574
G1 X450.3173 Y231.1827
G1 X450.4746 Y231.2233
G1 X450.6269 Y231.2817
G1 X451.1553 Y230.1256 F1500
G1 X451.4315 Y230.2716 F1500
G1 X451.6853 Y230.4442
G1 X451.9188 Y230.6472
G1 X452.1269 Y230.8756
G1 X452.3096 Y231.1244
G1 X452.4619 Y231.3959
G1 X452.5838 Y231.6802
G1 X452.67 Y231.9772
G1 X452.7234 Y232.2817
G1 X452.7411 Y232.5914
G1 X452.7234 Y232.8985
G1 X452.67 Y233.2056
G1 X452.5838 Y233.5025
G1 X452.4619 Y233.7868
G1 X452.3096 Y234.0558
G1 X452.1269 Y234.3071
G1 X451.9188 Y234.533
G1 X451.6853 Y234.736
G1 X451.4315 Y234.9112
G1 X451.1548 Y235.0558
G1 X450.868 Y235.1675
G1 X450.5711 Y235.2462
G1 X450.2614 Y235.2893
G1 X449.9518 Y235.2995
G1 X449.6447 Y235.2716
G1 X449.3427 Y235.2107
G1 X449.0482 Y235.1167
G1 X448.7639 Y234.9873
G1 X448.5 Y234.8274
G1 X448.2563 Y234.6396
G1 X448.0355 Y234.4239
G1 X447.8376 Y234.1853
G1 X447.67 Y233.9213
G1 X447.533 Y233.6447
G1 X447.4315 Y233.3553
G1 X447.3604 Y233.0533
G1 X447.3249 Y232.7437
G1 X447.3249 Y232.4366
G1 X447.3604 Y232.1294
G1 X447.4315 Y231.8274
G1 X447.533 Y231.5355
G1 X447.67 Y231.2589
G1 X447.8376 Y230.9975
G1 X448.0355 Y230.7563
G1 X448.2563 Y230.5432
G1 X448.5 Y230.3528
G1 X448.7639 Y230.1954
G1 X449.0482 Y230.066
G1 X449.3427 Y229.9695
G1 X449.6447 Y229.9086
G1 X449.9518 Y229.8833
G1 X450.2614 Y229.8909
G1 X450.5711 Y229.934
G1 X450.868 Y230.0127
G1 X451.1548 Y230.1244
G0 Z10
(End Block_64)

(Start Block_65)
G0 X450.0972 Y232.4391
G1 Z-4.5 F800
G1 X450.1168 Y232.4492 F1500
G1 X450.132 Y232.4594
G1 X450.1472 Y232.4721
G1 X450.1573 Y232.4848
G1 X450.17 Y232.5
G1 X450.1802 Y232.5178
G1 X450.1853 Y232.533
G1 X450.1929 Y232.5533
G1 X450.1954 Y232.5736
G1 X450.1954 Y232.5914
G1 X450.1954 Y232.6091
G1 X450.1929 Y232.6294
G1 X450.1853 Y232.6472
G1 X450.1802 Y232.6624
G1 X450.17 Y232.6802
G1 X450.1573 Y232.698
G1 X450.1472 Y232.7081
G1 X450.132 Y232.7208
G1 X450.1168 Y232.731
G1 X450.0964 Y232.7411
G1 X450.0812 Y232.7487
G1 X450.066 Y232.7513
G1 X450.0432 Y232.7563
G1 X450.0254 Y232.7563
G1 X450.0051 Y232.7538
G1 X449.9873 Y232.7513
G1 X449.9721 Y232.7462
G1 X449.9518 Y232.736
G1 X449.9366 Y232.7284
G1 X449.9213 Y232.7157
G1 X449.9086 Y232.703
G1 X449.8985 Y232.6904
G1 X449.8858 Y232.67
G1 X449.8782 Y232.6548
G1 X449.8705 Y232.6371
G1 X449.868 Y232.6193
G1 X449.8655 Y232.599
G1 X449.8655 Y232.5812
G1 X449.868 Y232.5609
G1 X449.8705 Y232.5432
G1 X449.8782 Y232.5279
G1 X449.8858 Y232.5101
G1 X449.8985 Y232.4899
G1 X449.9086 Y232.4772
G1 X449.9213 Y232.4645
G1 X449.9366 Y232.4543
G1 X449.9518 Y232.4442
G1 X449.9721 Y232.4366
G1 X449.9873 Y232.4315
G1 X450.0051 Y232.4264
G1 X450.0254 Y232.4264
G1 X450.0432 Y232.4264
G1 X450.066 Y232.4289
G1 X450.0812 Y232.434
G1 X450.0964 Y232.4391
G1 X450.6261 Y231.2822 F1500
G1 X450.7741 Y231.3604 F1500
G1 X450.9086 Y231.4518
G1 X451.033 Y231.5584
G1 X451.1421 Y231.6802
G1 X451.2386 Y231.8122
G1 X451.3223 Y231.9568
G1 X451.3832 Y232.1066
G1 X451.4315 Y232.264
G1 X451.4594 Y232.4264
G1 X451.4695 Y232.5914
G1 X451.4594 Y232.7538
G1 X451.4315 Y232.9162
G1 X451.3832 Y233.0736
G1 X451.3223 Y233.2233
G1 X451.2386 Y233.368
G1 X451.1421 Y233.5025
G1 X451.033 Y233.6218
G1 X450.9086 Y233.7284
G1 X450.7741 Y233.8198
G1 X450.6269 Y233.8985
G1 X450.4746 Y233.9594
G1 X450.3173 Y234
G1 X450.1523 Y234.0228
G1 X449.9898 Y234.0279
G1 X449.8249 Y234.0127
G1 X449.665 Y233.9822
G1 X449.5102 Y233.9315
G1 X449.3579 Y233.8629
G1 X449.2183 Y233.7767
G1 X449.0888 Y233.6777
G1 X448.9721 Y233.5634
G1 X448.868 Y233.4366
G1 X448.7792 Y233.297
G1 X448.7056 Y233.1497
G1 X448.6497 Y232.9975
G1 X448.6142 Y232.835
G1 X448.5939 Y232.6726
G1 X448.5939 Y232.5101
G1 X448.6142 Y232.3452
G1 X448.6497 Y232.1853
G1 X448.7056 Y232.033
G1 X448.7792 Y231.8858
G1 X448.868 Y231.7437
G1 X448.9721 Y231.6167
G1 X449.0888 Y231.5025
G1 X449.2183 Y231.4035
G1 X449.3579 Y231.3198
G1 X449.5102 Y231.2513
G1 X449.665 Y231.2005
G1 X449.8249 Y231.1675
G1 X449.9898 Y231.1548
G1 X450.1523 Y231.1574
G1 X450.3173 Y231.1827
G1 X450.4746 Y231.2233
G1 X450.6269 Y231.2817
G1 X451.1553 Y230.1256 F1500
G1 X451.4315 Y230.2716 F1500
G1 X451.6853 Y230.4442
G1 X451.9188 Y230.6472
G1 X452.1269 Y230.8756
G1 X452.3096 Y231.1244
G1 X452.4619 Y231.3959
G1 X452.5838 Y231.6802
G1 X452.67 Y231.9772
G1 X452.7234 Y232.2817
G1 X452.7411 Y232.5914
G1 X452.7234 Y232.8985
G1 X452.67 Y233.2056
G1 X452.5838 Y233.5025
G1 X452.4619 Y233.7868
G1 X452.3096 Y234.0558
G1 X452.1269 Y234.3071
G1 X451.9188 Y234.533
G1 X451.6853 Y234.736
G1 X451.4315 Y234.9112
G1 X451.1548 Y235.0558
G1 X450.868 Y235.1675
G1 X450.5711 Y235.2462
G1 X450.2614 Y235.2893
G1 X449.9518 Y235.2995
G1 X449.6447 Y235.2716
G1 X449.3427 Y235.2107
G1 X449.0482 Y235.1167
G1 X448.7639 Y234.9873
G1 X448.5 Y234.8274
G1 X448.2563 Y234.6396
G1 X448.0355 Y234.4239
G1 X447.8376 Y234.1853
G1 X447.67 Y233.9213
G1 X447.533 Y233.6447
G1 X447.4315 Y233.3553
G1 X447.3604 Y233.0533
G1 X447.3249 Y232.7437
G1 X447.3249 Y232.4366
G1 X447.3604 Y232.1294
G1 X447.4315 Y231.8274
G1 X447.533 Y231.5355
G1 X447.67 Y231.2589
G1 X447.8376 Y230.9975
G1 X448.0355 Y230.7563
G1 X448.2563 Y230.5432
G1 X448.5 Y230.3528
G1 X448.7639 Y230.1954
G1 X449.0482 Y230.066
G1 X449.3427 Y229.9695
G1 X449.6447 Y229.9086
G1 X449.9518 Y229.8833
G1 X450.2614 Y229.8909
G1 X450.5711 Y229.934
G1 X450.868 Y230.0127
G1 X451.1548 Y230.1244
G0 Z10
(End Block_65)

(Start Block_66)
G0 X450.0972 Y232.4391
G1 Z-6 F800
G1 X450.1168 Y232.4492 F1500
G1 X450.132 Y232.4594
G1 X450.1472 Y232.4721
G1 X450.1573 Y232.4848
G1 X450.17 Y232.5
G1 X450.1802 Y232.5178
G1 X450.1853 Y232.533
G1 X450.1929 Y232.5533
G1 X450.1954 Y232.5736
G1 X450.1954 Y232.5914
G1 X450.1954 Y232.6091
G1 X450.1929 Y232.6294
G1 X450.1853 Y232.6472
G1 X450.1802 Y232.6624
G1 X450.17 Y232.6802
G1 X450.1573 Y232.698
G1 X450.1472 Y232.7081
G1 X450.132 Y232.7208
G1 X450.1168 Y232.731
G1 X450.0964 Y232.7411
G1 X450.0812 Y232.7487
G1 X450.066 Y232.7513
G1 X450.0432 Y232.7563
G1 X450.0254 Y232.7563
G1 X450.0051 Y232.7538
G1 X449.9873 Y232.7513
G1 X449.9721 Y232.7462
G1 X449.9518 Y232.736
G1 X449.9366 Y232.7284
G1 X449.9213 Y232.7157
G1 X449.9086 Y232.703
G1 X449.8985 Y232.6904
G1 X449.8858 Y232.67
G1 X449.8782 Y232.6548
G1 X449.8705 Y232.6371
G1 X449.868 Y232.6193
G1 X449.8655 Y232.599
G1 X449.8655 Y232.5812
G1 X449.868 Y232.5609
G1 X449.8705 Y232.5432
G1 X449.8782 Y232.5279
G1 X449.8858 Y232.5101
G1 X449.8985 Y232.4899
G1 X449.9086 Y232.4772
G1 X449.9213 Y232.4645
G1 X449.9366 Y232.4543
G1 X449.9518 Y232.4442
G1 X449.9721 Y232.4366
G1 X449.9873 Y232.4315
G1 X450.0051 Y232.4264
G1 X450.0254 Y232.4264
G1 X450.0432 Y232.4264
G1 X450.066 Y232.4289
G1 X450.0812 Y232.434
G1 X450.0964 Y232.4391
G1 X450.6261 Y231.2822 F1500
G1 X450.7741 Y231.3604 F1500
G1 X450.9086 Y231.4518
G1 X451.033 Y231.5584
G1 X451.1421 Y231.6802
G1 X451.2386 Y231.8122
G1 X451.3223 Y231.9568
G1 X451.3832 Y232.1066
G1 X451.4315 Y232.264
G1 X451.4594 Y232.4264
G1 X451.4695 Y232.5914
G1 X451.4594 Y232.7538
G1 X451.4315 Y232.9162
G1 X451.3832 Y233.0736
G1 X451.3223 Y233.2233
G1 X451.2386 Y233.368
G1 X451.1421 Y233.5025
G1 X451.033 Y233.6218
G1 X450.9086 Y233.7284
G1 X450.7741 Y233.8198
G1 X450.6269 Y233.8985
G1 X450.4746 Y233.9594
G1 X450.3173 Y234
G1 X450.1523 Y234.0228
G1 X449.9898 Y234.0279
G1 X449.8249 Y234.0127
G1 X449.665 Y233.9822
G1 X449.5102 Y233.9315
G1 X449.3579 Y233.8629
G1 X449.2183 Y233.7767
G1 X449.0888 Y233.6777
G1 X448.9721 Y233.5634
G1 X448.868 Y233.4366
G1 X448.7792 Y233.297
G1 X448.7056 Y233.1497
G1 X448.6497 Y232.9975
G1 X448.6142 Y232.835
G1 X448.5939 Y232.6726
G1 X448.5939 Y232.5101
G1 X448.6142 Y232.3452
G1 X448.6497 Y232.1853
G1 X448.7056 Y232.033
G1 X448.7792 Y231.8858
G1 X448.868 Y231.7437
G1 X448.9721 Y231.6167
G1 X449.0888 Y231.5025
G1 X449.2183 Y231.4035
G1 X449.3579 Y231.3198
G1 X449.5102 Y231.2513
G1 X449.665 Y231.2005
G1 X449.8249 Y231.1675
G1 X449.9898 Y231.1548
G1 X450.1523 Y231.1574
G1 X450.3173 Y231.1827
G1 X450.4746 Y231.2233
G1 X450.6269 Y231.2817
G1 X451.1553 Y230.1256 F1500
G1 X451.4315 Y230.2716 F1500
G1 X451.6853 Y230.4442
G1 X451.9188 Y230.6472
G1 X452.1269 Y230.8756
G1 X452.3096 Y231.1244
G1 X452.4619 Y231.3959
G1 X452.5838 Y231.6802
G1 X452.67 Y231.9772
G1 X452.7234 Y232.2817
G1 X452.7411 Y232.5914
G1 X452.7234 Y232.8985
G1 X452.67 Y233.2056
G1 X452.5838 Y233.5025
G1 X452.4619 Y233.7868
G1 X452.3096 Y234.0558
G1 X452.1269 Y234.3071
G1 X451.9188 Y234.533
G1 X451.6853 Y234.736
G1 X451.4315 Y234.9112
G1 X451.1548 Y235.0558
G1 X450.868 Y235.1675
G1 X450.5711 Y235.2462
G1 X450.2614 Y235.2893
G1 X449.9518 Y235.2995
G1 X449.6447 Y235.2716
G1 X449.3427 Y235.2107
G1 X449.0482 Y235.1167
G1 X448.7639 Y234.9873
G1 X448.5 Y234.8274
G1 X448.2563 Y234.6396
G1 X448.0355 Y234.4239
G1 X447.8376 Y234.1853
G1 X447.67 Y233.9213
G1 X447.533 Y233.6447
G1 X447.4315 Y233.3553
G1 X447.3604 Y233.0533
G1 X447.3249 Y232.7437
G1 X447.3249 Y232.4366
G1 X447.3604 Y232.1294
G1 X447.4315 Y231.8274
G1 X447.533 Y231.5355
G1 X447.67 Y231.2589
G1 X447.8376 Y230.9975
G1 X448.0355 Y230.7563
G1 X448.2563 Y230.5432
G1 X448.5 Y230.3528
G1 X448.7639 Y230.1954
G1 X449.0482 Y230.066
G1 X449.3427 Y229.9695
G1 X449.6447 Y229.9086
G1 X449.9518 Y229.8833
G1 X450.2614 Y229.8909
G1 X450.5711 Y229.934
G1 X450.868 Y230.0127
G1 X451.1548 Y230.1244
G0 Z10
(End Block_66)

(Start Block_67)
G0 X450.0972 Y232.4391
G1 Z-7.5 F800
G1 X450.1168 Y232.4492 F1500
G1 X450.132 Y232.4594
G1 X450.1472 Y232.4721
G1 X450.1573 Y232.4848
G1 X450.17 Y232.5
G1 X450.1802 Y232.5178
G1 X450.1853 Y232.533
G1 X450.1929 Y232.5533
G1 X450.1954 Y232.5736
G1 X450.1954 Y232.5914
G1 X450.1954 Y232.6091
G1 X450.1929 Y232.6294
G1 X450.1853 Y232.6472
G1 X450.1802 Y232.6624
G1 X450.17 Y232.6802
G1 X450.1573 Y232.698
G1 X450.1472 Y232.7081
G1 X450.132 Y232.7208
G1 X450.1168 Y232.731
G1 X450.0964 Y232.7411
G1 X450.0812 Y232.7487
G1 X450.066 Y232.7513
G1 X450.0432 Y232.7563
G1 X450.0254 Y232.7563
G1 X450.0051 Y232.7538
G1 X449.9873 Y232.7513
G1 X449.9721 Y232.7462
G1 X449.9518 Y232.736
G1 X449.9366 Y232.7284
G1 X449.9213 Y232.7157
G1 X449.9086 Y232.703
G1 X449.8985 Y232.6904
G1 X449.8858 Y232.67
G1 X449.8782 Y232.6548
G1 X449.8705 Y232.6371
G1 X449.868 Y232.6193
G1 X449.8655 Y232.599
G1 X449.8655 Y232.5812
G1 X449.868 Y232.5609
G1 X449.8705 Y232.5432
G1 X449.8782 Y232.5279
G1 X449.8858 Y232.5101
G1 X449.8985 Y232.4899
G1 X449.9086 Y232.4772
G1 X449.9213 Y232.4645
G1 X449.9366 Y232.4543
G1 X449.9518 Y232.4442
G1 X449.9721 Y232.4366
G1 X449.9873 Y232.4315
G1 X450.0051 Y232.4264
G1 X450.0254 Y232.4264
G1 X450.0432 Y232.4264
G1 X450.066 Y232.4289
G1 X450.0812 Y232.434
G1 X450.0964 Y232.4391
G1 X450.6261 Y231.2822 F1500
G1 X450.7741 Y231.3604 F1500
G1 X450.9086 Y231.4518
G1 X451.033 Y231.5584
G1 X451.1421 Y231.6802
G1 X451.2386 Y231.8122
G1 X451.3223 Y231.9568
G1 X451.3832 Y232.1066
G1 X451.4315 Y232.264
G1 X451.4594 Y232.4264
G1 X451.4695 Y232.5914
G1 X451.4594 Y232.7538
G1 X451.4315 Y232.9162
G1 X451.3832 Y233.0736
G1 X451.3223 Y233.2233
G1 X451.2386 Y233.368
G1 X451.1421 Y233.5025
G1 X451.033 Y233.6218
G1 X450.9086 Y233.7284
G1 X450.7741 Y233.8198
G1 X450.6269 Y233.8985
G1 X450.4746 Y233.9594
G1 X450.3173 Y234
G1 X450.1523 Y234.0228
G1 X449.9898 Y234.0279
G1 X449.8249 Y234.0127
G1 X449.665 Y233.9822
G1 X449.5102 Y233.9315
G1 X449.3579 Y233.8629
G1 X449.2183 Y233.7767
G1 X449.0888 Y233.6777
G1 X448.9721 Y233.5634
G1 X448.868 Y233.4366
G1 X448.7792 Y233.297
G1 X448.7056 Y233.1497
G1 X448.6497 Y232.9975
G1 X448.6142 Y232.835
G1 X448.5939 Y232.6726
G1 X448.5939 Y232.5101
G1 X448.6142 Y232.3452
G1 X448.6497 Y232.1853
G1 X448.7056 Y232.033
G1 X448.7792 Y231.8858
G1 X448.868 Y231.7437
G1 X448.9721 Y231.6167
G1 X449.0888 Y231.5025
G1 X449.2183 Y231.4035
G1 X449.3579 Y231.3198
G1 X449.5102 Y231.2513
G1 X449.665 Y231.2005
G1 X449.8249 Y231.1675
G1 X449.9898 Y231.1548
G1 X450.1523 Y231.1574
G1 X450.3173 Y231.1827
G1 X450.4746 Y231.2233
G1 X450.6269 Y231.2817
G1 X451.1553 Y230.1256 F1500
G1 X451.4315 Y230.2716 F1500
G1 X451.6853 Y230.4442
G1 X451.9188 Y230.6472
G1 X452.1269 Y230.8756
G1 X452.3096 Y231.1244
G1 X452.4619 Y231.3959
G1 X452.5838 Y231.6802
G1 X452.67 Y231.9772
G1 X452.7234 Y232.2817
G1 X452.7411 Y232.5914
G1 X452.7234 Y232.8985
G1 X452.67 Y233.2056
G1 X452.5838 Y233.5025
G1 X452.4619 Y233.7868
G1 X452.3096 Y234.0558
G1 X452.1269 Y234.3071
G1 X451.9188 Y234.533
G1 X451.6853 Y234.736
G1 X451.4315 Y234.9112
G1 X451.1548 Y235.0558
G1 X450.868 Y235.1675
G1 X450.5711 Y235.2462
G1 X450.2614 Y235.2893
G1 X449.9518 Y235.2995
G1 X449.6447 Y235.2716
G1 X449.3427 Y235.2107
G1 X449.0482 Y235.1167
G1 X448.7639 Y234.9873
G1 X448.5 Y234.8274
G1 X448.2563 Y234.6396
G1 X448.0355 Y234.4239
G1 X447.8376 Y234.1853
G1 X447.67 Y233.9213
G1 X447.533 Y233.6447
G1 X447.4315 Y233.3553
G1 X447.3604 Y233.0533
G1 X447.3249 Y232.7437
G1 X447.3249 Y232.4366
G1 X447.3604 Y232.1294
G1 X447.4315 Y231.8274
G1 X447.533 Y231.5355
G1 X447.67 Y231.2589
G1 X447.8376 Y230.9975
G1 X448.0355 Y230.7563
G1 X448.2563 Y230.5432
G1 X448.5 Y230.3528
G1 X448.7639 Y230.1954
G1 X449.0482 Y230.066
G1 X449.3427 Y229.9695
G1 X449.6447 Y229.9086
G1 X449.9518 Y229.8833
G1 X450.2614 Y229.8909
G1 X450.5711 Y229.934
G1 X450.868 Y230.0127
G1 X451.1548 Y230.1244
G0 Z10
(End Block_67)

(Start Block_68)
G0 X450.0972 Y232.4391
G1 Z-9 F800
G1 X450.1168 Y232.4492 F1500
G1 X450.132 Y232.4594
G1 X450.1472 Y232.4721
G1 X450.1573 Y232.4848
G1 X450.17 Y232.5
G1 X450.1802 Y232.5178
G1 X450.1853 Y232.533
G1 X450.1929 Y232.5533
G1 X450.1954 Y232.5736
G1 X450.1954 Y232.5914
G1 X450.1954 Y232.6091
G1 X450.1929 Y232.6294
G1 X450.1853 Y232.6472
G1 X450.1802 Y232.6624
G1 X450.17 Y232.6802
G1 X450.1573 Y232.698
G1 X450.1472 Y232.7081
G1 X450.132 Y232.7208
G1 X450.1168 Y232.731
G1 X450.0964 Y232.7411
G1 X450.0812 Y232.7487
G1 X450.066 Y232.7513
G1 X450.0432 Y232.7563
G1 X450.0254 Y232.7563
G1 X450.0051 Y232.7538
G1 X449.9873 Y232.7513
G1 X449.9721 Y232.7462
G1 X449.9518 Y232.736
G1 X449.9366 Y232.7284
G1 X449.9213 Y232.7157
G1 X449.9086 Y232.703
G1 X449.8985 Y232.6904
G1 X449.8858 Y232.67
G1 X449.8782 Y232.6548
G1 X449.8705 Y232.6371
G1 X449.868 Y232.6193
G1 X449.8655 Y232.599
G1 X449.8655 Y232.5812
G1 X449.868 Y232.5609
G1 X449.8705 Y232.5432
G1 X449.8782 Y232.5279
G1 X449.8858 Y232.5101
G1 X449.8985 Y232.4899
G1 X449.9086 Y232.4772
G1 X449.9213 Y232.4645
G1 X449.9366 Y232.4543
G1 X449.9518 Y232.4442
G1 X449.9721 Y232.4366
G1 X449.9873 Y232.4315
G1 X450.0051 Y232.4264
G1 X450.0254 Y232.4264
G1 X450.0432 Y232.4264
G1 X450.066 Y232.4289
G1 X450.0812 Y232.434
G1 X450.0964 Y232.4391
G1 X450.6261 Y231.2822 F1500
G1 X450.7741 Y231.3604 F1500
G1 X450.9086 Y231.4518
G1 X451.033 Y231.5584
G1 X451.1421 Y231.6802
G1 X451.2386 Y231.8122
G1 X451.3223 Y231.9568
G1 X451.3832 Y232.1066
G1 X451.4315 Y232.264
G1 X451.4594 Y232.4264
G1 X451.4695 Y232.5914
G1 X451.4594 Y232.7538
G1 X451.4315 Y232.9162
G1 X451.3832 Y233.0736
G1 X451.3223 Y233.2233
G1 X451.2386 Y233.368
G1 X451.1421 Y233.5025
G1 X451.033 Y233.6218
G1 X450.9086 Y233.7284
G1 X450.7741 Y233.8198
G1 X450.6269 Y233.8985
G1 X450.4746 Y233.9594
G1 X450.3173 Y234
G1 X450.1523 Y234.0228
G1 X449.9898 Y234.0279
G1 X449.8249 Y234.0127
G1 X449.665 Y233.9822
G1 X449.5102 Y233.9315
G1 X449.3579 Y233.8629
G1 X449.2183 Y233.7767
G1 X449.0888 Y233.6777
G1 X448.9721 Y233.5634
G1 X448.868 Y233.4366
G1 X448.7792 Y233.297
G1 X448.7056 Y233.1497
G1 X448.6497 Y232.9975
G1 X448.6142 Y232.835
G1 X448.5939 Y232.6726
G1 X448.5939 Y232.5101
G1 X448.6142 Y232.3452
G1 X448.6497 Y232.1853
G1 X448.7056 Y232.033
G1 X448.7792 Y231.8858
G1 X448.868 Y231.7437
G1 X448.9721 Y231.6167
G1 X449.0888 Y231.5025
G1 X449.2183 Y231.4035
G1 X449.3579 Y231.3198
G1 X449.5102 Y231.2513
G1 X449.665 Y231.2005
G1 X449.8249 Y231.1675
G1 X449.9898 Y231.1548
G1 X450.1523 Y231.1574
G1 X450.3173 Y231.1827
G1 X450.4746 Y231.2233
G1 X450.6269 Y231.2817
G1 X451.1553 Y230.1256 F1500
G1 X451.4315 Y230.2716 F1500
G1 X451.6853 Y230.4442
G1 X451.9188 Y230.6472
G1 X452.1269 Y230.8756
G1 X452.3096 Y231.1244
G1 X452.4619 Y231.3959
G1 X452.5838 Y231.6802
G1 X452.67 Y231.9772
G1 X452.7234 Y232.2817
G1 X452.7411 Y232.5914
G1 X452.7234 Y232.8985
G1 X452.67 Y233.2056
G1 X452.5838 Y233.5025
G1 X452.4619 Y233.7868
G1 X452.3096 Y234.0558
G1 X452.1269 Y234.3071
G1 X451.9188 Y234.533
G1 X451.6853 Y234.736
G1 X451.4315 Y234.9112
G1 X451.1548 Y235.0558
G1 X450.868 Y235.1675
G1 X450.5711 Y235.2462
G1 X450.2614 Y235.2893
G1 X449.9518 Y235.2995
G1 X449.6447 Y235.2716
G1 X449.3427 Y235.2107
G1 X449.0482 Y235.1167
G1 X448.7639 Y234.9873
G1 X448.5 Y234.8274
G1 X448.2563 Y234.6396
G1 X448.0355 Y234.4239
G1 X447.8376 Y234.1853
G1 X447.67 Y233.9213
G1 X447.533 Y233.6447
G1 X447.4315 Y233.3553
G1 X447.3604 Y233.0533
G1 X447.3249 Y232.7437
G1 X447.3249 Y232.4366
G1 X447.3604 Y232.1294
G1 X447.4315 Y231.8274
G1 X447.533 Y231.5355
G1 X447.67 Y231.2589
G1 X447.8376 Y230.9975
G1 X448.0355 Y230.7563
G1 X448.2563 Y230.5432
G1 X448.5 Y230.3528
G1 X448.7639 Y230.1954
G1 X449.0482 Y230.066
G1 X449.3427 Y229.9695
G1 X449.6447 Y229.9086
G1 X449.9518 Y229.8833
G1 X450.2614 Y229.8909
G1 X450.5711 Y229.934
G1 X450.868 Y230.0127
G1 X451.1548 Y230.1244
G0 Z10
(End Block_68)

(Start Block_69)
G0 X450.0972 Y232.4391
G1 Z-10 F800
G1 X450.1168 Y232.4492 F1500
G1 X450.132 Y232.4594
G1 X450.1472 Y232.4721
G1 X450.1573 Y232.4848
G1 X450.17 Y232.5
G1 X450.1802 Y232.5178
G1 X450.1853 Y232.533
G1 X450.1929 Y232.5533
G1 X450.1954 Y232.5736
G1 X450.1954 Y232.5914
G1 X450.1954 Y232.6091
G1 X450.1929 Y232.6294
G1 X450.1853 Y232.6472
G1 X450.1802 Y232.6624
G1 X450.17 Y232.6802
G1 X450.1573 Y232.698
G1 X450.1472 Y232.7081
G1 X450.132 Y232.7208
G1 X450.1168 Y232.731
G1 X450.0964 Y232.7411
G1 X450.0812 Y232.7487
G1 X450.066 Y232.7513
G1 X450.0432 Y232.7563
G1 X450.0254 Y232.7563
G1 X450.0051 Y232.7538
G1 X449.9873 Y232.7513
G1 X449.9721 Y232.7462
G1 X449.9518 Y232.736
G1 X449.9366 Y232.7284
G1 X449.9213 Y232.7157
G1 X449.9086 Y232.703
G1 X449.8985 Y232.6904
G1 X449.8858 Y232.67
G1 X449.8782 Y232.6548
G1 X449.8705 Y232.6371
G1 X449.868 Y232.6193
G1 X449.8655 Y232.599
G1 X449.8655 Y232.5812
G1 X449.868 Y232.5609
G1 X449.8705 Y232.5432
G1 X449.8782 Y232.5279
G1 X449.8858 Y232.5101
G1 X449.8985 Y232.4899
G1 X449.9086 Y232.4772
G1 X449.9213 Y232.4645
G1 X449.9366 Y232.4543
G1 X449.9518 Y232.4442
G1 X449.9721 Y232.4366
G1 X449.9873 Y232.4315
G1 X450.0051 Y232.4264
G1 X450.0254 Y232.4264
G1 X450.0432 Y232.4264
G1 X450.066 Y232.4289
G1 X450.0812 Y232.434
G1 X450.0964 Y232.4391
G1 X450.6261 Y231.2822 F1500
G1 X450.7741 Y231.3604 F1500
G1 X450.9086 Y231.4518
G1 X451.033 Y231.5584
G1 X451.1421 Y231.6802
G1 X451.2386 Y231.8122
G1 X451.3223 Y231.9568
G1 X451.3832 Y232.1066
G1 X451.4315 Y232.264
G1 X451.4594 Y232.4264
G1 X451.4695 Y232.5914
G1 X451.4594 Y232.7538
G1 X451.4315 Y232.9162
G1 X451.3832 Y233.0736
G1 X451.3223 Y233.2233
G1 X451.2386 Y233.368
G1 X451.1421 Y233.5025
G1 X451.033 Y233.6218
G1 X450.9086 Y233.7284
G1 X450.7741 Y233.8198
G1 X450.6269 Y233.8985
G1 X450.4746 Y233.9594
G1 X450.3173 Y234
G1 X450.1523 Y234.0228
G1 X449.9898 Y234.0279
G1 X449.8249 Y234.0127
G1 X449.665 Y233.9822
G1 X449.5102 Y233.9315
G1 X449.3579 Y233.8629
G1 X449.2183 Y233.7767
G1 X449.0888 Y233.6777
G1 X448.9721 Y233.5634
G1 X448.868 Y233.4366
G1 X448.7792 Y233.297
G1 X448.7056 Y233.1497
G1 X448.6497 Y232.9975
G1 X448.6142 Y232.835
G1 X448.5939 Y232.6726
G1 X448.5939 Y232.5101
G1 X448.6142 Y232.3452
G1 X448.6497 Y232.1853
G1 X448.7056 Y232.033
G1 X448.7792 Y231.8858
G1 X448.868 Y231.7437
G1 X448.9721 Y231.6167
G1 X449.0888 Y231.5025
G1 X449.2183 Y231.4035
G1 X449.3579 Y231.3198
G1 X449.5102 Y231.2513
G1 X449.665 Y231.2005
G1 X449.8249 Y231.1675
G1 X449.9898 Y231.1548
G1 X450.1523 Y231.1574
G1 X450.3173 Y231.1827
G1 X450.4746 Y231.2233
G1 X450.6269 Y231.2817
G1 X451.1553 Y230.1256 F1500
G1 X451.4315 Y230.2716 F1500
G1 X451.6853 Y230.4442
G1 X451.9188 Y230.6472
G1 X452.1269 Y230.8756
G1 X452.3096 Y231.1244
G1 X452.4619 Y231.3959
G1 X452.5838 Y231.6802
G1 X452.67 Y231.9772
G1 X452.7234 Y232.2817
G1 X452.7411 Y232.5914
G1 X452.7234 Y232.8985
G1 X452.67 Y233.2056
G1 X452.5838 Y233.5025
G1 X452.4619 Y233.7868
G1 X452.3096 Y234.0558
G1 X452.1269 Y234.3071
G1 X451.9188 Y234.533
G1 X451.6853 Y234.736
G1 X451.4315 Y234.9112
G1 X451.1548 Y235.0558
G1 X450.868 Y235.1675
G1 X450.5711 Y235.2462
G1 X450.2614 Y235.2893
G1 X449.9518 Y235.2995
G1 X449.6447 Y235.2716
G1 X449.3427 Y235.2107
G1 X449.0482 Y235.1167
G1 X448.7639 Y234.9873
G1 X448.5 Y234.8274
G1 X448.2563 Y234.6396
G1 X448.0355 Y234.4239
G1 X447.8376 Y234.1853
G1 X447.67 Y233.9213
G1 X447.533 Y233.6447
G1 X447.4315 Y233.3553
G1 X447.3604 Y233.0533
G1 X447.3249 Y232.7437
G1 X447.3249 Y232.4366
G1 X447.3604 Y232.1294
G1 X447.4315 Y231.8274
G1 X447.533 Y231.5355
G1 X447.67 Y231.2589
G1 X447.8376 Y230.9975
G1 X448.0355 Y230.7563
G1 X448.2563 Y230.5432
G1 X448.5 Y230.3528
G1 X448.7639 Y230.1954
G1 X449.0482 Y230.066
G1 X449.3427 Y229.9695
G1 X449.6447 Y229.9086
G1 X449.9518 Y229.8833
G1 X450.2614 Y229.8909
G1 X450.5711 Y229.934
G1 X450.868 Y230.0127
G1 X451.1548 Y230.1244
G0 Z10
(End Block_69)

(Start Block_70)
G0 X450.0972 Y25.1391
G1 Z-1.5 F800
G1 X450.1168 Y25.1498 F1500
G1 X450.132 Y25.1599
G1 X450.1472 Y25.1726
G1 X450.1573 Y25.1827
G1 X450.17 Y25.2005
G1 X450.1802 Y25.2183
G1 X450.1853 Y25.2335
G1 X450.1929 Y25.2538
G1 X450.1954 Y25.2716
G1 X450.1954 Y25.2919
G1 X450.1954 Y25.3096
G1 X450.1929 Y25.3274
G1 X450.1853 Y25.3477
G1 X450.1802 Y25.3629
G1 X450.17 Y25.3807
G1 X450.1573 Y25.3985
G1 X450.1472 Y25.4086
G1 X450.132 Y25.4213
G1 X450.1168 Y25.4315
G1 X450.0964 Y25.4416
G1 X450.0812 Y25.4492
G1 X450.066 Y25.4518
G1 X450.0432 Y25.4543
G1 X450.0254 Y25.4569
G1 X450.0051 Y25.4543
G1 X449.9873 Y25.4518
G1 X449.9721 Y25.4442
G1 X449.9518 Y25.4366
G1 X449.9366 Y25.4264
G1 X449.9213 Y25.4162
G1 X449.9086 Y25.4036
G1 X449.8985 Y25.3909
G1 X449.8858 Y25.3706
G1 X449.8782 Y25.3528
G1 X449.8705 Y25.3376
G1 X449.868 Y25.3198
G1 X449.8655 Y25.2995
G1 X449.8655 Y25.2817
G1 X449.868 Y25.2614
G1 X449.8705 Y25.2437
G1 X449.8782 Y25.2284
G1 X449.8858 Y25.2107
G1 X449.8985 Y25.1904
G1 X449.9086 Y25.1777
G1 X449.9213 Y25.165
G1 X449.9366 Y25.1548
G1 X449.9518 Y25.1447
G1 X449.9721 Y25.1371
G1 X449.9873 Y25.1294
G1 X450.0051 Y25.1269
G1 X450.0254 Y25.1244
G1 X450.0432 Y25.1269
G1 X450.066 Y25.1294
G1 X450.0812 Y25.132
G1 X450.0964 Y25.1396
G1 X450.6261 Y23.9822 F1500
G1 X450.7741 Y24.0609 F1500
G1 X450.9086 Y24.1523
G1 X451.033 Y24.2589
G1 X451.1421 Y24.3782
G1 X451.2386 Y24.5127
G1 X451.3223 Y24.6574
G1 X451.3832 Y24.8071
G1 X451.4315 Y24.9645
G1 X451.4594 Y25.1269
G1 X451.4695 Y25.2919
G1 X451.4594 Y25.4543
G1 X451.4315 Y25.6168
G1 X451.3832 Y25.7741
G1 X451.3223 Y25.9239
G1 X451.2386 Y26.0685
G1 X451.1421 Y26.203
G1 X451.033 Y26.3223
G1 X450.9086 Y26.4289
G1 X450.7741 Y26.5203
G1 X450.6269 Y26.599
G1 X450.4746 Y26.6574
G1 X450.3173 Y26.7005
G1 X450.1523 Y26.7234
G1 X449.9898 Y26.7284
G1 X449.8249 Y26.7132
G1 X449.665 Y26.6802
G1 X449.5102 Y26.6294
G1 X449.3579 Y26.5609
G1 X449.2183 Y26.4772
G1 X449.0888 Y26.3782
G1 X448.9721 Y26.264
G1 X448.868 Y26.1371
G1 X448.7792 Y25.9975
G1 X448.7056 Y25.8503
G1 X448.6497 Y25.6954
G1 X448.6142 Y25.5355
G1 X448.5939 Y25.3731
G1 X448.5939 Y25.2081
G1 X448.6142 Y25.0457
G1 X448.6497 Y24.8858
G1 X448.7056 Y24.731
G1 X448.7792 Y24.5838
G1 X448.868 Y24.4442
G1 X448.9721 Y24.3173
G1 X449.0888 Y24.203
G1 X449.2183 Y24.1041
G1 X449.3579 Y24.0203
G1 X449.5102 Y23.9518
G1 X449.665 Y23.901
G1 X449.8249 Y23.868
G1 X449.9898 Y23.8528
G1 X450.1523 Y23.8579
G1 X450.3173 Y23.8833
G1 X450.4746 Y23.9239
G1 X450.6269 Y23.9822
G1 X451.1553 Y22.8256 F1500
G1 X451.4315 Y22.9695 F1500
G1 X451.6853 Y23.1447
G1 X451.9188 Y23.3477
G1 X452.1269 Y23.5736
G1 X452.3096 Y23.8249
G1 X452.4619 Y24.0965
G1 X452.5838 Y24.3807
G1 X452.67 Y24.6777
G1 X452.7234 Y24.9822
G1 X452.7411 Y25.2919
G1 X452.7234 Y25.599
G1 X452.67 Y25.9036
G1 X452.5838 Y26.2005
G1 X452.4619 Y26.4848
G1 X452.3096 Y26.7564
G1 X452.1269 Y27.0076
G1 X451.9188 Y27.2335
G1 X451.6853 Y27.4366
G1 X451.4315 Y27.6117
G1 X451.1548 Y27.7564
G1 X450.868 Y27.868
G1 X450.5711 Y27.9467
G1 X450.2614 Y27.9899
G1 X449.9518 Y28
G1 X449.6447 Y27.9721
G1 X449.3427 Y27.9112
G1 X449.0482 Y27.8173
G1 X448.7639 Y27.6878
G1 X448.5 Y27.5279
G1 X448.2563 Y27.3401
G1 X448.0355 Y27.1244
G1 X447.8376 Y26.8833
G1 X447.67 Y26.6218
G1 X447.533 Y26.3452
G1 X447.4315 Y26.0533
G1 X447.3604 Y25.7538
G1 X447.3249 Y25.4442
G1 X447.3249 Y25.1371
G1 X447.3604 Y24.8274
G1 X447.4315 Y24.5279
G1 X447.533 Y24.236
G1 X447.67 Y23.9594
G1 X447.8376 Y23.698
G1 X448.0355 Y23.4569
G1 X448.2563 Y23.2437
G1 X448.5 Y23.0533
G1 X448.7639 Y22.8934
G1 X449.0482 Y22.7665
G1 X449.3427 Y22.6701
G1 X449.6447 Y22.6091
G1 X449.9518 Y22.5812
G1 X450.2614 Y22.5914
G1 X450.5711 Y22.6345
G1 X450.868 Y22.7132
G1 X451.1548 Y22.8249
G0 Z10
(End Block_70)

(Start Block_71)
G0 X450.0972 Y25.1391
G1 Z-3 F800
G1 X450.1168 Y25.1498 F1500
G1 X450.132 Y25.1599
G1 X450.1472 Y25.1726
G1 X450.1573 Y25.1827
G1 X450.17 Y25.2005
G1 X450.1802 Y25.2183
G1 X450.1853 Y25.2335
G1 X450.1929 Y25.2538
G1 X450.1954 Y25.2716
G1 X450.1954 Y25.2919
G1 X450.1954 Y25.3096
G1 X450.1929 Y25.3274
G1 X450.1853 Y25.3477
G1 X450.1802 Y25.3629
G1 X450.17 Y25.3807
G1 X450.1573 Y25.3985
G1 X450.1472 Y25.4086
G1 X450.132 Y25.4213
G1 X450.1168 Y25.4315
G1 X450.0964 Y25.4416
G1 X450.0812 Y25.4492
G1 X450.066 Y25.4518
G1 X450.0432 Y25.4543
G1 X450.0254 Y25.4569
G1 X450.0051 Y25.4543
G1 X449.9873 Y25.4518
G1 X449.9721 Y25.4442
G1 X449.9518 Y25.4366
G1 X449.9366 Y25.4264
G1 X449.9213 Y25.4162
G1 X449.9086 Y25.4036
G1 X449.8985 Y25.3909
G1 X449.8858 Y25.3706
G1 X449.8782 Y25.3528
G1 X449.8705 Y25.3376
G1 X449.868 Y25.3198
G1 X449.8655 Y25.2995
G1 X449.8655 Y25.2817
G1 X449.868 Y25.2614
G1 X449.8705 Y25.2437
G1 X449.8782 Y25.2284
G1 X449.8858 Y25.2107
G1 X449.8985 Y25.1904
G1 X449.9086 Y25.1777
G1 X449.9213 Y25.165
G1 X449.9366 Y25.1548
G1 X449.9518 Y25.1447
G1 X449.9721 Y25.1371
G1 X449.9873 Y25.1294
G1 X450.0051 Y25.1269
G1 X450.0254 Y25.1244
G1 X450.0432 Y25.1269
G1 X450.066 Y25.1294
G1 X450.0812 Y25.132
G1 X450.0964 Y25.1396
G1 X450.6261 Y23.9822 F1500
G1 X450.7741 Y24.0609 F1500
G1 X450.9086 Y24.1523
G1 X451.033 Y24.2589
G1 X451.1421 Y24.3782
G1 X451.2386 Y24.5127
G1 X451.3223 Y24.6574
G1 X451.3832 Y24.8071
G1 X451.4315 Y24.9645
G1 X451.4594 Y25.1269
G1 X451.4695 Y25.2919
G1 X451.4594 Y25.4543
G1 X451.4315 Y25.6168
G1 X451.3832 Y25.7741
G1 X451.3223 Y25.9239
G1 X451.2386 Y26.0685
G1 X451.1421 Y26.203
G1 X451.033 Y26.3223
G1 X450.9086 Y26.4289
G1 X450.7741 Y26.5203
G1 X450.6269 Y26.599
G1 X450.4746 Y26.6574
G1 X450.3173 Y26.7005
G1 X450.1523 Y26.7234
G1 X449.9898 Y26.7284
G1 X449.8249 Y26.7132
G1 X449.665 Y26.6802
G1 X449.5102 Y26.6294
G1 X449.3579 Y26.5609
G1 X449.2183 Y26.4772
G1 X449.0888 Y26.3782
G1 X448.9721 Y26.264
G1 X448.868 Y26.1371
G1 X448.7792 Y25.9975
G1 X448.7056 Y25.8503
G1 X448.6497 Y25.6954
G1 X448.6142 Y25.5355
G1 X448.5939 Y25.3731
G1 X448.5939 Y25.2081
G1 X448.6142 Y25.0457
G1 X448.6497 Y24.8858
G1 X448.7056 Y24.731
G1 X448.7792 Y24.5838
G1 X448.868 Y24.4442
G1 X448.9721 Y24.3173
G1 X449.0888 Y24.203
G1 X449.2183 Y24.1041
G1 X449.3579 Y24.0203
G1 X449.5102 Y23.9518
G1 X449.665 Y23.901
G1 X449.8249 Y23.868
G1 X449.9898 Y23.8528
G1 X450.1523 Y23.8579
G1 X450.3173 Y23.8833
G1 X450.4746 Y23.9239
G1 X450.6269 Y23.9822
G1 X451.1553 Y22.8256 F1500
G1 X451.4315 Y22.9695 F1500
G1 X451.6853 Y23.1447
G1 X451.9188 Y23.3477
G1 X452.1269 Y23.5736
G1 X452.3096 Y23.8249
G1 X452.4619 Y24.0965
G1 X452.5838 Y24.3807
G1 X452.67 Y24.6777
G1 X452.7234 Y24.9822
G1 X452.7411 Y25.2919
G1 X452.7234 Y25.599
G1 X452.67 Y25.9036
G1 X452.5838 Y26.2005
G1 X452.4619 Y26.4848
G1 X452.3096 Y26.7564
G1 X452.1269 Y27.0076
G1 X451.9188 Y27.2335
G1 X451.6853 Y27.4366
G1 X451.4315 Y27.6117
G1 X451.1548 Y27.7564
G1 X450.868 Y27.868
G1 X450.5711 Y27.9467
G1 X450.2614 Y27.9899
G1 X449.9518 Y28
G1 X449.6447 Y27.9721
G1 X449.3427 Y27.9112
G1 X449.0482 Y27.8173
G1 X448.7639 Y27.6878
G1 X448.5 Y27.5279
G1 X448.2563 Y27.3401
G1 X448.0355 Y27.1244
G1 X447.8376 Y26.8833
G1 X447.67 Y26.6218
G1 X447.533 Y26.3452
G1 X447.4315 Y26.0533
G1 X447.3604 Y25.7538
G1 X447.3249 Y25.4442
G1 X447.3249 Y25.1371
G1 X447.3604 Y24.8274
G1 X447.4315 Y24.5279
G1 X447.533 Y24.236
G1 X447.67 Y23.9594
G1 X447.8376 Y23.698
G1 X448.0355 Y23.4569
G1 X448.2563 Y23.2437
G1 X448.5 Y23.0533
G1 X448.7639 Y22.8934
G1 X449.0482 Y22.7665
G1 X449.3427 Y22.6701
G1 X449.6447 Y22.6091
G1 X449.9518 Y22.5812
G1 X450.2614 Y22.5914
G1 X450.5711 Y22.6345
G1 X450.868 Y22.7132
G1 X451.1548 Y22.8249
G0 Z10
(End Block_71)

(Start Block_72)
G0 X450.0972 Y25.1391
G1 Z-4.5 F800
G1 X450.1168 Y25.1498 F1500
G1 X450.132 Y25.1599
G1 X450.1472 Y25.1726
G1 X450.1573 Y25.1827
G1 X450.17 Y25.2005
G1 X450.1802 Y25.2183
G1 X450.1853 Y25.2335
G1 X450.1929 Y25.2538
G1 X450.1954 Y25.2716
G1 X450.1954 Y25.2919
G1 X450.1954 Y25.3096
G1 X450.1929 Y25.3274
G1 X450.1853 Y25.3477
G1 X450.1802 Y25.3629
G1 X450.17 Y25.3807
G1 X450.1573 Y25.3985
G1 X450.1472 Y25.4086
G1 X450.132 Y25.4213
G1 X450.1168 Y25.4315
G1 X450.0964 Y25.4416
G1 X450.0812 Y25.4492
G1 X450.066 Y25.4518
G1 X450.0432 Y25.4543
G1 X450.0254 Y25.4569
G1 X450.0051 Y25.4543
G1 X449.9873 Y25.4518
G1 X449.9721 Y25.4442
G1 X449.9518 Y25.4366
G1 X449.9366 Y25.4264
G1 X449.9213 Y25.4162
G1 X449.9086 Y25.4036
G1 X449.8985 Y25.3909
G1 X449.8858 Y25.3706
G1 X449.8782 Y25.3528
G1 X449.8705 Y25.3376
G1 X449.868 Y25.3198
G1 X449.8655 Y25.2995
G1 X449.8655 Y25.2817
G1 X449.868 Y25.2614
G1 X449.8705 Y25.2437
G1 X449.8782 Y25.2284
G1 X449.8858 Y25.2107
G1 X449.8985 Y25.1904
G1 X449.9086 Y25.1777
G1 X449.9213 Y25.165
G1 X449.9366 Y25.1548
G1 X449.9518 Y25.1447
G1 X449.9721 Y25.1371
G1 X449.9873 Y25.1294
G1 X450.0051 Y25.1269
G1 X450.0254 Y25.1244
G1 X450.0432 Y25.1269
G1 X450.066 Y25.1294
G1 X450.0812 Y25.132
G1 X450.0964 Y25.1396
G1 X450.6261 Y23.9822 F1500
G1 X450.7741 Y24.0609 F1500
G1 X450.9086 Y24.1523
G1 X451.033 Y24.2589
G1 X451.1421 Y24.3782
G1 X451.2386 Y24.5127
G1 X451.3223 Y24.6574
G1 X451.3832 Y24.8071
G1 X451.4315 Y24.9645
G1 X451.4594 Y25.1269
G1 X451.4695 Y25.2919
G1 X451.4594 Y25.4543
G1 X451.4315 Y25.6168
G1 X451.3832 Y25.7741
G1 X451.3223 Y25.9239
