(File built with GCodeTools)
(Generated on 12.08.2017 12.39.08)

(Header)
G90 (set absolute distance mode)
G17 (set active plane to XY)
G40 (turn cutter compensation off)
G21 (set units to mm)
G0 Z2
M3 S4000 (start the spindle clockwise at the S speed)
(Header end.)

G0 X315 Y75
G1 Z-0.1 F228.6
G0 Z2

G0 X335 Y75
G1 Z-0.1 F228.6
G0 Z2

G0 X335 Y95
G1 Z-0.1 F228.6
G0 Z2

G0 X355 Y95
G1 Z-0.1 F228.6
G0 Z2

G0 X355 Y75
G1 Z-0.1 F228.6
G0 Z2

G0 X355 Y55
G1 Z-0.1 F228.6
G0 Z2

G0 X335 Y55
G1 Z-0.1 F228.6
G0 Z2

G0 X335 Y35
G1 Z-0.1 F228.6
G0 Z2

G0 X355 Y35
G1 Z-0.1 F228.6
G0 Z2

G0 X355 Y15
G1 Z-0.1 F228.6
G0 Z2

G0 X335 Y15
G1 Z-0.1 F228.6
G0 Z2

G0 X315 Y15
G1 Z-0.1 F228.6
G0 Z2

G0 X315 Y35
G1 Z-0.1 F228.6
G0 Z2

G0 X315 Y55
G1 Z-0.1 F228.6
G0 Z2

G0 X295 Y55
G1 Z-0.1 F228.6
G0 Z2

G0 X275 Y55
G1 Z-0.1 F228.6
G0 Z2

G0 X275 Y35
G1 Z-0.1 F228.6
G0 Z2

G0 X295 Y35
G1 Z-0.1 F228.6
G0 Z2

G0 X295 Y15
G1 Z-0.1 F228.6
G0 Z2

G0 X275 Y15
G1 Z-0.1 F228.6
G0 Z2

G0 X255 Y15
G1 Z-0.1 F228.6
G0 Z2

G0 X235 Y15
G1 Z-0.1 F228.6
G0 Z2

G0 X235 Y35
G1 Z-0.1 F228.6
G0 Z2

G0 X255 Y35
G1 Z-0.1 F228.6
G0 Z2

G0 X255 Y55
G1 Z-0.1 F228.6
G0 Z2

G0 X255 Y75
G1 Z-0.1 F228.6
G0 Z2

G0 X275 Y75
G1 Z-0.1 F228.6
G0 Z2

G0 X275 Y95
G1 Z-0.1 F228.6
G0 Z2

G0 X275 Y115
G1 Z-0.1 F228.6
G0 Z2

G0 X275 Y135
G1 Z-0.1 F228.6
G0 Z2

G0 X295 Y135
G1 Z-0.1 F228.6
G0 Z2

G0 X295 Y155
G1 Z-0.1 F228.6
G0 Z2

G0 X275 Y155
G1 Z-0.1 F228.6
G0 Z2

G0 X255 Y155
G1 Z-0.1 F228.6
G0 Z2

G0 X255 Y135
G1 Z-0.1 F228.6
G0 Z2

G0 X255 Y115
G1 Z-0.1 F228.6
G0 Z2

G0 X255 Y95
G1 Z-0.1 F228.6
G0 Z2

G0 X235 Y95
G1 Z-0.1 F228.6
G0 Z2

G0 X235 Y115
G1 Z-0.1 F228.6
G0 Z2

G0 X235 Y135
G1 Z-0.1 F228.6
G0 Z2

G0 X235 Y155
G1 Z-0.1 F228.6
G0 Z2

G0 X235 Y175
G1 Z-0.1 F228.6
G0 Z2

G0 X235 Y195
G1 Z-0.1 F228.6
G0 Z2

G0 X215 Y195
G1 Z-0.1 F228.6
G0 Z2

G0 X215 Y175
G1 Z-0.1 F228.6
G0 Z2

G0 X195 Y175
G1 Z-0.1 F228.6
G0 Z2

G0 X195 Y195
G1 Z-0.1 F228.6
G0 Z2

G0 X175 Y175
G1 Z-0.1 F228.6
G0 Z2

G0 X175 Y155
G1 Z-0.1 F228.6
G0 Z2

G0 X195 Y155
G1 Z-0.1 F228.6
G0 Z2

G0 X215 Y155
G1 Z-0.1 F228.6
G0 Z2

G0 X215 Y135
G1 Z-0.1 F228.6
G0 Z2

G0 X195 Y135
G1 Z-0.1 F228.6
G0 Z2

G0 X175 Y135
G1 Z-0.1 F228.6
G0 Z2

G0 X175 Y115
G1 Z-0.1 F228.6
G0 Z2

G0 X195 Y115
G1 Z-0.1 F228.6
G0 Z2

G0 X215 Y115
G1 Z-0.1 F228.6
G0 Z2

G0 X215 Y95
G1 Z-0.1 F228.6
G0 Z2

G0 X215 Y75
G1 Z-0.1 F228.6
G0 Z2

G0 X235 Y75
G1 Z-0.1 F228.6
G0 Z2

G0 X235 Y55
G1 Z-0.1 F228.6
G0 Z2

G0 X215 Y55
G1 Z-0.1 F228.6
G0 Z2

G0 X215 Y35
G1 Z-0.1 F228.6
G0 Z2

G0 X215 Y15
G1 Z-0.1 F228.6
G0 Z2

G0 X195 Y15
G1 Z-0.1 F228.6
G0 Z2

G0 X195 Y35
G1 Z-0.1 F228.6
G0 Z2

G0 X195 Y55
G1 Z-0.1 F228.6
G0 Z2

G0 X175 Y55
G1 Z-0.1 F228.6
G0 Z2

G0 X175 Y75
G1 Z-0.1 F228.6
G0 Z2

G0 X195 Y75
G1 Z-0.1 F228.6
G0 Z2

G0 X195 Y95
G1 Z-0.1 F228.6
G0 Z2

G0 X175 Y95
G1 Z-0.1 F228.6
G0 Z2

G0 X155 Y95
G1 Z-0.1 F228.6
G0 Z2

G0 X135 Y95
G1 Z-0.1 F228.6
G0 Z2

G0 X135 Y75
G1 Z-0.1 F228.6
G0 Z2

G0 X155 Y75
G1 Z-0.1 F228.6
G0 Z2

G0 X155 Y55
G1 Z-0.1 F228.6
G0 Z2

G0 X135 Y55
G1 Z-0.1 F228.6
G0 Z2

G0 X115 Y55
G1 Z-0.1 F228.6
G0 Z2

G0 X115 Y35
G1 Z-0.1 F228.6
G0 Z2

G0 X135 Y35
G1 Z-0.1 F228.6
G0 Z2

G0 X155 Y35
G1 Z-0.1 F228.6
G0 Z2

G0 X175 Y35
G1 Z-0.1 F228.6
G0 Z2

G0 X175 Y15
G1 Z-0.1 F228.6
G0 Z2

G0 X155 Y15
G1 Z-0.1 F228.6
G0 Z2

G0 X135 Y15
G1 Z-0.1 F228.6
G0 Z2

G0 X115 Y15
G1 Z-0.1 F228.6
G0 Z2

G0 X95 Y15
G1 Z-0.1 F228.6
G0 Z2

G0 X75 Y15
G1 Z-0.1 F228.6
G0 Z2

G0 X55 Y15
G1 Z-0.1 F228.6
G0 Z2

G0 X55 Y35
G1 Z-0.1 F228.6
G0 Z2

G0 X55 Y55
G1 Z-0.1 F228.6
G0 Z2

G0 X55 Y75
G1 Z-0.1 F228.6
G0 Z2

G0 X55 Y95
G1 Z-0.1 F228.6
G0 Z2

G0 X55 Y115
G1 Z-0.1 F228.6
G0 Z2

G0 X55 Y135
G1 Z-0.1 F228.6
G0 Z2

G0 X55 Y155
G1 Z-0.1 F228.6
G0 Z2

G0 X55 Y175
G1 Z-0.1 F228.6
G0 Z2

G0 X55 Y195
G1 Z-0.1 F228.6
G0 Z2

G0 X55 Y215
G1 Z-0.1 F228.6
G0 Z2

G0 X75 Y215
G1 Z-0.1 F228.6
G0 Z2

G0 X75 Y195
G1 Z-0.1 F228.6
G0 Z2

G0 X95 Y195
G1 Z-0.1 F228.6
G0 Z2

G0 X95 Y215
G1 Z-0.1 F228.6
G0 Z2

G0 X115 Y215
G1 Z-0.1 F228.6
G0 Z2

G0 X115 Y195
G1 Z-0.1 F228.6
G0 Z2

G0 X115 Y175
G1 Z-0.1 F228.6
G0 Z2

G0 X115 Y155
G1 Z-0.1 F228.6
G0 Z2

G0 X135 Y155
G1 Z-0.1 F228.6
G0 Z2

G0 X135 Y135
G1 Z-0.1 F228.6
G0 Z2

G0 X115 Y135
G1 Z-0.1 F228.6
G0 Z2

G0 X95 Y135
G1 Z-0.1 F228.6
G0 Z2

G0 X95 Y155
G1 Z-0.1 F228.6
G0 Z2

G0 X95 Y175
G1 Z-0.1 F228.6
G0 Z2

G0 X75 Y175
G1 Z-0.1 F228.6
G0 Z2

G0 X75 Y155
G1 Z-0.1 F228.6
G0 Z2

G0 X75 Y135
G1 Z-0.1 F228.6
G0 Z2

G0 X75 Y115
G1 Z-0.1 F228.6
G0 Z2

G0 X95 Y115
G1 Z-0.1 F228.6
G0 Z2

G0 X95 Y95
G1 Z-0.1 F228.6
G0 Z2

G0 X75 Y95
G1 Z-0.1 F228.6
G0 Z2

G0 X75 Y75
G1 Z-0.1 F228.6
G0 Z2

G0 X75 Y55
G1 Z-0.1 F228.6
G0 Z2

G0 X75 Y35
G1 Z-0.1 F228.6
G0 Z2

G0 X95 Y35
G1 Z-0.1 F228.6
G0 Z2

G0 X95 Y55
G1 Z-0.1 F228.6
G0 Z2

G0 X95 Y75
G1 Z-0.1 F228.6
G0 Z2

G0 X115 Y75
G1 Z-0.1 F228.6
G0 Z2

G0 X115 Y95
G1 Z-0.1 F228.6
G0 Z2

G0 X115 Y115
G1 Z-0.1 F228.6
G0 Z2

G0 X135 Y115
G1 Z-0.1 F228.6
G0 Z2

G0 X155 Y115
G1 Z-0.1 F228.6
G0 Z2

G0 X155 Y135
G1 Z-0.1 F228.6
G0 Z2

G0 X155 Y155
G1 Z-0.1 F228.6
G0 Z2

G0 X155 Y175
G1 Z-0.1 F228.6
G0 Z2

G0 X135 Y175
G1 Z-0.1 F228.6
G0 Z2

G0 X135 Y195
G1 Z-0.1 F228.6
G0 Z2

G0 X135 Y215
G1 Z-0.1 F228.6
G0 Z2

G0 X155 Y215
G1 Z-0.1 F228.6
G0 Z2

G0 X155 Y195
G1 Z-0.1 F228.6
G0 Z2

G0 X175 Y195
G1 Z-0.1 F228.6
G0 Z2

G0 X175 Y215
G1 Z-0.1 F228.6
G0 Z2

G0 X195 Y215
G1 Z-0.1 F228.6
G0 Z2

G0 X215 Y215
G1 Z-0.1 F228.6
G0 Z2

G0 X235 Y215
G1 Z-0.1 F228.6
G0 Z2

G0 X255 Y215
G1 Z-0.1 F228.6
G0 Z2

G0 X275 Y215
G1 Z-0.1 F228.6
G0 Z2

G0 X295 Y215
G1 Z-0.1 F228.6
G0 Z2

G0 X315 Y215
G1 Z-0.1 F228.6
G0 Z2

G0 X315 Y195
G1 Z-0.1 F228.6
G0 Z2

G0 X295 Y195
G1 Z-0.1 F228.6
G0 Z2

G0 X275 Y195
G1 Z-0.1 F228.6
G0 Z2

G0 X255 Y195
G1 Z-0.1 F228.6
G0 Z2

G0 X255 Y175
G1 Z-0.1 F228.6
G0 Z2

G0 X275 Y175
G1 Z-0.1 F228.6
G0 Z2

G0 X295 Y175
G1 Z-0.1 F228.6
G0 Z2

G0 X315 Y175
G1 Z-0.1 F228.6
G0 Z2

G0 X315 Y155
G1 Z-0.1 F228.6
G0 Z2

G0 X315 Y135
G1 Z-0.1 F228.6
G0 Z2

G0 X335 Y135
G1 Z-0.1 F228.6
G0 Z2

G0 X335 Y155
G1 Z-0.1 F228.6
G0 Z2

G0 X335 Y175
G1 Z-0.1 F228.6
G0 Z2

G0 X335 Y195
G1 Z-0.1 F228.6
G0 Z2

G0 X335 Y215
G1 Z-0.1 F228.6
G0 Z2

G0 X355 Y215
G1 Z-0.1 F228.6
G0 Z2

G0 X355 Y195
G1 Z-0.1 F228.6
G0 Z2

G0 X355 Y175
G1 Z-0.1 F228.6
G0 Z2

G0 X355 Y155
G1 Z-0.1 F228.6
G0 Z2

G0 X355 Y135
G1 Z-0.1 F228.6
G0 Z2

G0 X355 Y115
G1 Z-0.1 F228.6
G0 Z2

G0 X335 Y115
G1 Z-0.1 F228.6
G0 Z2

G0 X315 Y115
G1 Z-0.1 F228.6
G0 Z2

G0 X295 Y115
G1 Z-0.1 F228.6
G0 Z2

G0 X315 Y95
G1 Z-0.1 F228.6
G0 Z2

G0 X295 Y95
G1 Z-0.1 F228.6
G0 Z2

G0 X295 Y75
G1 Z-0.1 F228.6
G0 Z2

(Footer)
M5 (stop the spindle)
(Footer end.)

