(Generated by PartKam Version 0.05)

G21 G90 G40

(Holes)
G0 Z10
T0 M6
G17
M3
G0 X450.0972081218274 Y232.43908629441626
G1 Z-1.5 F800
G1 X450.11675126903555 Y232.4492385786802 F1500
G1 X450.1319796954315 Y232.45939086294416
G1 X450.14720812182736 Y232.47208121827413
G1 X450.15736040609136 Y232.48477157360406
G1 X450.17005076142135 Y232.5
G1 X450.1802030456853 Y232.51776649746193
G1 X450.1852791878173 Y232.53299492385787
G1 X450.1928934010152 Y232.5532994923858
G1 X450.1954314720813 Y232.57360406091368
G1 X450.1954314720813 Y232.59137055837562
G1 X450.1954314720813 Y232.60913705583758
G1 X450.1928934010152 Y232.62944162436548
G1 X450.1852791878173 Y232.64720812182742
G1 X450.1802030456853 Y232.66243654822335
G1 X450.17005076142135 Y232.68020304568526
G1 X450.15736040609136 Y232.69796954314722
G1 X450.14720812182736 Y232.70812182741116
G1 X450.1319796954315 Y232.7208121827411
G1 X450.11675126903555 Y232.73096446700507
G1 X450.0964467005076 Y232.74111675126903
G1 X450.0812182741117 Y232.748730964467
G1 X450.06598984771574 Y232.751269035533
G1 X450.0431472081218 Y232.75634517766497
G1 X450.02538071065993 Y232.75634517766497
G1 X450.005076142132 Y232.753807106599
G1 X449.98730964467006 Y232.751269035533
G1 X449.9720812182741 Y232.74619289340103
G1 X449.9517766497462 Y232.73604060913704
G1 X449.93654822335026 Y232.72842639593907
G1 X449.9213197969543 Y232.71573604060916
G1 X449.9086294416244 Y232.7030456852792
G1 X449.8984771573604 Y232.69035532994923
G1 X449.88578680203045 Y232.67005076142135
G1 X449.87817258883246 Y232.6548223350254
G1 X449.8705583756345 Y232.63705583756345
G1 X449.8680203045685 Y232.61928934010155
G1 X449.8654822335026 Y232.5989847715736
G1 X449.8654822335026 Y232.58121827411168
G1 X449.8680203045685 Y232.56091370558377
G1 X449.8705583756345 Y232.5431472081218
G1 X449.87817258883246 Y232.52791878172587
G1 X449.88578680203045 Y232.51015228426397
G1 X449.8984771573604 Y232.48984771573603
G1 X449.9086294416244 Y232.47715736040607
G1 X449.9213197969543 Y232.46446700507616
G1 X449.93654822335026 Y232.4543147208122
G1 X449.9517766497462 Y232.44416243654823
G1 X449.9720812182741 Y232.43654822335026
G1 X449.98730964467006 Y232.43147208121826
G1 X450.005076142132 Y232.42639593908632
G1 X450.02538071065993 Y232.42639593908632
G1 X450.0431472081218 Y232.42639593908632
G1 X450.06598984771574 Y232.42893401015226
G1 X450.0812182741117 Y232.43401015228426
G1 X450.0964467005076 Y232.43908629441623
G1 X450.6261421319797 Y231.28223350253808 F1500
G1 X450.77411167512696 Y231.36040609137055 F1500
G1 X450.9086294416244 Y231.4517766497462
G1 X451.03299492385787 Y231.55837563451774
G1 X451.1421319796954 Y231.6802030456853
G1 X451.23857868020303 Y231.81218274111674
G1 X451.3223350253807 Y231.95685279187816
G1 X451.38324873096445 Y232.10659898477158
G1 X451.43147208121826 Y232.26395939086296
G1 X451.4593908629442 Y232.42639593908632
G1 X451.4695431472081 Y232.59137055837562
G1 X451.4593908629442 Y232.753807106599
G1 X451.43147208121826 Y232.91624365482235
G1 X451.38324873096445 Y233.07360406091368
G1 X451.3223350253807 Y233.2233502538071
G1 X451.23857868020303 Y233.36802030456852
G1 X451.1421319796954 Y233.502538071066
G1 X451.03299492385787 Y233.62182741116752
G1 X450.9086294416244 Y233.7284263959391
G1 X450.77411167512696 Y233.8197969543147
G1 X450.6269035532995 Y233.8984771573604
G1 X450.4746192893401 Y233.95939086294416
G1 X450.3172588832487 Y234
G1 X450.15228426395936 Y234.0228426395939
G1 X449.989847715736 Y234.0279187817259
G1 X449.8248730964467 Y234.01269035532994
G1 X449.6649746192893 Y233.98223350253807
G1 X449.51015228426394 Y233.9314720812183
G1 X449.3578680203046 Y233.86294416243655
G1 X449.2182741116751 Y233.7766497461929
G1 X449.0888324873097 Y233.6776649746193
G1 X448.9720812182741 Y233.56345177664974
G1 X448.8680203045686 Y233.43654822335026
G1 X448.7791878172589 Y233.29695431472084
G1 X448.70558375634516 Y233.14974619289342
G1 X448.6497461928934 Y232.997461928934
G1 X448.61421319796955 Y232.83502538071065
G1 X448.5939086294416 Y232.6725888324873
G1 X448.5939086294416 Y232.51015228426397
G1 X448.61421319796955 Y232.3451776649746
G1 X448.6497461928934 Y232.18527918781723
G1 X448.70558375634516 Y232.03299492385787
G1 X448.7791878172589 Y231.88578680203048
G1 X448.8680203045686 Y231.743654822335
G1 X448.9720812182741 Y231.61675126903555
G1 X449.0888324873097 Y231.50253807106597
G1 X449.2182741116751 Y231.4035532994924
G1 X449.3578680203046 Y231.3197969543147
G1 X449.51015228426394 Y231.25126903553297
G1 X449.6649746192893 Y231.20050761421322
G1 X449.8248730964467 Y231.16751269035532
G1 X449.989847715736 Y231.15482233502536
G1 X450.15228426395936 Y231.15736040609136
G1 X450.3172588832487 Y231.1827411167513
G1 X450.4746192893401 Y231.2233502538071
G1 X450.6269035532995 Y231.28172588832487
G1 X451.1553299492386 Y230.12563451776649 F1500
G1 X451.43147208121826 Y230.2715736040609 F1500
G1 X451.6852791878173 Y230.44416243654823
G1 X451.91878172588827 Y230.64720812182742
G1 X452.1269035532995 Y230.87563451776649
G1 X452.3096446700507 Y231.1243654822335
G1 X452.4619289340102 Y231.39593908629445
G1 X452.5837563451777 Y231.6802030456853
G1 X452.67005076142135 Y231.9771573604061
G1 X452.7233502538071 Y232.28172588832484
G1 X452.74111675126903 Y232.59137055837562
G1 X452.7233502538071 Y232.89847715736042
G1 X452.67005076142135 Y233.2055837563452
G1 X452.5837563451777 Y233.502538071066
G1 X452.4619289340102 Y233.78680203045687
G1 X452.3096446700507 Y234.05583756345177
G1 X452.1269035532995 Y234.30710659898477
G1 X451.91878172588827 Y234.53299492385787
G1 X451.6852791878173 Y234.73604060913704
G1 X451.43147208121826 Y234.91116751269035
G1 X451.1548223350254 Y235.05583756345177
G1 X450.8680203045685 Y235.16751269035535
G1 X450.57106598984774 Y235.24619289340103
G1 X450.26142131979697 Y235.28934010152284
G1 X449.9517766497462 Y235.2994923857868
G1 X449.6446700507614 Y235.2715736040609
G1 X449.34263959390864 Y235.21065989847716
G1 X449.0482233502538 Y235.11675126903555
G1 X448.76395939086296 Y234.98730964467003
G1 X448.5 Y234.8274111675127
G1 X448.25634517766497 Y234.63959390862942
G1 X448.03553299492387 Y234.42385786802032
G1 X447.83756345177665 Y234.1852791878173
G1 X447.67005076142135 Y233.92131979695432
G1 X447.53299492385787 Y233.64467005076142
G1 X447.43147208121826 Y233.35532994923858
G1 X447.3604060913706 Y233.0532994923858
G1 X447.3248730964467 Y232.74365482233503
G1 X447.3248730964467 Y232.43654822335026
G1 X447.3604060913706 Y232.12944162436548
G1 X447.43147208121826 Y231.8274111675127
G1 X447.53299492385787 Y231.53553299492387
G1 X447.67005076142135 Y231.25888324873097
G1 X447.83756345177665 Y230.99746192893403
G1 X448.03553299492387 Y230.756345177665
G1 X448.25634517766497 Y230.54314720812184
G1 X448.5 Y230.35279187817258
G1 X448.76395939086296 Y230.19543147208122
G1 X449.0482233502538 Y230.06598984771574
G1 X449.34263959390864 Y229.96954314720813
G1 X449.6446700507614 Y229.90862944162438
G1 X449.9517766497462 Y229.88324873096445
G1 X450.26142131979697 Y229.89086294416242
G1 X450.57106598984774 Y229.93401015228426
G1 X450.8680203045685 Y230.01269035532997
G1 X451.1548223350254 Y230.1243654822335
G0 Z10
G0 X450.0972081218274 Y25.139086294416245
G1 Z-1.5 F800
G1 X450.11675126903555 Y25.149746192893403 F1500
G1 X450.1319796954315 Y25.159898477157363
G1 X450.14720812182736 Y25.17258883248731
G1 X450.15736040609136 Y25.182741116751266
G1 X450.17005076142135 Y25.200507614213198
G1 X450.1802030456853 Y25.218274111675125
G1 X450.1852791878173 Y25.233502538071065
G1 X450.1928934010152 Y25.253807106598988
G1 X450.1954314720813 Y25.271573604060915
G1 X450.1954314720813 Y25.29187817258883
G1 X450.1954314720813 Y25.30964467005076
G1 X450.1928934010152 Y25.327411167512693
G1 X450.1852791878173 Y25.34771573604061
G1 X450.1802030456853 Y25.36294416243655
G1 X450.17005076142135 Y25.380710659898476
G1 X450.15736040609136 Y25.398477157360407
G1 X450.14720812182736 Y25.408629441624363
G1 X450.1319796954315 Y25.421319796954315
G1 X450.11675126903555 Y25.431472081218274
G1 X450.0964467005076 Y25.441624365482234
G1 X450.0812182741117 Y25.449238578680205
G1 X450.06598984771574 Y25.451776649746193
G1 X450.0431472081218 Y25.454314720812185
G1 X450.02538071065993 Y25.45685279187817
G1 X450.005076142132 Y25.454314720812185
G1 X449.98730964467006 Y25.451776649746193
G1 X449.9720812182741 Y25.444162436548226
G1 X449.9517766497462 Y25.436548223350254
G1 X449.93654822335026 Y25.42639593908629
G1 X449.9213197969543 Y25.416243654822335
G1 X449.9086294416244 Y25.403553299492387
G1 X449.8984771573604 Y25.390862944162436
G1 X449.88578680203045 Y25.37055837563452
G1 X449.87817258883246 Y25.35279187817259
G1 X449.8705583756345 Y25.33756345177665
G1 X449.8680203045685 Y25.31979695431472
G1 X449.8654822335026 Y25.299492385786802
G1 X449.8654822335026 Y25.28172588832487
G1 X449.8680203045685 Y25.261421319796952
G1 X449.8705583756345 Y25.243654822335024
G1 X449.87817258883246 Y25.22842639593909
G1 X449.88578680203045 Y25.21065989847716
G1 X449.8984771573604 Y25.190355329949238
G1 X449.9086294416244 Y25.17766497461929
G1 X449.9213197969543 Y25.16497461928934
G1 X449.93654822335026 Y25.154822335025383
G1 X449.9517766497462 Y25.14467005076142
G1 X449.9720812182741 Y25.13705583756345
G1 X449.98730964467006 Y25.129441624365484
G1 X450.005076142132 Y25.126903553299492
G1 X450.02538071065993 Y25.124365482233504
G1 X450.0431472081218 Y25.126903553299492
G1 X450.06598984771574 Y25.129441624365484
G1 X450.0812182741117 Y25.13197969543147
G1 X450.0964467005076 Y25.13959390862944
G1 X450.6261421319797 Y23.982233502538072 F1500
G1 X450.77411167512696 Y24.060913705583754 F1500
G1 X450.9086294416244 Y24.152284263959388
G1 X451.03299492385787 Y24.258883248730964
G1 X451.1421319796954 Y24.378172588832484
G1 X451.23857868020303 Y24.51269035532995
G1 X451.3223350253807 Y24.65736040609137
G1 X451.38324873096445 Y24.80710659898477
G1 X451.43147208121826 Y24.964467005076145
G1 X451.4593908629442 Y25.126903553299492
G1 X451.4695431472081 Y25.29187817258883
G1 X451.4593908629442 Y25.454314720812185
G1 X451.43147208121826 Y25.616751269035532
G1 X451.38324873096445 Y25.774111675126903
G1 X451.3223350253807 Y25.923857868020303
G1 X451.23857868020303 Y26.068527918781726
G1 X451.1421319796954 Y26.20304568527919
G1 X451.03299492385787 Y26.32233502538071
G1 X450.9086294416244 Y26.428934010152286
G1 X450.77411167512696 Y26.52030456852792
G1 X450.6269035532995 Y26.598984771573605
G1 X450.4746192893401 Y26.65736040609137
G1 X450.3172588832487 Y26.700507614213194
G1 X450.15228426395936 Y26.72335025380711
G1 X449.989847715736 Y26.72842639593909
G1 X449.8248730964467 Y26.713197969543145
G1 X449.6649746192893 Y26.680203045685282
G1 X449.51015228426394 Y26.629441624365484
G1 X449.3578680203046 Y26.560913705583754
G1 X449.2182741116751 Y26.477157360406093
G1 X449.0888324873097 Y26.378172588832488
G1 X448.9720812182741 Y26.263959390862944
G1 X448.8680203045686 Y26.13705583756345
G1 X448.7791878172589 Y25.99746192893401
G1 X448.70558375634516 Y25.850253807106597
G1 X448.6497461928934 Y25.69543147208122
G1 X448.61421319796955 Y25.53553299492386
G1 X448.5939086294416 Y25.373096446700508
G1 X448.5939086294416 Y25.20812182741117
G1 X448.61421319796955 Y25.04568527918782
G1 X448.6497461928934 Y24.88578680203046
G1 X448.70558375634516 Y24.730964467005077
G1 X448.7791878172589 Y24.583756345177665
G1 X448.8680203045686 Y24.444162436548226
G1 X448.9720812182741 Y24.31725888324873
G1 X449.0888324873097 Y24.203045685279186
G1 X449.2182741116751 Y24.10406091370558
G1 X449.3578680203046 Y24.02030456852792
G1 X449.51015228426394 Y23.951776649746193
G1 X449.6649746192893 Y23.901015228426395
G1 X449.8248730964467 Y23.868020304568528
G1 X449.989847715736 Y23.85279187817259
G1 X450.15228426395936 Y23.857868020304565
G1 X450.3172588832487 Y23.883248730964468
G1 X450.4746192893401 Y23.923857868020306
G1 X450.6269035532995 Y23.982233502538072
G1 X451.1553299492386 Y22.8256345177665 F1500
G1 X451.43147208121826 Y22.96954314720812 F1500
G1 X451.6852791878173 Y23.144670050761423
G1 X451.91878172588827 Y23.347715736040612
G1 X452.1269035532995 Y23.573604060913706
G1 X452.3096446700507 Y23.8248730964467
G1 X452.4619289340102 Y24.096446700507613
G1 X452.5837563451777 Y24.380710659898476
G1 X452.67005076142135 Y24.67766497461929
G1 X452.7233502538071 Y24.982233502538072
G1 X452.74111675126903 Y25.29187817258883
G1 X452.7233502538071 Y25.598984771573605
G1 X452.67005076142135 Y25.903553299492387
G1 X452.5837563451777 Y26.200507614213198
G1 X452.4619289340102 Y26.484771573604064
G1 X452.3096446700507 Y26.756345177664972
G1 X452.1269035532995 Y27.007614213197968
G1 X451.91878172588827 Y27.233502538071065
G1 X451.6852791878173 Y27.43654822335025
G1 X451.43147208121826 Y27.611675126903556
G1 X451.1548223350254 Y27.756345177664976
G1 X450.8680203045685 Y27.868020304568528
G1 X450.57106598984774 Y27.946700507614214
G1 X450.26142131979697 Y27.98984771573604
G1 X449.9517766497462 Y28
G1 X449.6446700507614 Y27.972081218274113
G1 X449.34263959390864 Y27.911167512690355
G1 X449.0482233502538 Y27.81725888324873
G1 X448.76395939086296 Y27.687817258883246
G1 X448.5 Y27.527918781725887
G1 X448.25634517766497 Y27.340101522842637
G1 X448.03553299492387 Y27.1243654822335
G1 X447.83756345177665 Y26.883248730964468
G1 X447.67005076142135 Y26.621827411167512
G1 X447.53299492385787 Y26.345177664974617
G1 X447.43147208121826 Y26.053299492385786
G1 X447.3604060913706 Y25.753807106598984
G1 X447.3248730964467 Y25.444162436548226
G1 X447.3248730964467 Y25.13705583756345
G1 X447.3604060913706 Y24.82741116751269
G1 X447.43147208121826 Y24.527918781725887
G1 X447.53299492385787 Y24.236040609137056
G1 X447.67005076142135 Y23.95939086294416
G1 X447.83756345177665 Y23.697969543147206
G1 X448.03553299492387 Y23.456852791878173
G1 X448.25634517766497 Y23.243654822335028
G1 X448.5 Y23.05329949238579
G1 X448.76395939086296 Y22.893401015228427
G1 X449.0482233502538 Y22.766497461928935
G1 X449.34263959390864 Y22.67005076142132
G1 X449.6446700507614 Y22.609137055837564
G1 X449.9517766497462 Y22.581218274111677
G1 X450.26142131979697 Y22.591370558375633
G1 X450.57106598984774 Y22.63451776649746
G1 X450.8680203045685 Y22.713197969543145
G1 X451.1548223350254 Y22.8248730964467
G0 Z10
G0 X25.516751269035534 Y232.73197969543148
G1 Z-1.5 F800
G1 X25.497461928934012 Y232.74365482233503 F1500
G1 X25.48223350253807 Y232.748730964467
G1 X25.467005076142133 Y232.751269035533
G1 X25.444162436548226 Y232.75634517766497
G1 X25.42639593908629 Y232.75634517766497
G1 X25.403553299492387 Y232.753807106599
G1 X25.388324873096447 Y232.751269035533
G1 X25.37055837563452 Y232.74619289340103
G1 X25.35279187817259 Y232.73604060913704
G1 X25.335025380710658 Y232.7258883248731
G1 X25.32233502538071 Y232.71573604060916
G1 X25.30964467005076 Y232.7055837563452
G1 X25.296954314720814 Y232.69035532994923
G1 X25.28680203045685 Y232.67005076142135
G1 X25.276649746192895 Y232.6548223350254
G1 X25.271573604060915 Y232.63705583756345
G1 X25.266497461928935 Y232.61928934010155
G1 X25.263959390862944 Y232.5989847715736
G1 X25.263959390862944 Y232.58121827411168
G1 X25.266497461928935 Y232.56345177664974
G1 X25.271573604060915 Y232.5431472081218
G1 X25.276649746192895 Y232.52538071065987
G1 X25.28680203045685 Y232.51015228426397
G1 X25.296954314720814 Y232.49238578680203
G1 X25.30964467005076 Y232.47715736040607
G1 X25.32233502538071 Y232.46446700507616
G1 X25.335025380710658 Y232.4543147208122
G1 X25.35279187817259 Y232.44416243654823
G1 X25.37055837563452 Y232.43654822335026
G1 X25.388324873096447 Y232.43147208121826
G1 X25.403553299492387 Y232.42639593908632
G1 X25.42639593908629 Y232.42639593908632
G1 X25.444162436548226 Y232.42639593908632
G1 X25.467005076142133 Y232.42893401015226
G1 X25.48223350253807 Y232.43401015228426
G1 X25.497461928934012 Y232.43908629441623
G1 X25.51776649746193 Y232.4492385786802
G1 X25.532994923857867 Y232.46192893401016
G1 X25.54568527918782 Y232.47208121827413
G1 X25.558375634517766 Y232.48477157360406
G1 X25.568527918781726 Y232.5
G1 X25.578680203045685 Y232.51776649746193
G1 X25.586294416243653 Y232.53553299492384
G1 X25.591370558375633 Y232.5532994923858
G1 X25.596446700507617 Y232.57106598984774
G1 X25.596446700507617 Y232.59137055837562
G1 X25.596446700507617 Y232.60913705583758
G1 X25.591370558375633 Y232.62690355329948
G1 X25.586294416243653 Y232.64720812182742
G1 X25.578680203045685 Y232.66497461928935
G1 X25.568527918781726 Y232.68020304568526
G1 X25.558375634517766 Y232.69543147208122
G1 X25.54568527918782 Y232.70812182741116
G1 X25.532994923857867 Y232.7208121827411
G1 X25.51776649746193 Y232.73096446700507
G1 X26.173604060913707 Y233.82131979695433 F1500
G1 X26.0253807106599 Y233.8984771573604 F1500
G1 X25.875634517766496 Y233.95939086294416
G1 X25.71827411167513 Y234
G1 X25.55329949238579 Y234.0228426395939
G1 X25.388324873096447 Y234.0279187817259
G1 X25.22335025380711 Y234.01269035532994
G1 X25.06345177664975 Y233.98223350253807
G1 X24.908629441624367 Y233.9314720812183
G1 X24.758883248730964 Y233.86294416243655
G1 X24.619289340101524 Y233.7766497461929
G1 X24.48984771573604 Y233.6776649746193
G1 X24.373096446700508 Y233.56345177664974
G1 X24.269035532994923 Y233.43654822335026
G1 X24.17766497461929 Y233.29695431472084
G1 X24.106598984771573 Y233.14974619289342
G1 X24.050761421319798 Y232.99492385786803
G1 X24.012690355329948 Y232.83502538071065
G1 X23.99492385786802 Y232.6725888324873
G1 X23.99492385786802 Y232.51015228426397
G1 X24.012690355329948 Y232.3451776649746
G1 X24.050761421319798 Y232.18527918781723
G1 X24.106598984771573 Y232.0304568527919
G1 X24.17766497461929 Y231.88578680203048
G1 X24.269035532994923 Y231.743654822335
G1 X24.373096446700508 Y231.61675126903555
G1 X24.48984771573604 Y231.50253807106597
G1 X24.619289340101524 Y231.4035532994924
G1 X24.758883248730964 Y231.3197969543147
G1 X24.908629441624367 Y231.25126903553297
G1 X25.06345177664975 Y231.20050761421322
G1 X25.22335025380711 Y231.16751269035532
G1 X25.388324873096447 Y231.15482233502536
G1 X25.55329949238579 Y231.15736040609136
G1 X25.71827411167513 Y231.1827411167513
G1 X25.875634517766496 Y231.2233502538071
G1 X26.0253807106599 Y231.28172588832487
G1 X26.17258883248731 Y231.36040609137055
G1 X26.30964467005076 Y231.4517766497462
G1 X26.434010152284266 Y231.55837563451774
G1 X26.543147208121827 Y231.6802030456853
G1 X26.63959390862944 Y231.81218274111674
G1 X26.720812182741117 Y231.95685279187816
G1 X26.784263959390863 Y232.10659898477158
G1 X26.829949238578678 Y232.26395939086296
G1 X26.85786802030457 Y232.42639593908632
G1 X26.868020304568528 Y232.59137055837562
G1 X26.85786802030457 Y232.753807106599
G1 X26.829949238578678 Y232.91624365482235
G1 X26.784263959390863 Y233.07360406091368
G1 X26.720812182741117 Y233.2258883248731
G1 X26.63959390862944 Y233.36802030456852
G1 X26.543147208121827 Y233.5
G1 X26.434010152284266 Y233.62182741116752
G1 X26.30964467005076 Y233.7284263959391
G1 X26.17258883248731 Y233.8223350253807
G1 X26.83020304568528 Y234.91091370558377 F1500
G1 X26.555837563451774 Y235.05583756345177 F1500
G1 X26.269035532994923 Y235.16751269035535
G1 X25.96954314720812 Y235.24619289340103
G1 X25.66243654822335 Y235.28934010152284
G1 X25.35279187817259 Y235.2994923857868
G1 X25.043147208121827 Y235.2715736040609
G1 X24.741116751269033 Y235.21065989847716
G1 X24.44670050761421 Y235.11675126903555
G1 X24.16497461928934 Y234.98730964467003
G1 X23.901015228426395 Y234.8274111675127
G1 X23.654822335025383 Y234.63959390862942
G1 X23.434010152284266 Y234.42385786802032
G1 X23.238578680203045 Y234.1827411167513
G1 X23.071065989847718 Y233.92131979695432
G1 X22.934010152284262 Y233.64467005076142
G1 X22.829949238578678 Y233.3527918781726
G1 X22.761421319796952 Y233.0532994923858
G1 X22.725888324873097 Y232.74365482233503
G1 X22.725888324873097 Y232.43654822335026
G1 X22.761421319796952 Y232.12944162436548
G1 X22.829949238578678 Y231.8274111675127
G1 X22.934010152284262 Y231.53553299492387
G1 X23.071065989847718 Y231.25888324873097
G1 X23.238578680203045 Y230.99746192893403
G1 X23.434010152284266 Y230.756345177665
G1 X23.654822335025383 Y230.54314720812184
G1 X23.901015228426395 Y230.35279187817258
G1 X24.16497461928934 Y230.19543147208122
G1 X24.44670050761421 Y230.06598984771574
G1 X24.741116751269033 Y229.96954314720813
G1 X25.043147208121827 Y229.90862944162438
G1 X25.35279187817259 Y229.88324873096445
G1 X25.66243654822335 Y229.89086294416242
G1 X25.96954314720812 Y229.93401015228426
G1 X26.269035532994923 Y230.01269035532997
G1 X26.555837563451774 Y230.1243654822335
G1 X26.829949238578678 Y230.2715736040609
G1 X27.086294416243657 Y230.44416243654823
G1 X27.319796954314718 Y230.64720812182742
G1 X27.527918781725887 Y230.87563451776649
G1 X27.71065989847716 Y231.1243654822335
G1 X27.86294416243655 Y231.39593908629445
G1 X27.98223350253807 Y231.6802030456853
G1 X28.071065989847718 Y231.9771573604061
G1 X28.121827411167516 Y232.28172588832484
G1 X28.139593908629443 Y232.59137055837562
G1 X28.121827411167516 Y232.89847715736042
G1 X28.071065989847718 Y233.2055837563452
G1 X27.98223350253807 Y233.5
G1 X27.86294416243655 Y233.78680203045687
G1 X27.71065989847716 Y234.05583756345177
G1 X27.527918781725887 Y234.30710659898477
G1 X27.319796954314718 Y234.53299492385787
G1 X27.086294416243657 Y234.73604060913704
G1 X26.829949238578678 Y234.91116751269035
G0 Z10
G0 X25.496700507614214 Y25.138832487309646
G1 Z-1.5 F800
G1 X25.51776649746193 Y25.149746192893403 F1500
G1 X25.532994923857867 Y25.159898477157363
G1 X25.54568527918782 Y25.17258883248731
G1 X25.558375634517766 Y25.185279187817258
G1 X25.568527918781726 Y25.200507614213198
G1 X25.578680203045685 Y25.218274111675125
G1 X25.586294416243653 Y25.236040609137053
G1 X25.591370558375633 Y25.253807106598988
G1 X25.596446700507617 Y25.271573604060915
G1 X25.596446700507617 Y25.29187817258883
G1 X25.596446700507617 Y25.30964467005076
G1 X25.591370558375633 Y25.327411167512693
G1 X25.586294416243653 Y25.34517766497462
G1 X25.578680203045685 Y25.365482233502537
G1 X25.568527918781726 Y25.380710659898476
G1 X25.558375634517766 Y25.395939086294415
G1 X25.54568527918782 Y25.408629441624363
G1 X25.532994923857867 Y25.421319796954315
G1 X25.51776649746193 Y25.431472081218274
G1 X25.497461928934012 Y25.441624365482234
G1 X25.48223350253807 Y25.449238578680205
G1 X25.467005076142133 Y25.451776649746193
G1 X25.444162436548226 Y25.454314720812185
G1 X25.42639593908629 Y25.45685279187817
G1 X25.403553299492387 Y25.454314720812185
G1 X25.388324873096447 Y25.451776649746193
G1 X25.37055837563452 Y25.446700507614214
G1 X25.35279187817259 Y25.436548223350254
G1 X25.335025380710658 Y25.42639593908629
G1 X25.32233502538071 Y25.416243654822335
G1 X25.30964467005076 Y25.403553299492387
G1 X25.296954314720814 Y25.390862944162436
G1 X25.28680203045685 Y25.37055837563452
G1 X25.276649746192895 Y25.35532994923858
G1 X25.271573604060915 Y25.33756345177665
G1 X25.266497461928935 Y25.31725888324873
G1 X25.263959390862944 Y25.299492385786802
G1 X25.263959390862944 Y25.28172588832487
G1 X25.266497461928935 Y25.263959390862944
G1 X25.271573604060915 Y25.243654822335024
G1 X25.276649746192895 Y25.225888324873097
G1 X25.28680203045685 Y25.21065989847716
G1 X25.296954314720814 Y25.190355329949238
G1 X25.30964467005076 Y25.17766497461929
G1 X25.32233502538071 Y25.16497461928934
G1 X25.335025380710658 Y25.154822335025383
G1 X25.35279187817259 Y25.14467005076142
G1 X25.37055837563452 Y25.13451776649746
G1 X25.388324873096447 Y25.129441624365484
G1 X25.403553299492387 Y25.126903553299492
G1 X25.42639593908629 Y25.124365482233504
G1 X25.444162436548226 Y25.126903553299492
G1 X25.467005076142133 Y25.129441624365484
G1 X25.48223350253807 Y25.13197969543147
G1 X25.497461928934012 Y25.13959390862944
G1 X26.025888324873097 Y23.982233502538072 F1500
G1 X26.17258883248731 Y24.060913705583754 F1500
G1 X26.30964467005076 Y24.152284263959388
G1 X26.434010152284266 Y24.258883248730964
G1 X26.543147208121827 Y24.380710659898476
G1 X26.63959390862944 Y24.51269035532995
G1 X26.720812182741117 Y24.65482233502538
G1 X26.784263959390863 Y24.80710659898477
G1 X26.829949238578678 Y24.964467005076145
G1 X26.85786802030457 Y25.126903553299492
G1 X26.868020304568528 Y25.29187817258883
G1 X26.85786802030457 Y25.454314720812185
G1 X26.829949238578678 Y25.616751269035532
G1 X26.784263959390863 Y25.774111675126903
G1 X26.720812182741117 Y25.926395939086294
G1 X26.63959390862944 Y26.068527918781726
G1 X26.543147208121827 Y26.200507614213198
G1 X26.434010152284266 Y26.32233502538071
G1 X26.30964467005076 Y26.428934010152286
G1 X26.17258883248731 Y26.52030456852792
G1 X26.0253807106599 Y26.598984771573605
G1 X25.875634517766496 Y26.65736040609137
G1 X25.71827411167513 Y26.700507614213194
G1 X25.55329949238579 Y26.72335025380711
G1 X25.388324873096447 Y26.72842639593909
G1 X25.22335025380711 Y26.713197969543145
G1 X25.06345177664975 Y26.680203045685282
G1 X24.908629441624367 Y26.631979695431475
G1 X24.758883248730964 Y26.560913705583754
G1 X24.619289340101524 Y26.477157360406093
G1 X24.48984771573604 Y26.378172588832488
G1 X24.373096446700508 Y26.263959390862944
G1 X24.269035532994923 Y26.13705583756345
G1 X24.17766497461929 Y25.99746192893401
G1 X24.106598984771573 Y25.850253807106597
G1 X24.050761421319798 Y25.69543147208122
G1 X24.012690355329948 Y25.53553299492386
G1 X23.99492385786802 Y25.373096446700508
G1 X23.99492385786802 Y25.20812182741117
G1 X24.012690355329948 Y25.04568527918782
G1 X24.050761421319798 Y24.88578680203046
G1 X24.106598984771573 Y24.730964467005077
G1 X24.17766497461929 Y24.583756345177665
G1 X24.269035532994923 Y24.444162436548226
G1 X24.373096446700508 Y24.31725888324873
G1 X24.48984771573604 Y24.203045685279186
G1 X24.619289340101524 Y24.10406091370558
G1 X24.758883248730964 Y24.02030456852792
G1 X24.908629441624367 Y23.949238578680202
G1 X25.06345177664975 Y23.901015228426395
G1 X25.22335025380711 Y23.868020304568528
G1 X25.388324873096447 Y23.85279187817259
G1 X25.55329949238579 Y23.857868020304565
G1 X25.71827411167513 Y23.883248730964468
G1 X25.875634517766496 Y23.923857868020306
G1 X26.0253807106599 Y23.982233502538072
G1 X26.55532994923858 Y22.8253807106599 F1500
G1 X26.829949238578678 Y22.96954314720812 F1500
G1 X27.086294416243657 Y23.144670050761423
G1 X27.319796954314718 Y23.347715736040612
G1 X27.527918781725887 Y23.576142131979694
G1 X27.71065989847716 Y23.8248730964467
G1 X27.86294416243655 Y24.093908629441625
G1 X27.98223350253807 Y24.380710659898476
G1 X28.071065989847718 Y24.67766497461929
G1 X28.121827411167516 Y24.982233502538072
G1 X28.139593908629443 Y25.29187817258883
G1 X28.121827411167516 Y25.598984771573605
G1 X28.071065989847718 Y25.903553299492387
G1 X27.98223350253807 Y26.200507614213198
G1 X27.86294416243655 Y26.48730964467005
G1 X27.71065989847716 Y26.756345177664972
G1 X27.527918781725887 Y27.00507614213198
G1 X27.319796954314718 Y27.233502538071065
G1 X27.086294416243657 Y27.43654822335025
G1 X26.829949238578678 Y27.611675126903556
G1 X26.555837563451774 Y27.756345177664976
G1 X26.269035532994923 Y27.868020304568528
G1 X25.96954314720812 Y27.946700507614214
G1 X25.66243654822335 Y27.98984771573604
G1 X25.35279187817259 Y28
G1 X25.043147208121827 Y27.972081218274113
G1 X24.741116751269033 Y27.911167512690355
G1 X24.44670050761421 Y27.81725888324873
G1 X24.16497461928934 Y27.687817258883246
G1 X23.901015228426395 Y27.527918781725887
G1 X23.654822335025383 Y27.340101522842637
G1 X23.434010152284266 Y27.1243654822335
G1 X23.238578680203045 Y26.883248730964468
G1 X23.071065989847718 Y26.621827411167512
G1 X22.934010152284262 Y26.345177664974617
G1 X22.829949238578678 Y26.053299492385786
G1 X22.761421319796952 Y25.751269035532992
G1 X22.725888324873097 Y25.444162436548226
G1 X22.725888324873097 Y25.13705583756345
G1 X22.761421319796952 Y24.82994923857868
G1 X22.829949238578678 Y24.527918781725887
G1 X22.934010152284262 Y24.236040609137056
G1 X23.071065989847718 Y23.95939086294416
G1 X23.238578680203045 Y23.697969543147206
G1 X23.434010152284266 Y23.456852791878173
G1 X23.654822335025383 Y23.241116751269036
G1 X23.901015228426395 Y23.05329949238579
G1 X24.16497461928934 Y22.893401015228427
G1 X24.44670050761421 Y22.763959390862944
G1 X24.741116751269033 Y22.67005076142132
G1 X25.043147208121827 Y22.609137055837564
G1 X25.35279187817259 Y22.581218274111677
G1 X25.66243654822335 Y22.591370558375633
G1 X25.96954314720812 Y22.63451776649746
G1 X26.269035532994923 Y22.713197969543145
G1 X26.555837563451774 Y22.8248730964467
G0 Z10
G0 X251.04796954314722 Y143.20913705583757
G1 Z-1.5 F800
G1 X251.10406091370555 Y143.31979695431474 F1500
G1 X251.1243654822335 Y143.44162436548226
G1 X251.10406091370555 Y143.56345177664974
G1 X251.0482233502538 Y143.6725888324873
G1 X250.96192893401013 Y143.75888324873097
G1 X250.8527918781726 Y143.81472081218274
G1 X250.73096446700507 Y143.83248730964468
G1 X250.60913705583758 Y143.81472081218274
G1 X250.5 Y143.75888324873097
G1 X250.41370558375635 Y143.6725888324873
G1 X250.35786802030458 Y143.56345177664974
G1 X250.33756345177665 Y143.44162436548226
G1 X250.35786802030458 Y143.31979695431474
G1 X250.41370558375635 Y143.20812182741116
G1 X250.5 Y143.12436548223351
G1 X250.60913705583758 Y143.06852791878174
G1 X250.73096446700507 Y143.0482233502538
G1 X250.8527918781726 Y143.06852791878174
G1 X250.96192893401013 Y143.12436548223351
G1 X251.0482233502538 Y143.20812182741116
G0 Z10
G0 X224.60888324873096 Y143.81395939086295
G1 Z-1.5 F800
G1 X224.5 Y143.75888324873097 F1500
G1 X224.41370558375635 Y143.6725888324873
G1 X224.35786802030458 Y143.56345177664974
G1 X224.33756345177667 Y143.44162436548226
G1 X224.35786802030458 Y143.31979695431474
G1 X224.41370558375635 Y143.20812182741116
G1 X224.5 Y143.12436548223351
G1 X224.60913705583755 Y143.06852791878174
G1 X224.73096446700507 Y143.0482233502538
G1 X224.85279187817258 Y143.06852791878174
G1 X224.96192893401016 Y143.12436548223351
G1 X225.0482233502538 Y143.20812182741116
G1 X225.10406091370558 Y143.31979695431474
G1 X225.1243654822335 Y143.44162436548226
G1 X225.10406091370558 Y143.56345177664974
G1 X225.0482233502538 Y143.6725888324873
G1 X224.96192893401016 Y143.75888324873097
G1 X224.85279187817258 Y143.81472081218274
G1 X224.73096446700507 Y143.83248730964468
G1 X224.60913705583755 Y143.81472081218274
G0 Z10
G0 X250.96192893401016 Y114.75812182741117
G1 Z-1.5 F800
G1 X250.8527918781726 Y114.81472081218274 F1500
G1 X250.73096446700507 Y114.83248730964468
G1 X250.60913705583758 Y114.81472081218274
G1 X250.5 Y114.75888324873097
G1 X250.41370558375635 Y114.6725888324873
G1 X250.35786802030458 Y114.56345177664974
G1 X250.33756345177665 Y114.44162436548224
G1 X250.35786802030458 Y114.31979695431473
G1 X250.41370558375635 Y114.20812182741116
G1 X250.5 Y114.12436548223351
G1 X250.60913705583758 Y114.06852791878173
G1 X250.73096446700507 Y114.0482233502538
G1 X250.8527918781726 Y114.06852791878173
G1 X250.96192893401013 Y114.12436548223351
G1 X251.0482233502538 Y114.20812182741116
G1 X251.10406091370555 Y114.31979695431473
G1 X251.1243654822335 Y114.44162436548224
G1 X251.10406091370555 Y114.56345177664974
G1 X251.0482233502538 Y114.6725888324873
G1 X250.96192893401013 Y114.75888324873097
G0 Z10
G0 X224.41319796954315 Y114.67208121827412
G1 Z-1.5 F800
G1 X224.35786802030458 Y114.56345177664974 F1500
G1 X224.33756345177667 Y114.44162436548224
G1 X224.35786802030458 Y114.31979695431473
G1 X224.41370558375635 Y114.20812182741116
G1 X224.5 Y114.12436548223351
G1 X224.60913705583755 Y114.06852791878173
G1 X224.73096446700507 Y114.0482233502538
G1 X224.85279187817258 Y114.06852791878173
G1 X224.96192893401016 Y114.12436548223351
G1 X225.0482233502538 Y114.20812182741116
G1 X225.10406091370558 Y114.31979695431473
G1 X225.1243654822335 Y114.44162436548224
G1 X225.10406091370558 Y114.56345177664974
G1 X225.0482233502538 Y114.6725888324873
G1 X224.96192893401016 Y114.75888324873097
G1 X224.85279187817258 Y114.81472081218274
G1 X224.73096446700507 Y114.83248730964468
G1 X224.60913705583755 Y114.81472081218274
G1 X224.5 Y114.75888324873097
G1 X224.41370558375635 Y114.6725888324873
G0 Z10
G0 X335.8647208121827 Y233.25304568527918
G1 Z-1.5 F800
G1 X335.9619289340102 Y233.253807106599 F1500
G1 X336.05583756345175 Y233.2766497461929
G1 X336.1395939086294 Y233.3197969543147
G1 X336.21319796954316 Y233.38578680203045
G1 X336.2690355329949 Y233.46446700507613
G1 X336.3020304568528 Y233.55583756345175
G1 X336.31472081218277 Y233.64974619289342
G1 X336.3020304568528 Y233.74619289340103
G1 X336.2690355329949 Y233.83502538071068
G1 X336.21319796954316 Y233.91624365482232
G1 X336.1395939086294 Y233.98223350253807
G1 X336.05583756345175 Y234.0253807106599
G1 X335.9619289340102 Y234.0482233502538
G1 X335.8654822335026 Y234.0482233502538
G1 X335.7715736040609 Y234.0253807106599
G1 X335.6852791878173 Y233.9796954314721
G1 X335.61421319796955 Y233.91624365482232
G1 X335.55837563451774 Y233.83502538071068
G1 X335.5253807106599 Y233.74619289340103
G1 X335.51269035532994 Y233.64974619289342
G1 X335.5253807106599 Y233.55583756345175
G1 X335.55837563451774 Y233.46446700507613
G1 X335.61421319796955 Y233.38578680203045
G1 X335.6852791878173 Y233.3197969543147
G1 X335.7715736040609 Y233.2766497461929
G1 X335.8654822335026 Y233.253807106599
G0 Z10
G0 X306.26472081218276 Y217.04314720812184
G1 Z-1.5 F800
G1 X306.3629441624365 Y217.0431472081218 F1500
G1 X306.4568527918782 Y217.06598984771574
G1 X306.54060913705587 Y217.10913705583755
G1 X306.61421319796955 Y217.17512690355332
G1 X306.6700507614213 Y217.25634517766497
G1 X306.70304568527916 Y217.3451776649746
G1 X306.71319796954316 Y217.44162436548223
G1 X306.70304568527916 Y217.53553299492384
G1 X306.6700507614213 Y217.62690355329948
G1 X306.61421319796955 Y217.7055837563452
G1 X306.54060913705587 Y217.7715736040609
G1 X306.4568527918782 Y217.81472081218277
G1 X306.3629441624365 Y217.83756345177665
G1 X306.26395939086296 Y217.83756345177665
G1 X306.1700507614213 Y217.81472081218277
G1 X306.0862944162437 Y217.7715736040609
G1 X306.01269035532994 Y217.7055837563452
G1 X305.95939086294413 Y217.62690355329948
G1 X305.9238578680203 Y217.53553299492384
G1 X305.9137055837563 Y217.44162436548223
G1 X305.9238578680203 Y217.3451776649746
G1 X305.95939086294413 Y217.25634517766497
G1 X306.01269035532994 Y217.17512690355332
G1 X306.0862944162437 Y217.11167512690355
G1 X306.1700507614213 Y217.06598984771574
G1 X306.26395939086296 Y217.0431472081218
G0 Z10
G0 X139.59822335025382 Y233.25304568527918
G1 Z-1.5 F800
G1 X139.69543147208122 Y233.253807106599 F1500
G1 X139.78934010152284 Y233.2766497461929
G1 X139.87563451776649 Y233.3197969543147
G1 X139.9467005076142 Y233.38578680203045
G1 X140.002538071066 Y233.46446700507613
G1 X140.03553299492387 Y233.55583756345175
G1 X140.0482233502538 Y233.64974619289342
G1 X140.03553299492387 Y233.74619289340103
G1 X140.002538071066 Y233.83502538071068
G1 X139.9467005076142 Y233.91624365482232
G1 X139.87563451776649 Y233.9796954314721
G1 X139.78934010152284 Y234.0253807106599
G1 X139.69543147208122 Y234.0482233502538
G1 X139.5989847715736 Y234.0482233502538
G1 X139.50507614213197 Y234.0253807106599
G1 X139.42131979695432 Y233.98223350253807
G1 X139.3477157360406 Y233.91624365482232
G1 X139.29187817258884 Y233.83502538071068
G1 X139.25888324873097 Y233.74619289340103
G1 X139.24619289340103 Y233.64974619289342
G1 X139.25888324873097 Y233.55583756345175
G1 X139.29187817258884 Y233.46446700507613
G1 X139.3477157360406 Y233.38578680203045
G1 X139.42131979695432 Y233.3197969543147
G1 X139.50507614213197 Y233.2766497461929
G1 X139.5989847715736 Y233.253807106599
G0 Z10
G0 X335.9626903553299 Y40.74822335025381
G1 Z-1.5 F800
G1 X335.8654822335026 Y40.74873096446701 F1500
G1 X335.7715736040609 Y40.7258883248731
G1 X335.6852791878173 Y40.680203045685275
G1 X335.61421319796955 Y40.61675126903553
G1 X335.55837563451774 Y40.535532994923855
G1 X335.5253807106599 Y40.44670050761422
G1 X335.51269035532994 Y40.3502538071066
G1 X335.5253807106599 Y40.253807106598984
G1 X335.55837563451774 Y40.164974619289346
G1 X335.61421319796955 Y40.08375634517766
G1 X335.6852791878173 Y40.02030456852792
G1 X335.7715736040609 Y39.977157360406096
G1 X335.8654822335026 Y39.95431472081218
G1 X335.9619289340102 Y39.95431472081218
G1 X336.05583756345175 Y39.977157360406096
G1 X336.1395939086294 Y40.02030456852792
G1 X336.21319796954316 Y40.08375634517766
G1 X336.2690355329949 Y40.164974619289346
G1 X336.3020304568528 Y40.253807106598984
G1 X336.31472081218277 Y40.3502538071066
G1 X336.3020304568528 Y40.44670050761422
G1 X336.2690355329949 Y40.535532994923855
G1 X336.21319796954316 Y40.61675126903553
G1 X336.1395939086294 Y40.680203045685275
G1 X336.05583756345175 Y40.7258883248731
G1 X335.9619289340102 Y40.74873096446701
G0 Z10
G0 X306.26472081218276 Y233.25304568527918
G1 Z-1.5 F800
G1 X306.3629441624365 Y233.253807106599 F1500
G1 X306.4568527918782 Y233.2766497461929
G1 X306.54060913705587 Y233.3197969543147
G1 X306.61421319796955 Y233.38578680203045
G1 X306.6700507614213 Y233.46446700507613
G1 X306.70304568527916 Y233.55583756345175
G1 X306.71319796954316 Y233.64974619289342
G1 X306.70304568527916 Y233.74619289340103
G1 X306.6700507614213 Y233.83502538071068
G1 X306.61421319796955 Y233.91624365482232
G1 X306.54060913705587 Y233.98223350253807
G1 X306.4568527918782 Y234.0253807106599
G1 X306.3629441624365 Y234.0482233502538
G1 X306.26395939086296 Y234.0482233502538
G1 X306.1700507614213 Y234.0253807106599
G1 X306.0862944162437 Y233.9796954314721
G1 X306.01269035532994 Y233.91624365482232
G1 X305.95939086294413 Y233.83502538071068
G1 X305.9238578680203 Y233.74619289340103
G1 X305.9137055837563 Y233.64974619289342
G1 X305.9238578680203 Y233.55583756345175
G1 X305.95939086294413 Y233.46446700507613
G1 X306.01269035532994 Y233.38578680203045
G1 X306.0862944162437 Y233.3197969543147
G1 X306.1700507614213 Y233.2766497461929
G1 X306.26395939086296 Y233.253807106599
G0 Z10
G0 X169.296192893401 Y217.83807106598985
G1 Z-1.5 F800
G1 X169.1979695431472 Y217.83756345177665 F1500
G1 X169.10406091370558 Y217.81472081218277
G1 X169.02030456852793 Y217.7715736040609
G1 X168.9467005076142 Y217.7055837563452
G1 X168.89340101522845 Y217.62690355329948
G1 X168.85786802030455 Y217.53553299492384
G1 X168.84771573604064 Y217.44162436548223
G1 X168.85786802030455 Y217.3451776649746
G1 X168.89340101522845 Y217.25634517766497
G1 X168.9467005076142 Y217.17512690355332
G1 X169.02030456852793 Y217.10913705583755
G1 X169.10406091370558 Y217.06598984771574
G1 X169.1979695431472 Y217.0431472081218
G1 X169.2969543147208 Y217.0431472081218
G1 X169.39086294416242 Y217.06598984771574
G1 X169.47461928934013 Y217.11167512690355
G1 X169.5482233502538 Y217.17512690355332
G1 X169.60406091370558 Y217.25634517766497
G1 X169.63705583756342 Y217.3451776649746
G1 X169.64720812182742 Y217.44162436548223
G1 X169.63705583756342 Y217.53553299492384
G1 X169.60406091370558 Y217.62690355329948
G1 X169.5482233502538 Y217.7055837563452
G1 X169.47461928934013 Y217.7715736040609
G1 X169.39086294416242 Y217.81472081218277
G1 X169.2969543147208 Y217.83756345177665
G0 Z10
G0 X139.59822335025382 Y217.04314720812184
G1 Z-1.5 F800
G1 X139.69543147208122 Y217.0431472081218 F1500
G1 X139.78934010152284 Y217.06598984771574
G1 X139.87563451776649 Y217.11167512690355
G1 X139.9467005076142 Y217.17512690355332
G1 X140.002538071066 Y217.25634517766497
G1 X140.03553299492387 Y217.3451776649746
G1 X140.0482233502538 Y217.44162436548223
G1 X140.03553299492387 Y217.53553299492384
G1 X140.002538071066 Y217.62690355329948
G1 X139.9467005076142 Y217.7055837563452
G1 X139.87563451776649 Y217.7715736040609
G1 X139.78934010152284 Y217.81472081218277
G1 X139.69543147208122 Y217.83756345177665
G1 X139.5989847715736 Y217.83756345177665
G1 X139.50507614213197 Y217.81472081218277
G1 X139.42131979695432 Y217.7715736040609
G1 X139.3477157360406 Y217.7055837563452
G1 X139.29187817258884 Y217.62690355329948
G1 X139.25888324873097 Y217.53553299492384
G1 X139.24619289340103 Y217.44162436548223
G1 X139.25888324873097 Y217.3451776649746
G1 X139.29187817258884 Y217.25634517766497
G1 X139.3477157360406 Y217.17512690355332
G1 X139.42131979695432 Y217.10913705583755
G1 X139.50507614213197 Y217.06598984771574
G1 X139.5989847715736 Y217.0431472081218
G0 Z10
G0 X306.26472081218276 Y23.743147208121826
G1 Z-1.5 F800
G1 X306.3629441624365 Y23.743654822335024 F1500
G1 X306.4568527918782 Y23.76649746192893
G1 X306.54060913705587 Y23.80964467005076
G1 X306.61421319796955 Y23.875634517766496
G1 X306.6700507614213 Y23.954314720812185
G1 X306.70304568527916 Y24.04568527918782
G1 X306.71319796954316 Y24.13959390862944
G1 X306.70304568527916 Y24.236040609137056
G1 X306.6700507614213 Y24.3248730964467
G1 X306.61421319796955 Y24.406091370558375
G1 X306.54060913705587 Y24.472081218274113
G1 X306.4568527918782 Y24.51522842639594
G1 X306.3629441624365 Y24.538071065989847
G1 X306.26395939086296 Y24.538071065989847
G1 X306.1700507614213 Y24.51522842639594
G1 X306.0862944162437 Y24.469543147208125
G1 X306.01269035532994 Y24.406091370558375
G1 X305.95939086294413 Y24.3248730964467
G1 X305.9238578680203 Y24.236040609137056
G1 X305.9137055837563 Y24.13959390862944
G1 X305.9238578680203 Y24.04568527918782
G1 X305.95939086294413 Y23.954314720812185
G1 X306.01269035532994 Y23.875634517766496
G1 X306.0862944162437 Y23.80964467005076
G1 X306.1700507614213 Y23.76649746192893
G1 X306.26395939086296 Y23.743654822335024
G0 Z10
G0 X335.9626903553299 Y217.83807106598985
G1 Z-1.5 F800
G1 X335.8654822335026 Y217.83756345177665 F1500
G1 X335.7715736040609 Y217.81472081218277
G1 X335.6852791878173 Y217.7715736040609
G1 X335.61421319796955 Y217.7055837563452
G1 X335.55837563451774 Y217.62690355329948
G1 X335.5253807106599 Y217.53553299492384
G1 X335.51269035532994 Y217.44162436548223
G1 X335.5253807106599 Y217.3451776649746
G1 X335.55837563451774 Y217.25634517766497
G1 X335.61421319796955 Y217.17512690355332
G1 X335.6852791878173 Y217.11167512690355
G1 X335.7715736040609 Y217.06598984771574
G1 X335.8654822335026 Y217.0431472081218
G1 X335.9619289340102 Y217.0431472081218
G1 X336.05583756345175 Y217.06598984771574
G1 X336.1395939086294 Y217.10913705583755
G1 X336.21319796954316 Y217.17512690355332
G1 X336.2690355329949 Y217.25634517766497
G1 X336.3020304568528 Y217.3451776649746
G1 X336.31472081218277 Y217.44162436548223
G1 X336.3020304568528 Y217.53553299492384
G1 X336.2690355329949 Y217.62690355329948
G1 X336.21319796954316 Y217.7055837563452
G1 X336.1395939086294 Y217.7715736040609
G1 X336.05583756345175 Y217.81472081218277
G1 X335.9619289340102 Y217.83756345177665
G0 Z10
G0 X169.296192893401 Y40.74822335025381
G1 Z-1.5 F800
G1 X169.1979695431472 Y40.74873096446701 F1500
G1 X169.10406091370558 Y40.7258883248731
G1 X169.02030456852793 Y40.680203045685275
G1 X168.9467005076142 Y40.61675126903553
G1 X168.89340101522845 Y40.535532994923855
G1 X168.85786802030455 Y40.44670050761422
G1 X168.84771573604064 Y40.3502538071066
G1 X168.85786802030455 Y40.253807106598984
G1 X168.89340101522845 Y40.164974619289346
G1 X168.9467005076142 Y40.08375634517766
G1 X169.02030456852793 Y40.02030456852792
G1 X169.10406091370558 Y39.977157360406096
G1 X169.1979695431472 Y39.95431472081218
G1 X169.2969543147208 Y39.95431472081218
G1 X169.39086294416242 Y39.977157360406096
G1 X169.47461928934013 Y40.02030456852792
G1 X169.5482233502538 Y40.08375634517766
G1 X169.60406091370558 Y40.164974619289346
G1 X169.63705583756342 Y40.253807106598984
G1 X169.64720812182742 Y40.3502538071066
G1 X169.63705583756342 Y40.44670050761422
G1 X169.60406091370558 Y40.535532994923855
G1 X169.5482233502538 Y40.61675126903553
G1 X169.47461928934013 Y40.680203045685275
G1 X169.39086294416242 Y40.7258883248731
G1 X169.2969543147208 Y40.74873096446701
G0 Z10
G0 X306.26472081218276 Y39.953045685279186
G1 Z-1.5 F800
G1 X306.3629441624365 Y39.95431472081218 F1500
G1 X306.4568527918782 Y39.977157360406096
G1 X306.54060913705587 Y40.02030456852792
G1 X306.61421319796955 Y40.08375634517766
G1 X306.6700507614213 Y40.164974619289346
G1 X306.70304568527916 Y40.253807106598984
G1 X306.71319796954316 Y40.3502538071066
G1 X306.70304568527916 Y40.44670050761422
G1 X306.6700507614213 Y40.535532994923855
G1 X306.61421319796955 Y40.61675126903553
G1 X306.54060913705587 Y40.680203045685275
G1 X306.4568527918782 Y40.7258883248731
G1 X306.3629441624365 Y40.74873096446701
G1 X306.26395939086296 Y40.74873096446701
G1 X306.1700507614213 Y40.7258883248731
G1 X306.0862944162437 Y40.680203045685275
G1 X306.01269035532994 Y40.61675126903553
G1 X305.95939086294413 Y40.535532994923855
G1 X305.9238578680203 Y40.44670050761422
G1 X305.9137055837563 Y40.3502538071066
G1 X305.9238578680203 Y40.253807106598984
G1 X305.95939086294413 Y40.164974619289346
G1 X306.01269035532994 Y40.08375634517766
G1 X306.0862944162437 Y40.02030456852792
G1 X306.1700507614213 Y39.977157360406096
G1 X306.26395939086296 Y39.95431472081218
G0 Z10
G0 X139.59822335025382 Y23.743147208121826
G1 Z-1.5 F800
G1 X139.69543147208122 Y23.743654822335024 F1500
G1 X139.78934010152284 Y23.76649746192893
G1 X139.87563451776649 Y23.80964467005076
G1 X139.9467005076142 Y23.875634517766496
G1 X140.002538071066 Y23.954314720812185
G1 X140.03553299492387 Y24.04568527918782
G1 X140.0482233502538 Y24.13959390862944
G1 X140.03553299492387 Y24.236040609137056
G1 X140.002538071066 Y24.3248730964467
G1 X139.9467005076142 Y24.406091370558375
G1 X139.87563451776649 Y24.469543147208125
G1 X139.78934010152284 Y24.51522842639594
G1 X139.69543147208122 Y24.538071065989847
G1 X139.5989847715736 Y24.538071065989847
G1 X139.50507614213197 Y24.51522842639594
G1 X139.42131979695432 Y24.472081218274113
G1 X139.3477157360406 Y24.406091370558375
G1 X139.29187817258884 Y24.3248730964467
G1 X139.25888324873097 Y24.236040609137056
G1 X139.24619289340103 Y24.13959390862944
G1 X139.25888324873097 Y24.04568527918782
G1 X139.29187817258884 Y23.954314720812185
G1 X139.3477157360406 Y23.875634517766496
G1 X139.42131979695432 Y23.80964467005076
G1 X139.50507614213197 Y23.76649746192893
G1 X139.5989847715736 Y23.743654822335024
G0 Z10
G0 X335.9626903553299 Y24.538071065989847
G1 Z-1.5 F800
G1 X335.8654822335026 Y24.538071065989847 F1500
G1 X335.7715736040609 Y24.51522842639594
G1 X335.6852791878173 Y24.469543147208125
G1 X335.61421319796955 Y24.406091370558375
G1 X335.55837563451774 Y24.3248730964467
G1 X335.5253807106599 Y24.236040609137056
G1 X335.51269035532994 Y24.13959390862944
G1 X335.5253807106599 Y24.04568527918782
G1 X335.55837563451774 Y23.954314720812185
G1 X335.61421319796955 Y23.875634517766496
G1 X335.6852791878173 Y23.80964467005076
G1 X335.7715736040609 Y23.76649746192893
G1 X335.8654822335026 Y23.743654822335024
G1 X335.9619289340102 Y23.743654822335024
G1 X336.05583756345175 Y23.76649746192893
G1 X336.1395939086294 Y23.80964467005076
G1 X336.21319796954316 Y23.875634517766496
G1 X336.2690355329949 Y23.954314720812185
G1 X336.3020304568528 Y24.04568527918782
G1 X336.31472081218277 Y24.13959390862944
G1 X336.3020304568528 Y24.236040609137056
G1 X336.2690355329949 Y24.3248730964467
G1 X336.21319796954316 Y24.406091370558375
G1 X336.1395939086294 Y24.472081218274113
G1 X336.05583756345175 Y24.51522842639594
G1 X335.9619289340102 Y24.538071065989847
G0 Z10
G0 X169.1982233502538 Y23.743147208121826
G1 Z-1.5 F800
G1 X169.2969543147208 Y23.743654822335024 F1500
G1 X169.39086294416242 Y23.76649746192893
G1 X169.47461928934013 Y23.80964467005076
G1 X169.5482233502538 Y23.875634517766496
G1 X169.60406091370558 Y23.954314720812185
G1 X169.63705583756342 Y24.04568527918782
G1 X169.64720812182742 Y24.13959390862944
G1 X169.63705583756342 Y24.236040609137056
G1 X169.60406091370558 Y24.3248730964467
G1 X169.5482233502538 Y24.406091370558375
G1 X169.47461928934013 Y24.469543147208125
G1 X169.39086294416242 Y24.51522842639594
G1 X169.2969543147208 Y24.538071065989847
G1 X169.1979695431472 Y24.538071065989847
G1 X169.10406091370558 Y24.51522842639594
G1 X169.02030456852793 Y24.472081218274113
G1 X168.9467005076142 Y24.406091370558375
G1 X168.89340101522845 Y24.3248730964467
G1 X168.85786802030455 Y24.236040609137056
G1 X168.84771573604064 Y24.13959390862944
G1 X168.85786802030455 Y24.04568527918782
G1 X168.89340101522845 Y23.954314720812185
G1 X168.9467005076142 Y23.875634517766496
G1 X169.02030456852793 Y23.80964467005076
G1 X169.10406091370558 Y23.76649746192893
G1 X169.1979695431472 Y23.743654822335024
G0 Z10
G0 X139.69619289340102 Y40.74822335025381
G1 Z-1.5 F800
G1 X139.5989847715736 Y40.74873096446701 F1500
G1 X139.50507614213197 Y40.7258883248731
G1 X139.42131979695432 Y40.680203045685275
G1 X139.3477157360406 Y40.61675126903553
G1 X139.29187817258884 Y40.535532994923855
G1 X139.25888324873097 Y40.44670050761422
G1 X139.24619289340103 Y40.3502538071066
G1 X139.25888324873097 Y40.253807106598984
G1 X139.29187817258884 Y40.164974619289346
G1 X139.3477157360406 Y40.08375634517766
G1 X139.42131979695432 Y40.02030456852792
G1 X139.50507614213197 Y39.977157360406096
G1 X139.5989847715736 Y39.95431472081218
G1 X139.69543147208122 Y39.95431472081218
G1 X139.78934010152284 Y39.977157360406096
G1 X139.87563451776649 Y40.02030456852792
G1 X139.9467005076142 Y40.08375634517766
G1 X140.002538071066 Y40.164974619289346
G1 X140.03553299492387 Y40.253807106598984
G1 X140.0482233502538 Y40.3502538071066
G1 X140.03553299492387 Y40.44670050761422
G1 X140.002538071066 Y40.535532994923855
G1 X139.9467005076142 Y40.61675126903553
G1 X139.87563451776649 Y40.680203045685275
G1 X139.78934010152284 Y40.7258883248731
G1 X139.69543147208122 Y40.74873096446701
G0 Z10
G0 X169.1982233502538 Y233.25304568527918
G1 Z-1.5 F800
G1 X169.2969543147208 Y233.253807106599 F1500
G1 X169.39086294416242 Y233.2766497461929
G1 X169.47461928934013 Y233.3197969543147
G1 X169.5482233502538 Y233.38578680203045
G1 X169.60406091370558 Y233.46446700507613
G1 X169.63705583756342 Y233.55583756345175
G1 X169.64720812182742 Y233.64974619289342
G1 X169.63705583756342 Y233.74619289340103
G1 X169.60406091370558 Y233.83502538071068
G1 X169.5482233502538 Y233.91624365482232
G1 X169.47461928934013 Y233.9796954314721
G1 X169.39086294416242 Y234.0253807106599
G1 X169.2969543147208 Y234.0482233502538
G1 X169.1979695431472 Y234.0482233502538
G1 X169.10406091370558 Y234.0253807106599
G1 X169.02030456852793 Y233.98223350253807
G1 X168.9467005076142 Y233.91624365482232
G1 X168.89340101522845 Y233.83502538071068
G1 X168.85786802030455 Y233.74619289340103
G1 X168.84771573604064 Y233.64974619289342
G1 X168.85786802030455 Y233.55583756345175
G1 X168.89340101522845 Y233.46446700507613
G1 X168.9467005076142 Y233.38578680203045
G1 X169.02030456852793 Y233.3197969543147
G1 X169.10406091370558 Y233.2766497461929
G1 X169.1979695431472 Y233.253807106599
G0 Z10
G0 X450.0972081218274 Y232.43908629441626
G1 Z-3 F800
G1 X450.11675126903555 Y232.4492385786802 F1500
G1 X450.1319796954315 Y232.45939086294416
G1 X450.14720812182736 Y232.47208121827413
G1 X450.15736040609136 Y232.48477157360406
G1 X450.17005076142135 Y232.5
G1 X450.1802030456853 Y232.51776649746193
G1 X450.1852791878173 Y232.53299492385787
G1 X450.1928934010152 Y232.5532994923858
G1 X450.1954314720813 Y232.57360406091368
G1 X450.1954314720813 Y232.59137055837562
G1 X450.1954314720813 Y232.60913705583758
G1 X450.1928934010152 Y232.62944162436548
G1 X450.1852791878173 Y232.64720812182742
G1 X450.1802030456853 Y232.66243654822335
G1 X450.17005076142135 Y232.68020304568526
G1 X450.15736040609136 Y232.69796954314722
G1 X450.14720812182736 Y232.70812182741116
G1 X450.1319796954315 Y232.7208121827411
G1 X450.11675126903555 Y232.73096446700507
G1 X450.0964467005076 Y232.74111675126903
G1 X450.0812182741117 Y232.748730964467
G1 X450.06598984771574 Y232.751269035533
G1 X450.0431472081218 Y232.75634517766497
G1 X450.02538071065993 Y232.75634517766497
G1 X450.005076142132 Y232.753807106599
G1 X449.98730964467006 Y232.751269035533
G1 X449.9720812182741 Y232.74619289340103
G1 X449.9517766497462 Y232.73604060913704
G1 X449.93654822335026 Y232.72842639593907
G1 X449.9213197969543 Y232.71573604060916
G1 X449.9086294416244 Y232.7030456852792
G1 X449.8984771573604 Y232.69035532994923
G1 X449.88578680203045 Y232.67005076142135
G1 X449.87817258883246 Y232.6548223350254
G1 X449.8705583756345 Y232.63705583756345
G1 X449.8680203045685 Y232.61928934010155
G1 X449.8654822335026 Y232.5989847715736
G1 X449.8654822335026 Y232.58121827411168
G1 X449.8680203045685 Y232.56091370558377
G1 X449.8705583756345 Y232.5431472081218
G1 X449.87817258883246 Y232.52791878172587
G1 X449.88578680203045 Y232.51015228426397
G1 X449.8984771573604 Y232.48984771573603
G1 X449.9086294416244 Y232.47715736040607
G1 X449.9213197969543 Y232.46446700507616
G1 X449.93654822335026 Y232.4543147208122
G1 X449.9517766497462 Y232.44416243654823
G1 X449.9720812182741 Y232.43654822335026
G1 X449.98730964467006 Y232.43147208121826
G1 X450.005076142132 Y232.42639593908632
G1 X450.02538071065993 Y232.42639593908632
G1 X450.0431472081218 Y232.42639593908632
G1 X450.06598984771574 Y232.42893401015226
G1 X450.0812182741117 Y232.43401015228426
G1 X450.0964467005076 Y232.43908629441623
G1 X450.6261421319797 Y231.28223350253808 F1500
G1 X450.77411167512696 Y231.36040609137055 F1500
G1 X450.9086294416244 Y231.4517766497462
G1 X451.03299492385787 Y231.55837563451774
G1 X451.1421319796954 Y231.6802030456853
G1 X451.23857868020303 Y231.81218274111674
G1 X451.3223350253807 Y231.95685279187816
G1 X451.38324873096445 Y232.10659898477158
G1 X451.43147208121826 Y232.26395939086296
G1 X451.4593908629442 Y232.42639593908632
G1 X451.4695431472081 Y232.59137055837562
G1 X451.4593908629442 Y232.753807106599
G1 X451.43147208121826 Y232.91624365482235
G1 X451.38324873096445 Y233.07360406091368
G1 X451.3223350253807 Y233.2233502538071
G1 X451.23857868020303 Y233.36802030456852
G1 X451.1421319796954 Y233.502538071066
G1 X451.03299492385787 Y233.62182741116752
G1 X450.9086294416244 Y233.7284263959391
G1 X450.77411167512696 Y233.8197969543147
G1 X450.6269035532995 Y233.8984771573604
G1 X450.4746192893401 Y233.95939086294416
G1 X450.3172588832487 Y234
G1 X450.15228426395936 Y234.0228426395939
G1 X449.989847715736 Y234.0279187817259
G1 X449.8248730964467 Y234.01269035532994
G1 X449.6649746192893 Y233.98223350253807
G1 X449.51015228426394 Y233.9314720812183
G1 X449.3578680203046 Y233.86294416243655
G1 X449.2182741116751 Y233.7766497461929
G1 X449.0888324873097 Y233.6776649746193
G1 X448.9720812182741 Y233.56345177664974
G1 X448.8680203045686 Y233.43654822335026
G1 X448.7791878172589 Y233.29695431472084
G1 X448.70558375634516 Y233.14974619289342
G1 X448.6497461928934 Y232.997461928934
G1 X448.61421319796955 Y232.83502538071065
G1 X448.5939086294416 Y232.6725888324873
G1 X448.5939086294416 Y232.51015228426397
G1 X448.61421319796955 Y232.3451776649746
G1 X448.6497461928934 Y232.18527918781723
G1 X448.70558375634516 Y232.03299492385787
G1 X448.7791878172589 Y231.88578680203048
G1 X448.8680203045686 Y231.743654822335
G1 X448.9720812182741 Y231.61675126903555
G1 X449.0888324873097 Y231.50253807106597
G1 X449.2182741116751 Y231.4035532994924
G1 X449.3578680203046 Y231.3197969543147
G1 X449.51015228426394 Y231.25126903553297
G1 X449.6649746192893 Y231.20050761421322
G1 X449.8248730964467 Y231.16751269035532
G1 X449.989847715736 Y231.15482233502536
G1 X450.15228426395936 Y231.15736040609136
G1 X450.3172588832487 Y231.1827411167513
G1 X450.4746192893401 Y231.2233502538071
G1 X450.6269035532995 Y231.28172588832487
G1 X451.1553299492386 Y230.12563451776649 F1500
G1 X451.43147208121826 Y230.2715736040609 F1500
G1 X451.6852791878173 Y230.44416243654823
G1 X451.91878172588827 Y230.64720812182742
G1 X452.1269035532995 Y230.87563451776649
G1 X452.3096446700507 Y231.1243654822335
G1 X452.4619289340102 Y231.39593908629445
G1 X452.5837563451777 Y231.6802030456853
G1 X452.67005076142135 Y231.9771573604061
G1 X452.7233502538071 Y232.28172588832484
G1 X452.74111675126903 Y232.59137055837562
G1 X452.7233502538071 Y232.89847715736042
G1 X452.67005076142135 Y233.2055837563452
G1 X452.5837563451777 Y233.502538071066
G1 X452.4619289340102 Y233.78680203045687
G1 X452.3096446700507 Y234.05583756345177
G1 X452.1269035532995 Y234.30710659898477
G1 X451.91878172588827 Y234.53299492385787
G1 X451.6852791878173 Y234.73604060913704
G1 X451.43147208121826 Y234.91116751269035
G1 X451.1548223350254 Y235.05583756345177
G1 X450.8680203045685 Y235.16751269035535
G1 X450.57106598984774 Y235.24619289340103
G1 X450.26142131979697 Y235.28934010152284
G1 X449.9517766497462 Y235.2994923857868
G1 X449.6446700507614 Y235.2715736040609
G1 X449.34263959390864 Y235.21065989847716
G1 X449.0482233502538 Y235.11675126903555
G1 X448.76395939086296 Y234.98730964467003
G1 X448.5 Y234.8274111675127
G1 X448.25634517766497 Y234.63959390862942
G1 X448.03553299492387 Y234.42385786802032
G1 X447.83756345177665 Y234.1852791878173
G1 X447.67005076142135 Y233.92131979695432
G1 X447.53299492385787 Y233.64467005076142
G1 X447.43147208121826 Y233.35532994923858
G1 X447.3604060913706 Y233.0532994923858
G1 X447.3248730964467 Y232.74365482233503
G1 X447.3248730964467 Y232.43654822335026
G1 X447.3604060913706 Y232.12944162436548
G1 X447.43147208121826 Y231.8274111675127
G1 X447.53299492385787 Y231.53553299492387
G1 X447.67005076142135 Y231.25888324873097
G1 X447.83756345177665 Y230.99746192893403
G1 X448.03553299492387 Y230.756345177665
G1 X448.25634517766497 Y230.54314720812184
G1 X448.5 Y230.35279187817258
G1 X448.76395939086296 Y230.19543147208122
G1 X449.0482233502538 Y230.06598984771574
G1 X449.34263959390864 Y229.96954314720813
G1 X449.6446700507614 Y229.90862944162438
G1 X449.9517766497462 Y229.88324873096445
G1 X450.26142131979697 Y229.89086294416242
G1 X450.57106598984774 Y229.93401015228426
G1 X450.8680203045685 Y230.01269035532997
G1 X451.1548223350254 Y230.1243654822335
G0 Z10
G0 X450.0972081218274 Y25.139086294416245
G1 Z-3 F800
G1 X450.11675126903555 Y25.149746192893403 F1500
G1 X450.1319796954315 Y25.159898477157363
G1 X450.14720812182736 Y25.17258883248731
G1 X450.15736040609136 Y25.182741116751266
G1 X450.17005076142135 Y25.200507614213198
G1 X450.1802030456853 Y25.218274111675125
G1 X450.1852791878173 Y25.233502538071065
G1 X450.1928934010152 Y25.253807106598988
G1 X450.1954314720813 Y25.271573604060915
G1 X450.1954314720813 Y25.29187817258883
G1 X450.1954314720813 Y25.30964467005076
G1 X450.1928934010152 Y25.327411167512693
G1 X450.1852791878173 Y25.34771573604061
G1 X450.1802030456853 Y25.36294416243655
G1 X450.17005076142135 Y25.380710659898476
G1 X450.15736040609136 Y25.398477157360407
G1 X450.14720812182736 Y25.408629441624363
G1 X450.1319796954315 Y25.421319796954315
G1 X450.11675126903555 Y25.431472081218274
G1 X450.0964467005076 Y25.441624365482234
G1 X450.0812182741117 Y25.449238578680205
G1 X450.06598984771574 Y25.451776649746193
G1 X450.0431472081218 Y25.454314720812185
G1 X450.02538071065993 Y25.45685279187817
G1 X450.005076142132 Y25.454314720812185
G1 X449.98730964467006 Y25.451776649746193
G1 X449.9720812182741 Y25.444162436548226
G1 X449.9517766497462 Y25.436548223350254
G1 X449.93654822335026 Y25.42639593908629
G1 X449.9213197969543 Y25.416243654822335
G1 X449.9086294416244 Y25.403553299492387
G1 X449.8984771573604 Y25.390862944162436
G1 X449.88578680203045 Y25.37055837563452
G1 X449.87817258883246 Y25.35279187817259
G1 X449.8705583756345 Y25.33756345177665
G1 X449.8680203045685 Y25.31979695431472
G1 X449.8654822335026 Y25.299492385786802
G1 X449.8654822335026 Y25.28172588832487
G1 X449.8680203045685 Y25.261421319796952
G1 X449.8705583756345 Y25.243654822335024
G1 X449.87817258883246 Y25.22842639593909
G1 X449.88578680203045 Y25.21065989847716
G1 X449.8984771573604 Y25.190355329949238
G1 X449.9086294416244 Y25.17766497461929
G1 X449.9213197969543 Y25.16497461928934
G1 X449.93654822335026 Y25.154822335025383
G1 X449.9517766497462 Y25.14467005076142
G1 X449.9720812182741 Y25.13705583756345
G1 X449.98730964467006 Y25.129441624365484
G1 X450.005076142132 Y25.126903553299492
G1 X450.02538071065993 Y25.124365482233504
G1 X450.0431472081218 Y25.126903553299492
G1 X450.06598984771574 Y25.129441624365484
G1 X450.0812182741117 Y25.13197969543147
G1 X450.0964467005076 Y25.13959390862944
G1 X450.6261421319797 Y23.982233502538072 F1500
G1 X450.77411167512696 Y24.060913705583754 F1500
G1 X450.9086294416244 Y24.152284263959388
G1 X451.03299492385787 Y24.258883248730964
G1 X451.1421319796954 Y24.378172588832484
G1 X451.23857868020303 Y24.51269035532995
G1 X451.3223350253807 Y24.65736040609137
G1 X451.38324873096445 Y24.80710659898477
G1 X451.43147208121826 Y24.964467005076145
G1 X451.4593908629442 Y25.126903553299492
G1 X451.4695431472081 Y25.29187817258883
G1 X451.4593908629442 Y25.454314720812185
G1 X451.43147208121826 Y25.616751269035532
G1 X451.38324873096445 Y25.774111675126903
G1 X451.3223350253807 Y25.923857868020303
G1 X451.23857868020303 Y26.068527918781726
G1 X451.1421319796954 Y26.20304568527919
G1 X451.03299492385787 Y26.32233502538071
G1 X450.9086294416244 Y26.428934010152286
G1 X450.77411167512696 Y26.52030456852792
G1 X450.6269035532995 Y26.598984771573605
G1 X450.4746192893401 Y26.65736040609137
G1 X450.3172588832487 Y26.700507614213194
G1 X450.15228426395936 Y26.72335025380711
G1 X449.989847715736 Y26.72842639593909
G1 X449.8248730964467 Y26.713197969543145
G1 X449.6649746192893 Y26.680203045685282
G1 X449.51015228426394 Y26.629441624365484
G1 X449.3578680203046 Y26.560913705583754
G1 X449.2182741116751 Y26.477157360406093
G1 X449.0888324873097 Y26.378172588832488
G1 X448.9720812182741 Y26.263959390862944
G1 X448.8680203045686 Y26.13705583756345
G1 X448.7791878172589 Y25.99746192893401
G1 X448.70558375634516 Y25.850253807106597
G1 X448.6497461928934 Y25.69543147208122
G1 X448.61421319796955 Y25.53553299492386
G1 X448.5939086294416 Y25.373096446700508
G1 X448.5939086294416 Y25.20812182741117
G1 X448.61421319796955 Y25.04568527918782
G1 X448.6497461928934 Y24.88578680203046
G1 X448.70558375634516 Y24.730964467005077
G1 X448.7791878172589 Y24.583756345177665
G1 X448.8680203045686 Y24.444162436548226
G1 X448.9720812182741 Y24.31725888324873
G1 X449.0888324873097 Y24.203045685279186
G1 X449.2182741116751 Y24.10406091370558
G1 X449.3578680203046 Y24.02030456852792
G1 X449.51015228426394 Y23.951776649746193
G1 X449.6649746192893 Y23.901015228426395
G1 X449.8248730964467 Y23.868020304568528
G1 X449.989847715736 Y23.85279187817259
G1 X450.15228426395936 Y23.857868020304565
G1 X450.3172588832487 Y23.883248730964468
G1 X450.4746192893401 Y23.923857868020306
G1 X450.6269035532995 Y23.982233502538072
G1 X451.1553299492386 Y22.8256345177665 F1500
G1 X451.43147208121826 Y22.96954314720812 F1500
G1 X451.6852791878173 Y23.144670050761423
G1 X451.91878172588827 Y23.347715736040612
G1 X452.1269035532995 Y23.573604060913706
G1 X452.3096446700507 Y23.8248730964467
G1 X452.4619289340102 Y24.096446700507613
G1 X452.5837563451777 Y24.380710659898476
G1 X452.67005076142135 Y24.67766497461929
G1 X452.7233502538071 Y24.982233502538072
G1 X452.74111675126903 Y25.29187817258883
G1 X452.7233502538071 Y25.598984771573605
G1 X452.67005076142135 Y25.903553299492387
G1 X452.5837563451777 Y26.200507614213198
G1 X452.4619289340102 Y26.484771573604064
G1 X452.3096446700507 Y26.756345177664972
G1 X452.1269035532995 Y27.007614213197968
G1 X451.91878172588827 Y27.233502538071065
G1 X451.6852791878173 Y27.43654822335025
G1 X451.43147208121826 Y27.611675126903556
G1 X451.1548223350254 Y27.756345177664976
G1 X450.8680203045685 Y27.868020304568528
G1 X450.57106598984774 Y27.946700507614214
G1 X450.26142131979697 Y27.98984771573604
G1 X449.9517766497462 Y28
G1 X449.6446700507614 Y27.972081218274113
G1 X449.34263959390864 Y27.911167512690355
G1 X449.0482233502538 Y27.81725888324873
G1 X448.76395939086296 Y27.687817258883246
G1 X448.5 Y27.527918781725887
G1 X448.25634517766497 Y27.340101522842637
G1 X448.03553299492387 Y27.1243654822335
G1 X447.83756345177665 Y26.883248730964468
G1 X447.67005076142135 Y26.621827411167512
G1 X447.53299492385787 Y26.345177664974617
G1 X447.43147208121826 Y26.053299492385786
G1 X447.3604060913706 Y25.753807106598984
G1 X447.3248730964467 Y25.444162436548226
G1 X447.3248730964467 Y25.13705583756345
G1 X447.3604060913706 Y24.82741116751269
G1 X447.43147208121826 Y24.527918781725887
G1 X447.53299492385787 Y24.236040609137056
G1 X447.67005076142135 Y23.95939086294416
G1 X447.83756345177665 Y23.697969543147206
G1 X448.03553299492387 Y23.456852791878173
G1 X448.25634517766497 Y23.243654822335028
G1 X448.5 Y23.05329949238579
G1 X448.76395939086296 Y22.893401015228427
G1 X449.0482233502538 Y22.766497461928935
G1 X449.34263959390864 Y22.67005076142132
G1 X449.6446700507614 Y22.609137055837564
G1 X449.9517766497462 Y22.581218274111677
G1 X450.26142131979697 Y22.591370558375633
G1 X450.57106598984774 Y22.63451776649746
G1 X450.8680203045685 Y22.713197969543145
G1 X451.1548223350254 Y22.8248730964467
G0 Z10
G0 X25.516751269035534 Y232.73197969543148
G1 Z-3 F800
G1 X25.497461928934012 Y232.74365482233503 F1500
G1 X25.48223350253807 Y232.748730964467
G1 X25.467005076142133 Y232.751269035533
G1 X25.444162436548226 Y232.75634517766497
G1 X25.42639593908629 Y232.75634517766497
G1 X25.403553299492387 Y232.753807106599
G1 X25.388324873096447 Y232.751269035533
G1 X25.37055837563452 Y232.74619289340103
G1 X25.35279187817259 Y232.73604060913704
G1 X25.335025380710658 Y232.7258883248731
G1 X25.32233502538071 Y232.71573604060916
G1 X25.30964467005076 Y232.7055837563452
G1 X25.296954314720814 Y232.69035532994923
G1 X25.28680203045685 Y232.67005076142135
G1 X25.276649746192895 Y232.6548223350254
G1 X25.271573604060915 Y232.63705583756345
G1 X25.266497461928935 Y232.61928934010155
G1 X25.263959390862944 Y232.5989847715736
G1 X25.263959390862944 Y232.58121827411168
G1 X25.266497461928935 Y232.56345177664974
G1 X25.271573604060915 Y232.5431472081218
G1 X25.276649746192895 Y232.52538071065987
G1 X25.28680203045685 Y232.51015228426397
G1 X25.296954314720814 Y232.49238578680203
G1 X25.30964467005076 Y232.47715736040607
G1 X25.32233502538071 Y232.46446700507616
G1 X25.335025380710658 Y232.4543147208122
G1 X25.35279187817259 Y232.44416243654823
G1 X25.37055837563452 Y232.43654822335026
G1 X25.388324873096447 Y232.43147208121826
G1 X25.403553299492387 Y232.42639593908632
G1 X25.42639593908629 Y232.42639593908632
G1 X25.444162436548226 Y232.42639593908632
G1 X25.467005076142133 Y232.42893401015226
G1 X25.48223350253807 Y232.43401015228426
G1 X25.497461928934012 Y232.43908629441623
G1 X25.51776649746193 Y232.4492385786802
G1 X25.532994923857867 Y232.46192893401016
G1 X25.54568527918782 Y232.47208121827413
G1 X25.558375634517766 Y232.48477157360406
G1 X25.568527918781726 Y232.5
G1 X25.578680203045685 Y232.51776649746193
G1 X25.586294416243653 Y232.53553299492384
G1 X25.591370558375633 Y232.5532994923858
G1 X25.596446700507617 Y232.57106598984774
G1 X25.596446700507617 Y232.59137055837562
G1 X25.596446700507617 Y232.60913705583758
G1 X25.591370558375633 Y232.62690355329948
G1 X25.586294416243653 Y232.64720812182742
G1 X25.578680203045685 Y232.66497461928935
G1 X25.568527918781726 Y232.68020304568526
G1 X25.558375634517766 Y232.69543147208122
G1 X25.54568527918782 Y232.70812182741116
G1 X25.532994923857867 Y232.7208121827411
G1 X25.51776649746193 Y232.73096446700507
G1 X26.173604060913707 Y233.82131979695433 F1500
G1 X26.0253807106599 Y233.8984771573604 F1500
G1 X25.875634517766496 Y233.95939086294416
G1 X25.71827411167513 Y234
G1 X25.55329949238579 Y234.0228426395939
G1 X25.388324873096447 Y234.0279187817259
G1 X25.22335025380711 Y234.01269035532994
G1 X25.06345177664975 Y233.98223350253807
G1 X24.908629441624367 Y233.9314720812183
G1 X24.758883248730964 Y233.86294416243655
G1 X24.619289340101524 Y233.7766497461929
G1 X24.48984771573604 Y233.6776649746193
G1 X24.373096446700508 Y233.56345177664974
G1 X24.269035532994923 Y233.43654822335026
G1 X24.17766497461929 Y233.29695431472084
G1 X24.106598984771573 Y233.14974619289342
G1 X24.050761421319798 Y232.99492385786803
G1 X24.012690355329948 Y232.83502538071065
G1 X23.99492385786802 Y232.6725888324873
G1 X23.99492385786802 Y232.51015228426397
G1 X24.012690355329948 Y232.3451776649746
G1 X24.050761421319798 Y232.18527918781723
G1 X24.106598984771573 Y232.0304568527919
G1 X24.17766497461929 Y231.88578680203048
G1 X24.269035532994923 Y231.743654822335
G1 X24.373096446700508 Y231.61675126903555
G1 X24.48984771573604 Y231.50253807106597
G1 X24.619289340101524 Y231.4035532994924
G1 X24.758883248730964 Y231.3197969543147
G1 X24.908629441624367 Y231.25126903553297
G1 X25.06345177664975 Y231.20050761421322
G1 X25.22335025380711 Y231.16751269035532
G1 X25.388324873096447 Y231.15482233502536
G1 X25.55329949238579 Y231.15736040609136
G1 X25.71827411167513 Y231.1827411167513
G1 X25.875634517766496 Y231.2233502538071
G1 X26.0253807106599 Y231.28172588832487
G1 X26.17258883248731 Y231.36040609137055
G1 X26.30964467005076 Y231.4517766497462
G1 X26.434010152284266 Y231.55837563451774
G1 X26.543147208121827 Y231.6802030456853
G1 X26.63959390862944 Y231.81218274111674
G1 X26.720812182741117 Y231.95685279187816
G1 X26.784263959390863 Y232.10659898477158
G1 X26.829949238578678 Y232.26395939086296
G1 X26.85786802030457 Y232.42639593908632
G1 X26.868020304568528 Y232.59137055837562
G1 X26.85786802030457 Y232.753807106599
G1 X26.829949238578678 Y232.91624365482235
G1 X26.784263959390863 Y233.07360406091368
G1 X26.720812182741117 Y233.2258883248731
G1 X26.63959390862944 Y233.36802030456852
G1 X26.543147208121827 Y233.5
G1 X26.434010152284266 Y233.62182741116752
G1 X26.30964467005076 Y233.7284263959391
G1 X26.17258883248731 Y233.8223350253807
G1 X26.83020304568528 Y234.91091370558377 F1500
G1 X26.555837563451774 Y235.05583756345177 F1500
G1 X26.269035532994923 Y235.16751269035535
G1 X25.96954314720812 Y235.24619289340103
G1 X25.66243654822335 Y235.28934010152284
G1 X25.35279187817259 Y235.2994923857868
G1 X25.043147208121827 Y235.2715736040609
G1 X24.741116751269033 Y235.21065989847716
G1 X24.44670050761421 Y235.11675126903555
G1 X24.16497461928934 Y234.98730964467003
G1 X23.901015228426395 Y234.8274111675127
G1 X23.654822335025383 Y234.63959390862942
G1 X23.434010152284266 Y234.42385786802032
G1 X23.238578680203045 Y234.1827411167513
G1 X23.071065989847718 Y233.92131979695432
G1 X22.934010152284262 Y233.64467005076142
G1 X22.829949238578678 Y233.3527918781726
G1 X22.761421319796952 Y233.0532994923858
G1 X22.725888324873097 Y232.74365482233503
G1 X22.725888324873097 Y232.43654822335026
G1 X22.761421319796952 Y232.12944162436548
G1 X22.829949238578678 Y231.8274111675127
G1 X22.934010152284262 Y231.53553299492387
G1 X23.071065989847718 Y231.25888324873097
G1 X23.238578680203045 Y230.99746192893403
G1 X23.434010152284266 Y230.756345177665
G1 X23.654822335025383 Y230.54314720812184
G1 X23.901015228426395 Y230.35279187817258
G1 X24.16497461928934 Y230.19543147208122
G1 X24.44670050761421 Y230.06598984771574
G1 X24.741116751269033 Y229.96954314720813
G1 X25.043147208121827 Y229.90862944162438
G1 X25.35279187817259 Y229.88324873096445
G1 X25.66243654822335 Y229.89086294416242
G1 X25.96954314720812 Y229.93401015228426
G1 X26.269035532994923 Y230.01269035532997
G1 X26.555837563451774 Y230.1243654822335
G1 X26.829949238578678 Y230.2715736040609
G1 X27.086294416243657 Y230.44416243654823
G1 X27.319796954314718 Y230.64720812182742
G1 X27.527918781725887 Y230.87563451776649
G1 X27.71065989847716 Y231.1243654822335
G1 X27.86294416243655 Y231.39593908629445
G1 X27.98223350253807 Y231.6802030456853
G1 X28.071065989847718 Y231.9771573604061
G1 X28.121827411167516 Y232.28172588832484
G1 X28.139593908629443 Y232.59137055837562
G1 X28.121827411167516 Y232.89847715736042
G1 X28.071065989847718 Y233.2055837563452
G1 X27.98223350253807 Y233.5
G1 X27.86294416243655 Y233.78680203045687
G1 X27.71065989847716 Y234.05583756345177
G1 X27.527918781725887 Y234.30710659898477
G1 X27.319796954314718 Y234.53299492385787
G1 X27.086294416243657 Y234.73604060913704
G1 X26.829949238578678 Y234.91116751269035
G0 Z10
G0 X25.496700507614214 Y25.138832487309646
G1 Z-3 F800
G1 X25.51776649746193 Y25.149746192893403 F1500
G1 X25.532994923857867 Y25.159898477157363
G1 X25.54568527918782 Y25.17258883248731
G1 X25.558375634517766 Y25.185279187817258
G1 X25.568527918781726 Y25.200507614213198
G1 X25.578680203045685 Y25.218274111675125
G1 X25.586294416243653 Y25.236040609137053
G1 X25.591370558375633 Y25.253807106598988
G1 X25.596446700507617 Y25.271573604060915
G1 X25.596446700507617 Y25.29187817258883
G1 X25.596446700507617 Y25.30964467005076
G1 X25.591370558375633 Y25.327411167512693
G1 X25.586294416243653 Y25.34517766497462
G1 X25.578680203045685 Y25.365482233502537
G1 X25.568527918781726 Y25.380710659898476
G1 X25.558375634517766 Y25.395939086294415
G1 X25.54568527918782 Y25.408629441624363
G1 X25.532994923857867 Y25.421319796954315
G1 X25.51776649746193 Y25.431472081218274
G1 X25.497461928934012 Y25.441624365482234
G1 X25.48223350253807 Y25.449238578680205
G1 X25.467005076142133 Y25.451776649746193
G1 X25.444162436548226 Y25.454314720812185
G1 X25.42639593908629 Y25.45685279187817
G1 X25.403553299492387 Y25.454314720812185
G1 X25.388324873096447 Y25.451776649746193
G1 X25.37055837563452 Y25.446700507614214
G1 X25.35279187817259 Y25.436548223350254
G1 X25.335025380710658 Y25.42639593908629
G1 X25.32233502538071 Y25.416243654822335
G1 X25.30964467005076 Y25.403553299492387
G1 X25.296954314720814 Y25.390862944162436
G1 X25.28680203045685 Y25.37055837563452
G1 X25.276649746192895 Y25.35532994923858
G1 X25.271573604060915 Y25.33756345177665
G1 X25.266497461928935 Y25.31725888324873
G1 X25.263959390862944 Y25.299492385786802
G1 X25.263959390862944 Y25.28172588832487
G1 X25.266497461928935 Y25.263959390862944
G1 X25.271573604060915 Y25.243654822335024
G1 X25.276649746192895 Y25.225888324873097
G1 X25.28680203045685 Y25.21065989847716
G1 X25.296954314720814 Y25.190355329949238
G1 X25.30964467005076 Y25.17766497461929
G1 X25.32233502538071 Y25.16497461928934
G1 X25.335025380710658 Y25.154822335025383
G1 X25.35279187817259 Y25.14467005076142
G1 X25.37055837563452 Y25.13451776649746
G1 X25.388324873096447 Y25.129441624365484
G1 X25.403553299492387 Y25.126903553299492
G1 X25.42639593908629 Y25.124365482233504
G1 X25.444162436548226 Y25.126903553299492
G1 X25.467005076142133 Y25.129441624365484
G1 X25.48223350253807 Y25.13197969543147
G1 X25.497461928934012 Y25.13959390862944
G1 X26.025888324873097 Y23.982233502538072 F1500
G1 X26.17258883248731 Y24.060913705583754 F1500
G1 X26.30964467005076 Y24.152284263959388
G1 X26.434010152284266 Y24.258883248730964
G1 X26.543147208121827 Y24.380710659898476
G1 X26.63959390862944 Y24.51269035532995
G1 X26.720812182741117 Y24.65482233502538
G1 X26.784263959390863 Y24.80710659898477
G1 X26.829949238578678 Y24.964467005076145
G1 X26.85786802030457 Y25.126903553299492
G1 X26.868020304568528 Y25.29187817258883
G1 X26.85786802030457 Y25.454314720812185
G1 X26.829949238578678 Y25.616751269035532
G1 X26.784263959390863 Y25.774111675126903
G1 X26.720812182741117 Y25.926395939086294
G1 X26.63959390862944 Y26.068527918781726
G1 X26.543147208121827 Y26.200507614213198
G1 X26.434010152284266 Y26.32233502538071
G1 X26.30964467005076 Y26.428934010152286
G1 X26.17258883248731 Y26.52030456852792
G1 X26.0253807106599 Y26.598984771573605
G1 X25.875634517766496 Y26.65736040609137
G1 X25.71827411167513 Y26.700507614213194
G1 X25.55329949238579 Y26.72335025380711
G1 X25.388324873096447 Y26.72842639593909
G1 X25.22335025380711 Y26.713197969543145
G1 X25.06345177664975 Y26.680203045685282
G1 X24.908629441624367 Y26.631979695431475
G1 X24.758883248730964 Y26.560913705583754
G1 X24.619289340101524 Y26.477157360406093
G1 X24.48984771573604 Y26.378172588832488
G1 X24.373096446700508 Y26.263959390862944
G1 X24.269035532994923 Y26.13705583756345
G1 X24.17766497461929 Y25.99746192893401
G1 X24.106598984771573 Y25.850253807106597
G1 X24.050761421319798 Y25.69543147208122
G1 X24.012690355329948 Y25.53553299492386
G1 X23.99492385786802 Y25.373096446700508
G1 X23.99492385786802 Y25.20812182741117
G1 X24.012690355329948 Y25.04568527918782
G1 X24.050761421319798 Y24.88578680203046
G1 X24.106598984771573 Y24.730964467005077
G1 X24.17766497461929 Y24.583756345177665
G1 X24.269035532994923 Y24.444162436548226
G1 X24.373096446700508 Y24.31725888324873
G1 X24.48984771573604 Y24.203045685279186
G1 X24.619289340101524 Y24.10406091370558
G1 X24.758883248730964 Y24.02030456852792
G1 X24.908629441624367 Y23.949238578680202
G1 X25.06345177664975 Y23.901015228426395
G1 X25.22335025380711 Y23.868020304568528
G1 X25.388324873096447 Y23.85279187817259
G1 X25.55329949238579 Y23.857868020304565
G1 X25.71827411167513 Y23.883248730964468
G1 X25.875634517766496 Y23.923857868020306
G1 X26.0253807106599 Y23.982233502538072
G1 X26.55532994923858 Y22.8253807106599 F1500
G1 X26.829949238578678 Y22.96954314720812 F1500
G1 X27.086294416243657 Y23.144670050761423
G1 X27.319796954314718 Y23.347715736040612
G1 X27.527918781725887 Y23.576142131979694
G1 X27.71065989847716 Y23.8248730964467
G1 X27.86294416243655 Y24.093908629441625
G1 X27.98223350253807 Y24.380710659898476
G1 X28.071065989847718 Y24.67766497461929
G1 X28.121827411167516 Y24.982233502538072
G1 X28.139593908629443 Y25.29187817258883
G1 X28.121827411167516 Y25.598984771573605
G1 X28.071065989847718 Y25.903553299492387
G1 X27.98223350253807 Y26.200507614213198
G1 X27.86294416243655 Y26.48730964467005
G1 X27.71065989847716 Y26.756345177664972
G1 X27.527918781725887 Y27.00507614213198
G1 X27.319796954314718 Y27.233502538071065
G1 X27.086294416243657 Y27.43654822335025
G1 X26.829949238578678 Y27.611675126903556
G1 X26.555837563451774 Y27.756345177664976
G1 X26.269035532994923 Y27.868020304568528
G1 X25.96954314720812 Y27.946700507614214
G1 X25.66243654822335 Y27.98984771573604
G1 X25.35279187817259 Y28
G1 X25.043147208121827 Y27.972081218274113
G1 X24.741116751269033 Y27.911167512690355
G1 X24.44670050761421 Y27.81725888324873
G1 X24.16497461928934 Y27.687817258883246
G1 X23.901015228426395 Y27.527918781725887
G1 X23.654822335025383 Y27.340101522842637
G1 X23.434010152284266 Y27.1243654822335
G1 X23.238578680203045 Y26.883248730964468
G1 X23.071065989847718 Y26.621827411167512
G1 X22.934010152284262 Y26.345177664974617
G1 X22.829949238578678 Y26.053299492385786
G1 X22.761421319796952 Y25.751269035532992
G1 X22.725888324873097 Y25.444162436548226
G1 X22.725888324873097 Y25.13705583756345
G1 X22.761421319796952 Y24.82994923857868
G1 X22.829949238578678 Y24.527918781725887
G1 X22.934010152284262 Y24.236040609137056
G1 X23.071065989847718 Y23.95939086294416
G1 X23.238578680203045 Y23.697969543147206
G1 X23.434010152284266 Y23.456852791878173
G1 X23.654822335025383 Y23.241116751269036
G1 X23.901015228426395 Y23.05329949238579
G1 X24.16497461928934 Y22.893401015228427
G1 X24.44670050761421 Y22.763959390862944
G1 X24.741116751269033 Y22.67005076142132
G1 X25.043147208121827 Y22.609137055837564
G1 X25.35279187817259 Y22.581218274111677
G1 X25.66243654822335 Y22.591370558375633
G1 X25.96954314720812 Y22.63451776649746
G1 X26.269035532994923 Y22.713197969543145
G1 X26.555837563451774 Y22.8248730964467
G0 Z10
G0 X251.04796954314722 Y143.20913705583757
G1 Z-3 F800
G1 X251.10406091370555 Y143.31979695431474 F1500
G1 X251.1243654822335 Y143.44162436548226
G1 X251.10406091370555 Y143.56345177664974
G1 X251.0482233502538 Y143.6725888324873
G1 X250.96192893401013 Y143.75888324873097
G1 X250.8527918781726 Y143.81472081218274
G1 X250.73096446700507 Y143.83248730964468
G1 X250.60913705583758 Y143.81472081218274
G1 X250.5 Y143.75888324873097
G1 X250.41370558375635 Y143.6725888324873
G1 X250.35786802030458 Y143.56345177664974
G1 X250.33756345177665 Y143.44162436548226
G1 X250.35786802030458 Y143.31979695431474
G1 X250.41370558375635 Y143.20812182741116
G1 X250.5 Y143.12436548223351
G1 X250.60913705583758 Y143.06852791878174
G1 X250.73096446700507 Y143.0482233502538
G1 X250.8527918781726 Y143.06852791878174
G1 X250.96192893401013 Y143.12436548223351
G1 X251.0482233502538 Y143.20812182741116
G0 Z10
G0 X224.60888324873096 Y143.81395939086295
G1 Z-3 F800
G1 X224.5 Y143.75888324873097 F1500
G1 X224.41370558375635 Y143.6725888324873
G1 X224.35786802030458 Y143.56345177664974
G1 X224.33756345177667 Y143.44162436548226
G1 X224.35786802030458 Y143.31979695431474
G1 X224.41370558375635 Y143.20812182741116
G1 X224.5 Y143.12436548223351
G1 X224.60913705583755 Y143.06852791878174
G1 X224.73096446700507 Y143.0482233502538
G1 X224.85279187817258 Y143.06852791878174
G1 X224.96192893401016 Y143.12436548223351
G1 X225.0482233502538 Y143.20812182741116
G1 X225.10406091370558 Y143.31979695431474
G1 X225.1243654822335 Y143.44162436548226
G1 X225.10406091370558 Y143.56345177664974
G1 X225.0482233502538 Y143.6725888324873
G1 X224.96192893401016 Y143.75888324873097
G1 X224.85279187817258 Y143.81472081218274
G1 X224.73096446700507 Y143.83248730964468
G1 X224.60913705583755 Y143.81472081218274
G0 Z10
G0 X250.96192893401016 Y114.75812182741117
G1 Z-3 F800
G1 X250.8527918781726 Y114.81472081218274 F1500
G1 X250.73096446700507 Y114.83248730964468
G1 X250.60913705583758 Y114.81472081218274
G1 X250.5 Y114.75888324873097
G1 X250.41370558375635 Y114.6725888324873
G1 X250.35786802030458 Y114.56345177664974
G1 X250.33756345177665 Y114.44162436548224
G1 X250.35786802030458 Y114.31979695431473
G1 X250.41370558375635 Y114.20812182741116
G1 X250.5 Y114.12436548223351
G1 X250.60913705583758 Y114.06852791878173
G1 X250.73096446700507 Y114.0482233502538
G1 X250.8527918781726 Y114.06852791878173
G1 X250.96192893401013 Y114.12436548223351
G1 X251.0482233502538 Y114.20812182741116
G1 X251.10406091370555 Y114.31979695431473
G1 X251.1243654822335 Y114.44162436548224
G1 X251.10406091370555 Y114.56345177664974
G1 X251.0482233502538 Y114.6725888324873
G1 X250.96192893401013 Y114.75888324873097
G0 Z10
G0 X224.41319796954315 Y114.67208121827412
G1 Z-3 F800
G1 X224.35786802030458 Y114.56345177664974 F1500
G1 X224.33756345177667 Y114.44162436548224
G1 X224.35786802030458 Y114.31979695431473
G1 X224.41370558375635 Y114.20812182741116
G1 X224.5 Y114.12436548223351
G1 X224.60913705583755 Y114.06852791878173
G1 X224.73096446700507 Y114.0482233502538
G1 X224.85279187817258 Y114.06852791878173
G1 X224.96192893401016 Y114.12436548223351
G1 X225.0482233502538 Y114.20812182741116
G1 X225.10406091370558 Y114.31979695431473
G1 X225.1243654822335 Y114.44162436548224
G1 X225.10406091370558 Y114.56345177664974
G1 X225.0482233502538 Y114.6725888324873
G1 X224.96192893401016 Y114.75888324873097
G1 X224.85279187817258 Y114.81472081218274
G1 X224.73096446700507 Y114.83248730964468
G1 X224.60913705583755 Y114.81472081218274
G1 X224.5 Y114.75888324873097
G1 X224.41370558375635 Y114.6725888324873
G0 Z10
G0 X335.8647208121827 Y233.25304568527918
G1 Z-3 F800
G1 X335.9619289340102 Y233.253807106599 F1500
G1 X336.05583756345175 Y233.2766497461929
G1 X336.1395939086294 Y233.3197969543147
G1 X336.21319796954316 Y233.38578680203045
G1 X336.2690355329949 Y233.46446700507613
G1 X336.3020304568528 Y233.55583756345175
G1 X336.31472081218277 Y233.64974619289342
G1 X336.3020304568528 Y233.74619289340103
G1 X336.2690355329949 Y233.83502538071068
G1 X336.21319796954316 Y233.91624365482232
G1 X336.1395939086294 Y233.98223350253807
G1 X336.05583756345175 Y234.0253807106599
G1 X335.9619289340102 Y234.0482233502538
G1 X335.8654822335026 Y234.0482233502538
G1 X335.7715736040609 Y234.0253807106599
G1 X335.6852791878173 Y233.9796954314721
G1 X335.61421319796955 Y233.91624365482232
G1 X335.55837563451774 Y233.83502538071068
G1 X335.5253807106599 Y233.74619289340103
G1 X335.51269035532994 Y233.64974619289342
G1 X335.5253807106599 Y233.55583756345175
G1 X335.55837563451774 Y233.46446700507613
G1 X335.61421319796955 Y233.38578680203045
G1 X335.6852791878173 Y233.3197969543147
G1 X335.7715736040609 Y233.2766497461929
G1 X335.8654822335026 Y233.253807106599
G0 Z10
G0 X306.26472081218276 Y217.04314720812184
G1 Z-3 F800
G1 X306.3629441624365 Y217.0431472081218 F1500
G1 X306.4568527918782 Y217.06598984771574
G1 X306.54060913705587 Y217.10913705583755
G1 X306.61421319796955 Y217.17512690355332
G1 X306.6700507614213 Y217.25634517766497
G1 X306.70304568527916 Y217.3451776649746
G1 X306.71319796954316 Y217.44162436548223
G1 X306.70304568527916 Y217.53553299492384
G1 X306.6700507614213 Y217.62690355329948
G1 X306.61421319796955 Y217.7055837563452
G1 X306.54060913705587 Y217.7715736040609
G1 X306.4568527918782 Y217.81472081218277
G1 X306.3629441624365 Y217.83756345177665
G1 X306.26395939086296 Y217.83756345177665
G1 X306.1700507614213 Y217.81472081218277
G1 X306.0862944162437 Y217.7715736040609
G1 X306.01269035532994 Y217.7055837563452
G1 X305.95939086294413 Y217.62690355329948
G1 X305.9238578680203 Y217.53553299492384
G1 X305.9137055837563 Y217.44162436548223
G1 X305.9238578680203 Y217.3451776649746
G1 X305.95939086294413 Y217.25634517766497
G1 X306.01269035532994 Y217.17512690355332
G1 X306.0862944162437 Y217.11167512690355
G1 X306.1700507614213 Y217.06598984771574
G1 X306.26395939086296 Y217.0431472081218
G0 Z10
G0 X139.59822335025382 Y233.25304568527918
G1 Z-3 F800
G1 X139.69543147208122 Y233.253807106599 F1500
G1 X139.78934010152284 Y233.2766497461929
G1 X139.87563451776649 Y233.3197969543147
G1 X139.9467005076142 Y233.38578680203045
G1 X140.002538071066 Y233.46446700507613
G1 X140.03553299492387 Y233.55583756345175
G1 X140.0482233502538 Y233.64974619289342
G1 X140.03553299492387 Y233.74619289340103
G1 X140.002538071066 Y233.83502538071068
G1 X139.9467005076142 Y233.91624365482232
G1 X139.87563451776649 Y233.9796954314721
G1 X139.78934010152284 Y234.0253807106599
G1 X139.69543147208122 Y234.0482233502538
G1 X139.5989847715736 Y234.0482233502538
G1 X139.50507614213197 Y234.0253807106599
G1 X139.42131979695432 Y233.98223350253807
G1 X139.3477157360406 Y233.91624365482232
G1 X139.29187817258884 Y233.83502538071068
G1 X139.25888324873097 Y233.74619289340103
G1 X139.24619289340103 Y233.64974619289342
G1 X139.25888324873097 Y233.55583756345175
G1 X139.29187817258884 Y233.46446700507613
G1 X139.3477157360406 Y233.38578680203045
G1 X139.42131979695432 Y233.3197969543147
G1 X139.50507614213197 Y233.2766497461929
G1 X139.5989847715736 Y233.253807106599
G0 Z10
G0 X335.9626903553299 Y40.74822335025381
G1 Z-3 F800
G1 X335.8654822335026 Y40.74873096446701 F1500
G1 X335.7715736040609 Y40.7258883248731
G1 X335.6852791878173 Y40.680203045685275
G1 X335.61421319796955 Y40.61675126903553
G1 X335.55837563451774 Y40.535532994923855
G1 X335.5253807106599 Y40.44670050761422
G1 X335.51269035532994 Y40.3502538071066
G1 X335.5253807106599 Y40.253807106598984
G1 X335.55837563451774 Y40.164974619289346
G1 X335.61421319796955 Y40.08375634517766
G1 X335.6852791878173 Y40.02030456852792
G1 X335.7715736040609 Y39.977157360406096
G1 X335.8654822335026 Y39.95431472081218
G1 X335.9619289340102 Y39.95431472081218
G1 X336.05583756345175 Y39.977157360406096
G1 X336.1395939086294 Y40.02030456852792
G1 X336.21319796954316 Y40.08375634517766
G1 X336.2690355329949 Y40.164974619289346
G1 X336.3020304568528 Y40.253807106598984
G1 X336.31472081218277 Y40.3502538071066
G1 X336.3020304568528 Y40.44670050761422
G1 X336.2690355329949 Y40.535532994923855
G1 X336.21319796954316 Y40.61675126903553
G1 X336.1395939086294 Y40.680203045685275
G1 X336.05583756345175 Y40.7258883248731
G1 X335.9619289340102 Y40.74873096446701
G0 Z10
G0 X306.26472081218276 Y233.25304568527918
G1 Z-3 F800
G1 X306.3629441624365 Y233.253807106599 F1500
G1 X306.4568527918782 Y233.2766497461929
G1 X306.54060913705587 Y233.3197969543147
G1 X306.61421319796955 Y233.38578680203045
G1 X306.6700507614213 Y233.46446700507613
G1 X306.70304568527916 Y233.55583756345175
G1 X306.71319796954316 Y233.64974619289342
G1 X306.70304568527916 Y233.74619289340103
G1 X306.6700507614213 Y233.83502538071068
G1 X306.61421319796955 Y233.91624365482232
G1 X306.54060913705587 Y233.98223350253807
G1 X306.4568527918782 Y234.0253807106599
G1 X306.3629441624365 Y234.0482233502538
G1 X306.26395939086296 Y234.0482233502538
G1 X306.1700507614213 Y234.0253807106599
G1 X306.0862944162437 Y233.9796954314721
G1 X306.01269035532994 Y233.91624365482232
G1 X305.95939086294413 Y233.83502538071068
G1 X305.9238578680203 Y233.74619289340103
G1 X305.9137055837563 Y233.64974619289342
G1 X305.9238578680203 Y233.55583756345175
G1 X305.95939086294413 Y233.46446700507613
G1 X306.01269035532994 Y233.38578680203045
G1 X306.0862944162437 Y233.3197969543147
G1 X306.1700507614213 Y233.2766497461929
G1 X306.26395939086296 Y233.253807106599
G0 Z10
G0 X169.296192893401 Y217.83807106598985
G1 Z-3 F800
G1 X169.1979695431472 Y217.83756345177665 F1500
G1 X169.10406091370558 Y217.81472081218277
G1 X169.02030456852793 Y217.7715736040609
G1 X168.9467005076142 Y217.7055837563452
G1 X168.89340101522845 Y217.62690355329948
G1 X168.85786802030455 Y217.53553299492384
G1 X168.84771573604064 Y217.44162436548223
G1 X168.85786802030455 Y217.3451776649746
G1 X168.89340101522845 Y217.25634517766497
G1 X168.9467005076142 Y217.17512690355332
G1 X169.02030456852793 Y217.10913705583755
G1 X169.10406091370558 Y217.06598984771574
G1 X169.1979695431472 Y217.0431472081218
G1 X169.2969543147208 Y217.0431472081218
G1 X169.39086294416242 Y217.06598984771574
G1 X169.47461928934013 Y217.11167512690355
G1 X169.5482233502538 Y217.17512690355332
G1 X169.60406091370558 Y217.25634517766497
G1 X169.63705583756342 Y217.3451776649746
G1 X169.64720812182742 Y217.44162436548223
G1 X169.63705583756342 Y217.53553299492384
G1 X169.60406091370558 Y217.62690355329948
G1 X169.5482233502538 Y217.7055837563452
G1 X169.47461928934013 Y217.7715736040609
G1 X169.39086294416242 Y217.81472081218277
G1 X169.2969543147208 Y217.83756345177665
G0 Z10
G0 X139.59822335025382 Y217.04314720812184
G1 Z-3 F800
G1 X139.69543147208122 Y217.0431472081218 F1500
G1 X139.78934010152284 Y217.06598984771574
G1 X139.87563451776649 Y217.11167512690355
G1 X139.9467005076142 Y217.17512690355332
G1 X140.002538071066 Y217.25634517766497
G1 X140.03553299492387 Y217.3451776649746
G1 X140.0482233502538 Y217.44162436548223
G1 X140.03553299492387 Y217.53553299492384
G1 X140.002538071066 Y217.62690355329948
G1 X139.9467005076142 Y217.7055837563452
G1 X139.87563451776649 Y217.7715736040609
G1 X139.78934010152284 Y217.81472081218277
G1 X139.69543147208122 Y217.83756345177665
G1 X139.5989847715736 Y217.83756345177665
G1 X139.50507614213197 Y217.81472081218277
G1 X139.42131979695432 Y217.7715736040609
G1 X139.3477157360406 Y217.7055837563452
G1 X139.29187817258884 Y217.62690355329948
G1 X139.25888324873097 Y217.53553299492384
G1 X139.24619289340103 Y217.44162436548223
G1 X139.25888324873097 Y217.3451776649746
G1 X139.29187817258884 Y217.25634517766497
G1 X139.3477157360406 Y217.17512690355332
G1 X139.42131979695432 Y217.10913705583755
G1 X139.50507614213197 Y217.06598984771574
G1 X139.5989847715736 Y217.0431472081218
G0 Z10
G0 X306.26472081218276 Y23.743147208121826
G1 Z-3 F800
G1 X306.3629441624365 Y23.743654822335024 F1500
G1 X306.4568527918782 Y23.76649746192893
G1 X306.54060913705587 Y23.80964467005076
G1 X306.61421319796955 Y23.875634517766496
G1 X306.6700507614213 Y23.954314720812185
G1 X306.70304568527916 Y24.04568527918782
G1 X306.71319796954316 Y24.13959390862944
G1 X306.70304568527916 Y24.236040609137056
G1 X306.6700507614213 Y24.3248730964467
G1 X306.61421319796955 Y24.406091370558375
G1 X306.54060913705587 Y24.472081218274113
G1 X306.4568527918782 Y24.51522842639594
G1 X306.3629441624365 Y24.538071065989847
G1 X306.26395939086296 Y24.538071065989847
G1 X306.1700507614213 Y24.51522842639594
G1 X306.0862944162437 Y24.469543147208125
G1 X306.01269035532994 Y24.406091370558375
G1 X305.95939086294413 Y24.3248730964467
G1 X305.9238578680203 Y24.236040609137056
G1 X305.9137055837563 Y24.13959390862944
G1 X305.9238578680203 Y24.04568527918782
G1 X305.95939086294413 Y23.954314720812185
G1 X306.01269035532994 Y23.875634517766496
G1 X306.0862944162437 Y23.80964467005076
G1 X306.1700507614213 Y23.76649746192893
G1 X306.26395939086296 Y23.743654822335024
G0 Z10
G0 X335.9626903553299 Y217.83807106598985
G1 Z-3 F800
G1 X335.8654822335026 Y217.83756345177665 F1500
G1 X335.7715736040609 Y217.81472081218277
G1 X335.6852791878173 Y217.7715736040609
G1 X335.61421319796955 Y217.7055837563452
G1 X335.55837563451774 Y217.62690355329948
G1 X335.5253807106599 Y217.53553299492384
G1 X335.51269035532994 Y217.44162436548223
G1 X335.5253807106599 Y217.3451776649746
G1 X335.55837563451774 Y217.25634517766497
G1 X335.61421319796955 Y217.17512690355332
G1 X335.6852791878173 Y217.11167512690355
G1 X335.7715736040609 Y217.06598984771574
G1 X335.8654822335026 Y217.0431472081218
G1 X335.9619289340102 Y217.0431472081218
G1 X336.05583756345175 Y217.06598984771574
G1 X336.1395939086294 Y217.10913705583755
G1 X336.21319796954316 Y217.17512690355332
G1 X336.2690355329949 Y217.25634517766497
G1 X336.3020304568528 Y217.3451776649746
G1 X336.31472081218277 Y217.44162436548223
G1 X336.3020304568528 Y217.53553299492384
G1 X336.2690355329949 Y217.62690355329948
G1 X336.21319796954316 Y217.7055837563452
G1 X336.1395939086294 Y217.7715736040609
G1 X336.05583756345175 Y217.81472081218277
G1 X335.9619289340102 Y217.83756345177665
G0 Z10
G0 X169.296192893401 Y40.74822335025381
G1 Z-3 F800
G1 X169.1979695431472 Y40.74873096446701 F1500
G1 X169.10406091370558 Y40.7258883248731
G1 X169.02030456852793 Y40.680203045685275
G1 X168.9467005076142 Y40.61675126903553
G1 X168.89340101522845 Y40.535532994923855
G1 X168.85786802030455 Y40.44670050761422
G1 X168.84771573604064 Y40.3502538071066
G1 X168.85786802030455 Y40.253807106598984
G1 X168.89340101522845 Y40.164974619289346
G1 X168.9467005076142 Y40.08375634517766
G1 X169.02030456852793 Y40.02030456852792
G1 X169.10406091370558 Y39.977157360406096
G1 X169.1979695431472 Y39.95431472081218
G1 X169.2969543147208 Y39.95431472081218
G1 X169.39086294416242 Y39.977157360406096
G1 X169.47461928934013 Y40.02030456852792
G1 X169.5482233502538 Y40.08375634517766
G1 X169.60406091370558 Y40.164974619289346
G1 X169.63705583756342 Y40.253807106598984
G1 X169.64720812182742 Y40.3502538071066
G1 X169.63705583756342 Y40.44670050761422
G1 X169.60406091370558 Y40.535532994923855
G1 X169.5482233502538 Y40.61675126903553
G1 X169.47461928934013 Y40.680203045685275
G1 X169.39086294416242 Y40.7258883248731
G1 X169.2969543147208 Y40.74873096446701
G0 Z10
G0 X306.26472081218276 Y39.953045685279186
G1 Z-3 F800
G1 X306.3629441624365 Y39.95431472081218 F1500
G1 X306.4568527918782 Y39.977157360406096
G1 X306.54060913705587 Y40.02030456852792
G1 X306.61421319796955 Y40.08375634517766
G1 X306.6700507614213 Y40.164974619289346
G1 X306.70304568527916 Y40.253807106598984
G1 X306.71319796954316 Y40.3502538071066
G1 X306.70304568527916 Y40.44670050761422
G1 X306.6700507614213 Y40.535532994923855
G1 X306.61421319796955 Y40.61675126903553
G1 X306.54060913705587 Y40.680203045685275
G1 X306.4568527918782 Y40.7258883248731
G1 X306.3629441624365 Y40.74873096446701
G1 X306.26395939086296 Y40.74873096446701
G1 X306.1700507614213 Y40.7258883248731
G1 X306.0862944162437 Y40.680203045685275
G1 X306.01269035532994 Y40.61675126903553
G1 X305.95939086294413 Y40.535532994923855
G1 X305.9238578680203 Y40.44670050761422
G1 X305.9137055837563 Y40.3502538071066
G1 X305.9238578680203 Y40.253807106598984
G1 X305.95939086294413 Y40.164974619289346
G1 X306.01269035532994 Y40.08375634517766
G1 X306.0862944162437 Y40.02030456852792
G1 X306.1700507614213 Y39.977157360406096
G1 X306.26395939086296 Y39.95431472081218
G0 Z10
G0 X139.59822335025382 Y23.743147208121826
G1 Z-3 F800
G1 X139.69543147208122 Y23.743654822335024 F1500
G1 X139.78934010152284 Y23.76649746192893
G1 X139.87563451776649 Y23.80964467005076
G1 X139.9467005076142 Y23.875634517766496
G1 X140.002538071066 Y23.954314720812185
G1 X140.03553299492387 Y24.04568527918782
G1 X140.0482233502538 Y24.13959390862944
G1 X140.03553299492387 Y24.236040609137056
G1 X140.002538071066 Y24.3248730964467
G1 X139.9467005076142 Y24.406091370558375
G1 X139.87563451776649 Y24.469543147208125
G1 X139.78934010152284 Y24.51522842639594
G1 X139.69543147208122 Y24.538071065989847
G1 X139.5989847715736 Y24.538071065989847
G1 X139.50507614213197 Y24.51522842639594
G1 X139.42131979695432 Y24.472081218274113
G1 X139.3477157360406 Y24.406091370558375
G1 X139.29187817258884 Y24.3248730964467
G1 X139.25888324873097 Y24.236040609137056
G1 X139.24619289340103 Y24.13959390862944
G1 X139.25888324873097 Y24.04568527918782
G1 X139.29187817258884 Y23.954314720812185
G1 X139.3477157360406 Y23.875634517766496
G1 X139.42131979695432 Y23.80964467005076
G1 X139.50507614213197 Y23.76649746192893
G1 X139.5989847715736 Y23.743654822335024
G0 Z10
G0 X335.9626903553299 Y24.538071065989847
G1 Z-3 F800
G1 X335.8654822335026 Y24.538071065989847 F1500
G1 X335.7715736040609 Y24.51522842639594
G1 X335.6852791878173 Y24.469543147208125
G1 X335.61421319796955 Y24.406091370558375
G1 X335.55837563451774 Y24.3248730964467
G1 X335.5253807106599 Y24.236040609137056
G1 X335.51269035532994 Y24.13959390862944
G1 X335.5253807106599 Y24.04568527918782
G1 X335.55837563451774 Y23.954314720812185
G1 X335.61421319796955 Y23.875634517766496
G1 X335.6852791878173 Y23.80964467005076
G1 X335.7715736040609 Y23.76649746192893
G1 X335.8654822335026 Y23.743654822335024
G1 X335.9619289340102 Y23.743654822335024
G1 X336.05583756345175 Y23.76649746192893
G1 X336.1395939086294 Y23.80964467005076
G1 X336.21319796954316 Y23.875634517766496
G1 X336.2690355329949 Y23.954314720812185
G1 X336.3020304568528 Y24.04568527918782
G1 X336.31472081218277 Y24.13959390862944
G1 X336.3020304568528 Y24.236040609137056
G1 X336.2690355329949 Y24.3248730964467
G1 X336.21319796954316 Y24.406091370558375
G1 X336.1395939086294 Y24.472081218274113
G1 X336.05583756345175 Y24.51522842639594
G1 X335.9619289340102 Y24.538071065989847
G0 Z10
G0 X169.1982233502538 Y23.743147208121826
G1 Z-3 F800
G1 X169.2969543147208 Y23.743654822335024 F1500
G1 X169.39086294416242 Y23.76649746192893
G1 X169.47461928934013 Y23.80964467005076
G1 X169.5482233502538 Y23.875634517766496
G1 X169.60406091370558 Y23.954314720812185
G1 X169.63705583756342 Y24.04568527918782
G1 X169.64720812182742 Y24.13959390862944
G1 X169.63705583756342 Y24.236040609137056
G1 X169.60406091370558 Y24.3248730964467
G1 X169.5482233502538 Y24.406091370558375
G1 X169.47461928934013 Y24.469543147208125
G1 X169.39086294416242 Y24.51522842639594
G1 X169.2969543147208 Y24.538071065989847
G1 X169.1979695431472 Y24.538071065989847
G1 X169.10406091370558 Y24.51522842639594
G1 X169.02030456852793 Y24.472081218274113
G1 X168.9467005076142 Y24.406091370558375
G1 X168.89340101522845 Y24.3248730964467
G1 X168.85786802030455 Y24.236040609137056
G1 X168.84771573604064 Y24.13959390862944
G1 X168.85786802030455 Y24.04568527918782
G1 X168.89340101522845 Y23.954314720812185
G1 X168.9467005076142 Y23.875634517766496
G1 X169.02030456852793 Y23.80964467005076
G1 X169.10406091370558 Y23.76649746192893
G1 X169.1979695431472 Y23.743654822335024
G0 Z10
G0 X139.69619289340102 Y40.74822335025381
G1 Z-3 F800
G1 X139.5989847715736 Y40.74873096446701 F1500
G1 X139.50507614213197 Y40.7258883248731
G1 X139.42131979695432 Y40.680203045685275
G1 X139.3477157360406 Y40.61675126903553
G1 X139.29187817258884 Y40.535532994923855
G1 X139.25888324873097 Y40.44670050761422
G1 X139.24619289340103 Y40.3502538071066
G1 X139.25888324873097 Y40.253807106598984
G1 X139.29187817258884 Y40.164974619289346
G1 X139.3477157360406 Y40.08375634517766
G1 X139.42131979695432 Y40.02030456852792
G1 X139.50507614213197 Y39.977157360406096
G1 X139.5989847715736 Y39.95431472081218
G1 X139.69543147208122 Y39.95431472081218
G1 X139.78934010152284 Y39.977157360406096
G1 X139.87563451776649 Y40.02030456852792
G1 X139.9467005076142 Y40.08375634517766
G1 X140.002538071066 Y40.164974619289346
G1 X140.03553299492387 Y40.253807106598984
G1 X140.0482233502538 Y40.3502538071066
G1 X140.03553299492387 Y40.44670050761422
G1 X140.002538071066 Y40.535532994923855
G1 X139.9467005076142 Y40.61675126903553
G1 X139.87563451776649 Y40.680203045685275
G1 X139.78934010152284 Y40.7258883248731
G1 X139.69543147208122 Y40.74873096446701
G0 Z10
G0 X169.1982233502538 Y233.25304568527918
