(File built with GCodeTools)
(Generated on 13.08.2017 19.49.50)

(Header)
G90 (set absolute distance mode)
G17 (set active plane to XY)
G40 (turn cutter compensation off)
G21 (set units to mm)
G0 Z3
M3 S4000 (start the spindle clockwise at the S speed)
(Header end.)

G0 X0 Y0
G1 Z-20 F228.6
G0 Z3

G0 X0 Y20
G1 Z-20 F228.6
G0 Z3

G0 X0 Y40
G1 Z-20 F228.6
G0 Z3

G0 X0 Y60
G1 Z-20 F228.6
G0 Z3

G0 X0 Y80
G1 Z-20 F228.6
G0 Z3

G0 X0 Y100
G1 Z-20 F228.6
G0 Z3

G0 X0 Y120
G1 Z-20 F228.6
G0 Z3

G0 X0 Y140
G1 Z-20 F228.6
G0 Z3

G0 X0 Y160
G1 Z-20 F228.6
G0 Z3

G0 X0 Y180
G1 Z-20 F228.6
G0 Z3

G0 X20 Y180
G1 Z-20 F228.6
G0 Z3

G0 X20 Y160
G1 Z-20 F228.6
G0 Z3

G0 X20 Y140
G1 Z-20 F228.6
G0 Z3

G0 X20 Y120
G1 Z-20 F228.6
G0 Z3

G0 X20 Y100
G1 Z-20 F228.6
G0 Z3

G0 X20 Y80
G1 Z-20 F228.6
G0 Z3

G0 X20 Y60
G1 Z-20 F228.6
G0 Z3

G0 X20 Y40
G1 Z-20 F228.6
G0 Z3

G0 X20 Y20
G1 Z-20 F228.6
G0 Z3

G0 X20 Y0
G1 Z-20 F228.6
G0 Z3

G0 X40 Y0
G1 Z-20 F228.6
G0 Z3

G0 X40 Y20
G1 Z-20 F228.6
G0 Z3

G0 X40 Y40
G1 Z-20 F228.6
G0 Z3

G0 X40 Y60
G1 Z-20 F228.6
G0 Z3

G0 X40 Y80
G1 Z-20 F228.6
G0 Z3

G0 X40 Y100
G1 Z-20 F228.6
G0 Z3

G0 X40 Y120
G1 Z-20 F228.6
G0 Z3

G0 X40 Y140
G1 Z-20 F228.6
G0 Z3

G0 X40 Y160
G1 Z-20 F228.6
G0 Z3

G0 X40 Y180
G1 Z-20 F228.6
G0 Z3

G0 X60 Y180
G1 Z-20 F228.6
G0 Z3

G0 X60 Y160
G1 Z-20 F228.6
G0 Z3

G0 X60 Y140
G1 Z-20 F228.6
G0 Z3

G0 X60 Y120
G1 Z-20 F228.6
G0 Z3

G0 X60 Y100
G1 Z-20 F228.6
G0 Z3

G0 X60 Y80
G1 Z-20 F228.6
G0 Z3

G0 X60 Y60
G1 Z-20 F228.6
G0 Z3

G0 X60 Y40
G1 Z-20 F228.6
G0 Z3

G0 X60 Y20
G1 Z-20 F228.6
G0 Z3

G0 X60 Y0
G1 Z-20 F228.6
G0 Z3

G0 X80 Y0
G1 Z-20 F228.6
G0 Z3

G0 X80 Y20
G1 Z-20 F228.6
G0 Z3

G0 X80 Y40
G1 Z-20 F228.6
G0 Z3

G0 X80 Y60
G1 Z-20 F228.6
G0 Z3

G0 X80 Y80
G1 Z-20 F228.6
G0 Z3

G0 X80 Y100
G1 Z-20 F228.6
G0 Z3

G0 X80 Y120
G1 Z-20 F228.6
G0 Z3

G0 X80 Y140
G1 Z-20 F228.6
G0 Z3

G0 X80 Y160
G1 Z-20 F228.6
G0 Z3

G0 X80 Y180
G1 Z-20 F228.6
G0 Z3

G0 X100 Y180
G1 Z-20 F228.6
G0 Z3

G0 X100 Y160
G1 Z-20 F228.6
G0 Z3

G0 X100 Y140
G1 Z-20 F228.6
G0 Z3

G0 X100 Y120
G1 Z-20 F228.6
G0 Z3

G0 X100 Y100
G1 Z-20 F228.6
G0 Z3

G0 X100 Y80
G1 Z-20 F228.6
G0 Z3

G0 X100 Y60
G1 Z-20 F228.6
G0 Z3

G0 X100 Y40
G1 Z-20 F228.6
G0 Z3

G0 X100 Y20
G1 Z-20 F228.6
G0 Z3

G0 X100 Y0
G1 Z-20 F228.6
G0 Z3

G0 X120 Y0
G1 Z-20 F228.6
G0 Z3

G0 X120 Y20
G1 Z-20 F228.6
G0 Z3

G0 X120 Y40
G1 Z-20 F228.6
G0 Z3

G0 X120 Y60
G1 Z-20 F228.6
G0 Z3

G0 X120 Y80
G1 Z-20 F228.6
G0 Z3

G0 X120 Y100
G1 Z-20 F228.6
G0 Z3

G0 X120 Y120
G1 Z-20 F228.6
G0 Z3

G0 X120 Y140
G1 Z-20 F228.6
G0 Z3

G0 X120 Y160
G1 Z-20 F228.6
G0 Z3

G0 X120 Y180
G1 Z-20 F228.6
G0 Z3

G0 X140 Y180
G1 Z-20 F228.6
G0 Z3

G0 X140 Y160
G1 Z-20 F228.6
G0 Z3

G0 X140 Y140
G1 Z-20 F228.6
G0 Z3

G0 X140 Y120
G1 Z-20 F228.6
G0 Z3

G0 X140 Y100
G1 Z-20 F228.6
G0 Z3

G0 X140 Y80
G1 Z-20 F228.6
G0 Z3

G0 X140 Y60
G1 Z-20 F228.6
G0 Z3

G0 X140 Y40
G1 Z-20 F228.6
G0 Z3

G0 X140 Y20
G1 Z-20 F228.6
G0 Z3

G0 X140 Y0
G1 Z-20 F228.6
G0 Z3

G0 X160 Y0
G1 Z-20 F228.6
G0 Z3

G0 X160 Y20
G1 Z-20 F228.6
G0 Z3

G0 X160 Y40
G1 Z-20 F228.6
G0 Z3

G0 X160 Y60
G1 Z-20 F228.6
G0 Z3

G0 X160 Y80
G1 Z-20 F228.6
G0 Z3

G0 X160 Y100
G1 Z-20 F228.6
G0 Z3

G0 X160 Y120
G1 Z-20 F228.6
G0 Z3

G0 X160 Y140
G1 Z-20 F228.6
G0 Z3

G0 X160 Y160
G1 Z-20 F228.6
G0 Z3

G0 X160 Y180
G1 Z-20 F228.6
G0 Z3

G0 X180 Y180
G1 Z-20 F228.6
G0 Z3

G0 X180 Y160
G1 Z-20 F228.6
G0 Z3

G0 X180 Y140
G1 Z-20 F228.6
G0 Z3

G0 X180 Y120
G1 Z-20 F228.6
G0 Z3

G0 X180 Y100
G1 Z-20 F228.6
G0 Z3

G0 X180 Y80
G1 Z-20 F228.6
G0 Z3

G0 X180 Y60
G1 Z-20 F228.6
G0 Z3

G0 X180 Y40
G1 Z-20 F228.6
G0 Z3

G0 X180 Y20
G1 Z-20 F228.6
G0 Z3

G0 X180 Y0
G1 Z-20 F228.6
G0 Z3

G0 X200 Y0
G1 Z-20 F228.6
G0 Z3

G0 X200 Y20
G1 Z-20 F228.6
G0 Z3

G0 X200 Y40
G1 Z-20 F228.6
G0 Z3

G0 X200 Y60
G1 Z-20 F228.6
G0 Z3

G0 X200 Y80
G1 Z-20 F228.6
G0 Z3

G0 X200 Y100
G1 Z-20 F228.6
G0 Z3

G0 X200 Y120
G1 Z-20 F228.6
G0 Z3

G0 X200 Y140
G1 Z-20 F228.6
G0 Z3

G0 X200 Y160
G1 Z-20 F228.6
G0 Z3

G0 X200 Y180
G1 Z-20 F228.6
G0 Z3

G0 X220 Y180
G1 Z-20 F228.6
G0 Z3

G0 X220 Y160
G1 Z-20 F228.6
G0 Z3

G0 X220 Y140
G1 Z-20 F228.6
G0 Z3

G0 X220 Y120
G1 Z-20 F228.6
G0 Z3

G0 X220 Y100
G1 Z-20 F228.6
G0 Z3

G0 X220 Y80
G1 Z-20 F228.6
G0 Z3

G0 X220 Y60
G1 Z-20 F228.6
G0 Z3

G0 X220 Y40
G1 Z-20 F228.6
G0 Z3

G0 X220 Y20
G1 Z-20 F228.6
G0 Z3

G0 X220 Y0
G1 Z-20 F228.6
G0 Z3

G0 X240 Y0
G1 Z-20 F228.6
G0 Z3

G0 X240 Y20
G1 Z-20 F228.6
G0 Z3

G0 X240 Y40
G1 Z-20 F228.6
G0 Z3

G0 X240 Y60
G1 Z-20 F228.6
G0 Z3

G0 X240 Y80
G1 Z-20 F228.6
G0 Z3

G0 X240 Y100
G1 Z-20 F228.6
G0 Z3

G0 X240 Y120
G1 Z-20 F228.6
G0 Z3

G0 X240 Y140
G1 Z-20 F228.6
G0 Z3

G0 X240 Y160
G1 Z-20 F228.6
G0 Z3

G0 X240 Y180
G1 Z-20 F228.6
G0 Z3

G0 X260 Y180
G1 Z-20 F228.6
G0 Z3

G0 X260 Y160
G1 Z-20 F228.6
G0 Z3

G0 X260 Y140
G1 Z-20 F228.6
G0 Z3

G0 X260 Y120
G1 Z-20 F228.6
G0 Z3

G0 X260 Y100
G1 Z-20 F228.6
G0 Z3

G0 X260 Y80
G1 Z-20 F228.6
G0 Z3

G0 X260 Y60
G1 Z-20 F228.6
G0 Z3

G0 X260 Y40
G1 Z-20 F228.6
G0 Z3

G0 X260 Y20
G1 Z-20 F228.6
G0 Z3

G0 X260 Y0
G1 Z-20 F228.6
G0 Z3

G0 X280 Y0
G1 Z-20 F228.6
G0 Z3

G0 X280 Y20
G1 Z-20 F228.6
G0 Z3

G0 X280 Y40
G1 Z-20 F228.6
G0 Z3

G0 X280 Y60
G1 Z-20 F228.6
G0 Z3

G0 X280 Y80
G1 Z-20 F228.6
G0 Z3

G0 X280 Y100
G1 Z-20 F228.6
G0 Z3

G0 X280 Y120
G1 Z-20 F228.6
G0 Z3

G0 X280 Y140
G1 Z-20 F228.6
G0 Z3

G0 X280 Y160
G1 Z-20 F228.6
G0 Z3

G0 X280 Y180
G1 Z-20 F228.6
G0 Z3

G0 X300 Y180
G1 Z-20 F228.6
G0 Z3

G0 X300 Y160
G1 Z-20 F228.6
G0 Z3

G0 X300 Y140
G1 Z-20 F228.6
G0 Z3

G0 X300 Y120
G1 Z-20 F228.6
G0 Z3

G0 X300 Y100
G1 Z-20 F228.6
G0 Z3

G0 X300 Y80
G1 Z-20 F228.6
G0 Z3

G0 X300 Y60
G1 Z-20 F228.6
G0 Z3

G0 X300 Y40
G1 Z-20 F228.6
G0 Z3

G0 X300 Y20
G1 Z-20 F228.6
G0 Z3

G0 X300 Y0
G1 Z-20 F228.6
G0 Z3

(Footer)
M5 (stop the spindle)
(Footer end.)

